app/src/main/assets/luts/PixelLog_to_ACEScg.cube
# PixelLog to ACEScg (AP1) Scene-Linear 3D LUT
# For ACEScg VFX pipelines and DaVinci Resolve Free ACES grading
# Input: Pixel-Log BT.2020 [0, 1] -> Inverse -> BT.2020 to ACEScg (AP1) Linear
LUT_3D_SIZE 33
DOMAIN_MIN 0.0 0.0 0.0
DOMAIN_MAX 1.0 1.0 1.0
0.000000 0.000000 0.000000
0.000000 0.000000 0.000000
0.000000 0.000000 0.000000
0.000000 0.000000 0.000000
0.000000 0.000000 0.000000
0.002976 0.000000 0.000000
0.009157 0.000000 0.000000
0.016632 0.000000 0.000000
0.025674 0.000000 0.000000
0.036610 0.000000 0.000000
0.049836 0.000000 0.000000
0.065834 0.000000 0.000000
0.085184 0.000000 0.000000
0.108586 0.000000 0.000000
0.136892 0.000077 0.000000
0.171127 0.003996 0.000000
0.212535 0.008737 0.000000
0.262617 0.014471 0.000000
0.323192 0.021406 0.000000
0.396456 0.029794 0.000000
0.485069 0.039940 0.000000
0.592246 0.052211 0.002894
0.721876 0.067052 0.007253
0.878663 0.085003 0.012526
1.068297 0.106714 0.018902
1.297657 0.132974 0.026615
1.575067 0.164735 0.035943
1.910593 0.203149 0.047225
2.316411 0.249612 0.060871
2.807245 0.305808 0.077376
3.400907 0.373777 0.097338
4.118939 0.455985 0.121483
4.987394 0.555415 0.150686
0.000000 0.000000 0.000000
0.000000 0.000000 0.000000
0.000000 0.000000 0.000000
0.000000 0.000000 0.000000
0.000000 0.000000 0.000000
0.005052 0.000000 0.000000
0.011233 0.000000 0.000000
0.018709 0.000000 0.000000
0.027750 0.000000 0.000000
0.038686 0.000000 0.000000
0.051913 0.000000 0.000000
0.067911 0.000000 0.000000
0.087260 0.000000 0.000000
0.110663 0.002440 0.000000
0.138968 0.005681 0.000000
0.173204 0.009600 0.000000
0.214611 0.014341 0.000000
0.264694 0.020075 0.000000
0.325268 0.027010 0.000000
0.398533 0.035398 0.000000
0.487146 0.045544 0.000000
0.594323 0.057815 0.003565
0.723953 0.072656 0.007923
0.880740 0.090607 0.013196
1.070373 0.112318 0.019572
1.299733 0.138578 0.027285
1.577143 0.170339 0.036613
1.912670 0.208753 0.047895
2.318487 0.255216 0.061541
2.809322 0.311412 0.078046
3.402984 0.379381 0.098009
4.121015 0.461589 0.122153
4.989471 0.561019 0.151356
0.000000 0.000000 0.000000
0.000000 0.000000 0.000000
0.000000 0.000000 0.000000
0.000000 0.000000 0.000000
0.002018 0.000000 0.000000
0.007129 0.000000 0.000000
0.013309 0.000000 0.000000
0.020785 0.000000 0.000000
0.029827 0.000000 0.000000
0.040762 0.000000 0.000000
0.053989 0.001318 0.000000
0.069987 0.003149 0.000000
0.089336 0.005365 0.000000
0.112739 0.008044 0.000000
0.141045 0.011285 0.000000
0.175280 0.015204 0.000000
0.216688 0.019945 0.000000
0.266770 0.025679 0.000000
0.327345 0.032614 0.000000
0.400609 0.041002 0.000000
0.489222 0.051148 0.000631
0.596399 0.063419 0.004235
0.726029 0.078260 0.008594
0.882816 0.096211 0.013866
1.072449 0.117922 0.020242
1.301810 0.144182 0.027955
1.579220 0.175943 0.037283
1.914746 0.214357 0.048565
2.320564 0.260820 0.062211
2.811398 0.317016 0.078716
3.405060 0.384985 0.098679
4.123091 0.467193 0.122823
4.991547 0.566623 0.152026
0.000000 0.000000 0.000000
0.000000 0.000000 0.000000
0.000000 0.000066 0.000000
0.000000 0.000495 0.000000
0.004098 0.000979 0.000000
0.009208 0.001564 0.000000
0.015389 0.002272 0.000000
0.022864 0.003128 0.000000
0.031906 0.004163 0.000000
0.042842 0.005415 0.000000
0.056068 0.006929 0.000000
0.072066 0.008761 0.000000
0.091415 0.010976 0.000000
0.114818 0.013656 0.000000
0.143124 0.016896 0.000000
0.177359 0.020816 0.000000
0.218767 0.025557 0.000000
0.268849 0.031291 0.000000
0.329424 0.038226 0.000000
0.402688 0.046614 0.000000
0.491301 0.056759 0.001302
0.598478 0.069030 0.004906
0.728108 0.083872 0.009265
0.884895 0.101822 0.014537
1.074528 0.123534 0.020913
1.303889 0.149793 0.028626
1.581299 0.181554 0.037954
1.916825 0.219969 0.049236
2.322643 0.266431 0.062882
2.813477 0.322627 0.079387
3.407139 0.390596 0.099350
4.125171 0.472804 0.123494
4.993626 0.572234 0.152697
0.000000 0.005522 0.000000
0.000000 0.005951 0.000000
0.000000 0.006380 0.000000
0.002212 0.006810 0.000000
0.006437 0.007294 0.000000
0.011548 0.007879 0.000000
0.017728 0.008587 0.000000
0.025204 0.009443 0.000000
0.034246 0.010478 0.000000
0.045181 0.011730 0.000000
0.058408 0.013244 0.000000
0.074406 0.015076 0.000000
0.093755 0.017291 0.000000
0.117158 0.019970 0.000000
0.145464 0.023211 0.000000
0.179699 0.027131 0.000000
0.221107 0.031872 0.000000
0.271189 0.037606 0.000000
0.331764 0.044541 0.000000
0.405028 0.052929 0.000000
0.493641 0.063074 0.002057
0.600818 0.075345 0.005661
0.730448 0.090187 0.010020
0.887235 0.108137 0.015292
1.076868 0.129849 0.021668
1.306229 0.156108 0.029381
1.583639 0.187869 0.038709
1.919165 0.226284 0.049991
2.324983 0.272746 0.063637
2.815817 0.328942 0.080142
3.409479 0.396911 0.100105
4.127510 0.479119 0.124249
4.995966 0.578549 0.153452
0.000000 0.013160 0.000000
0.000000 0.013589 0.000000
0.001288 0.014018 0.000000
0.005042 0.014448 0.000000
0.009267 0.014932 0.000000
0.014378 0.015517 0.000000
0.020558 0.016225 0.000000
0.028034 0.017080 0.000000
0.037075 0.018116 0.000000
0.048011 0.019368 0.000000
0.061238 0.020882 0.000000
0.077236 0.022714 0.000000
0.096585 0.024929 0.000000
0.119988 0.027608 0.000000
0.148294 0.030849 0.000000
0.182529 0.034769 0.000000
0.223937 0.039509 0.000000
0.274019 0.045243 0.000000
0.334593 0.052179 0.000000
0.407858 0.060567 0.000000
0.496471 0.070712 0.002970
0.603648 0.082983 0.006574
0.733278 0.097824 0.010933
0.890065 0.115775 0.016205
1.079698 0.137486 0.022582
1.309058 0.163746 0.030294
1.586469 0.195507 0.039622
1.921995 0.233922 0.050905
2.327813 0.280384 0.064551
2.818647 0.336580 0.081056
3.412309 0.404549 0.101018
4.130340 0.486757 0.125163
4.998796 0.586187 0.154365
0.000000 0.022398 0.000000
0.000961 0.022827 0.000000
0.004711 0.023256 0.000000
0.008465 0.023686 0.000000
0.012690 0.024170 0.000000
0.017800 0.024755 0.000000
0.023981 0.025462 0.000000
0.031457 0.026318 0.000000
0.040498 0.027353 0.000000
0.051434 0.028606 0.000000
0.064661 0.030120 0.000000
0.080659 0.031951 0.000000
0.100008 0.034167 0.000000
0.123411 0.036846 0.000000
0.151716 0.040087 0.000000
0.185952 0.044007 0.000000
0.227360 0.048747 0.000000
0.277442 0.054481 0.000000
0.338016 0.061417 0.000000
0.411281 0.069805 0.001095
0.499894 0.079950 0.004075
0.607071 0.092221 0.007679
0.736701 0.107062 0.012037
0.893488 0.125013 0.017310
1.083121 0.146724 0.023686
1.312481 0.172984 0.031399
1.589891 0.204745 0.040727
1.925418 0.243160 0.052009
2.331235 0.289622 0.065655
2.822070 0.345818 0.082160
3.415732 0.413787 0.102123
4.133763 0.495995 0.126267
5.002219 0.595425 0.155470
0.001352 0.033571 0.000000
0.005101 0.034000 0.000000
0.008850 0.034429 0.000000
0.012605 0.034859 0.000000
0.016830 0.035343 0.000000
0.021940 0.035928 0.000000
0.028121 0.036636 0.000000
0.035596 0.037491 0.000000
0.044638 0.038527 0.000000
0.055574 0.039779 0.000000
0.068801 0.041293 0.000000
0.084799 0.043125 0.000000
0.104148 0.045340 0.000000
0.127551 0.048019 0.000000
0.155856 0.051260 0.000000
0.190092 0.055180 0.000000
0.231499 0.059921 0.000000
0.281582 0.065655 0.000000
0.342156 0.072590 0.000000
0.415421 0.080978 0.002431
0.504034 0.091123 0.005411
0.611211 0.103394 0.009015
0.740841 0.118235 0.013373
0.897628 0.136186 0.018646
1.087261 0.157897 0.025022
1.316621 0.184157 0.032735
1.594031 0.215918 0.042063
1.929558 0.254333 0.053345
2.335375 0.300795 0.066991
2.826210 0.356991 0.083496
3.419872 0.424960 0.103459
4.137903 0.507168 0.127603
5.006358 0.606598 0.156806
0.006359 0.047085 0.000000
0.010108 0.047514 0.000000
0.013857 0.047943 0.000000
0.017612 0.048373 0.000000
0.021837 0.048857 0.000000
0.026947 0.049442 0.000000
0.033128 0.050150 0.000000
0.040604 0.051005 0.000000
0.049645 0.052041 0.000000
0.060581 0.053293 0.000000
0.073808 0.054807 0.000000
0.089806 0.056639 0.000000
0.109155 0.058854 0.000000
0.132558 0.061533 0.000000
0.160863 0.064774 0.000000
0.195099 0.068694 0.000000
0.236506 0.073434 0.000000
0.286589 0.079168 0.000000
0.347163 0.086104 0.001583
0.420428 0.094492 0.004047
0.509041 0.104637 0.007026
0.616218 0.116908 0.010630
0.745848 0.131749 0.014989
0.902635 0.149700 0.020261
1.092268 0.171411 0.026638
1.321628 0.197671 0.034351
1.599038 0.229432 0.043679
1.934565 0.267847 0.054961
2.340382 0.314309 0.068607
2.831217 0.370505 0.085112
3.424879 0.438474 0.105074
4.142910 0.520682 0.129219
5.011366 0.620112 0.158422
0.012415 0.063430 0.000000
0.016164 0.063859 0.000000
0.019914 0.064288 0.000000
0.023668 0.064718 0.000000
0.027893 0.065202 0.000000
0.033003 0.065787 0.000000
0.039184 0.066495 0.000000
0.046660 0.067350 0.000000
0.055701 0.068386 0.000000
0.066637 0.069638 0.000000
0.079864 0.071152 0.000000
0.095862 0.072984 0.000000
0.115211 0.075199 0.000000
0.138614 0.077878 0.000000
0.166919 0.081119 0.000000
0.201155 0.085039 0.000000
0.242563 0.089780 0.000000
0.292645 0.095513 0.001501
0.353219 0.102449 0.003538
0.426484 0.110837 0.006001
0.515097 0.120982 0.008981
0.622274 0.133253 0.012585
0.751904 0.148094 0.016944
0.908691 0.166045 0.022216
1.098324 0.187756 0.028592
1.327684 0.214016 0.036305
1.605095 0.245777 0.045633
1.940621 0.284192 0.056916
2.346438 0.330654 0.070562
2.837273 0.386850 0.087066
3.430935 0.454819 0.107029
4.148966 0.537027 0.131173
5.017422 0.636457 0.160376
0.019740 0.083199 0.000000
0.023489 0.083628 0.000000
0.027238 0.084057 0.000000
0.030993 0.084487 0.000000
0.035218 0.084971 0.000000
0.040328 0.085556 0.000000
0.046509 0.086264 0.000000
0.053984 0.087120 0.000000
0.063026 0.088155 0.000000
0.073962 0.089407 0.000000
0.087189 0.090921 0.000000
0.103187 0.092753 0.000000
0.122536 0.094968 0.000000
0.145939 0.097648 0.000000
0.174244 0.100888 0.000000
0.208480 0.104808 0.000788
0.249887 0.109549 0.002181
0.299970 0.115283 0.003865
0.360544 0.122218 0.005901
0.433809 0.130606 0.008365
0.522422 0.140751 0.011345
0.629599 0.153022 0.014949
0.759229 0.167864 0.019308
0.916016 0.185814 0.024580
1.105649 0.207526 0.030956
1.335009 0.233785 0.038669
1.612419 0.265546 0.047997
1.947946 0.303961 0.059279
2.353763 0.350423 0.072925
2.844598 0.406619 0.089430
3.438260 0.474588 0.109393
4.156291 0.556796 0.133537
5.024746 0.656226 0.162740
0.028599 0.107110 0.000000
0.032348 0.107539 0.000000
0.036098 0.107968 0.000000
0.039852 0.108398 0.000000
0.044077 0.108882 0.000000
0.049187 0.109467 0.000000
0.055368 0.110175 0.000000
0.062844 0.111030 0.000000
0.071885 0.112066 0.000000
0.082821 0.113318 0.000000
0.096048 0.114832 0.000000
0.112046 0.116664 0.000107
0.131395 0.118879 0.000757
0.154798 0.121558 0.001544
0.183103 0.124799 0.002496
0.217339 0.128719 0.003647
0.258747 0.133460 0.005040
0.308829 0.139194 0.006724
0.369403 0.146129 0.008761
0.442668 0.154517 0.011224
0.531281 0.164662 0.014204
0.638458 0.176933 0.017808
0.768088 0.191774 0.022167
0.924875 0.209725 0.027439
1.114508 0.231436 0.033815
1.343868 0.257696 0.041528
1.621279 0.289457 0.050856
1.956805 0.327872 0.062138
2.362623 0.374334 0.075784
2.853457 0.430530 0.092289
3.447119 0.498499 0.112252
4.165150 0.580707 0.136396
5.033606 0.680137 0.165599
0.039314 0.136030 0.000759
0.043064 0.136459 0.000885
0.046813 0.136888 0.001011
0.050568 0.137318 0.001137
0.054793 0.137802 0.001279
0.059903 0.138387 0.001451
0.066083 0.139095 0.001659
0.073559 0.139950 0.001910
0.082601 0.140986 0.002214
0.093536 0.142238 0.002582
0.106763 0.143752 0.003027
0.122761 0.145584 0.003565
0.142110 0.147799 0.004215
0.165513 0.150478 0.005002
0.193819 0.153719 0.005954
0.228054 0.157639 0.007105
0.269462 0.162380 0.008498
0.319544 0.168114 0.010182
0.380119 0.175049 0.012219
0.453383 0.183437 0.014682
0.541996 0.193582 0.017662
0.649173 0.205853 0.021266
0.778803 0.220694 0.025625
0.935590 0.238645 0.030897
1.125223 0.260356 0.037273
1.354584 0.286616 0.044986
1.631994 0.318377 0.054314
1.967520 0.356792 0.065596
2.373338 0.403254 0.079243
2.864172 0.459450 0.095747
3.457834 0.527419 0.115710
4.175866 0.609627 0.139854
5.044321 0.709057 0.169057
0.052274 0.171008 0.004941
0.056024 0.171438 0.005067
0.059773 0.171867 0.005193
0.063528 0.172297 0.005319
0.067753 0.172780 0.005462
0.072863 0.173366 0.005633
0.079044 0.174073 0.005841
0.086519 0.174929 0.006093
0.095561 0.175964 0.006397
0.106497 0.177216 0.006764
0.119723 0.178731 0.007209
0.135721 0.180562 0.007747
0.155070 0.182778 0.008398
0.178473 0.185457 0.009185
0.206779 0.188698 0.010136
0.241014 0.192617 0.011288
0.282422 0.197358 0.012680
0.332504 0.203092 0.014364
0.393079 0.210027 0.016401
0.466343 0.218415 0.018865
0.554956 0.228561 0.021844
0.662133 0.240832 0.025448
0.791763 0.255673 0.029807
0.948550 0.273624 0.035079
1.138183 0.295335 0.041456
1.367544 0.321595 0.049168
1.644954 0.353356 0.058497
1.980480 0.391770 0.069779
2.386298 0.438233 0.083425
2.877132 0.494429 0.099930
3.470794 0.562398 0.119892
4.188826 0.644606 0.144037
5.057281 0.744036 0.173239
0.067949 0.213315 0.010000
0.071699 0.213744 0.010126
0.075448 0.214173 0.010252
0.079203 0.214603 0.010378
0.083428 0.215087 0.010520
0.088538 0.215672 0.010692
0.094719 0.216380 0.010900
0.102194 0.217235 0.011151
0.111236 0.218271 0.011455
0.122172 0.219523 0.011823
0.135399 0.221037 0.012268
0.151396 0.222869 0.012806
0.170746 0.225084 0.013456
0.194148 0.227763 0.014243
0.222454 0.231004 0.015195
0.256690 0.234924 0.016346
0.298097 0.239665 0.017739
0.348180 0.245399 0.019423
0.408754 0.252334 0.021460
0.482018 0.260722 0.023923
0.570631 0.270867 0.026903
0.677808 0.283138 0.030507
0.807439 0.297979 0.034866
0.964225 0.315930 0.040138
1.153859 0.337641 0.046515
1.383219 0.363901 0.054227
1.660629 0.395662 0.063555
1.996156 0.434077 0.074838
2.401973 0.480539 0.088484
2.892808 0.536735 0.104988
3.486470 0.604704 0.124951
4.204501 0.686912 0.149095
5.072956 0.786342 0.178298
0.086909 0.264484 0.016118
0.090658 0.264913 0.016244
0.094407 0.265343 0.016370
0.098162 0.265773 0.016497
0.102387 0.266256 0.016639
0.107497 0.266841 0.016810
0.113678 0.267549 0.017018
0.121153 0.268405 0.017270
0.130195 0.269440 0.017574
0.141131 0.270692 0.017941
0.154358 0.272207 0.018386
0.170355 0.274038 0.018924
0.189705 0.276253 0.019575
0.213107 0.278933 0.020362
0.241413 0.282174 0.021314
0.275649 0.286093 0.022465
0.317056 0.290834 0.023857
0.367139 0.296568 0.025541
0.427713 0.303503 0.027578
0.500977 0.311891 0.030042
0.589590 0.322037 0.033021
0.696767 0.334307 0.036625
0.826398 0.349149 0.040984
0.983185 0.367100 0.046256
1.172818 0.388811 0.052633
1.402178 0.415071 0.060345
1.679588 0.446831 0.069674
2.015115 0.485246 0.080956
2.420932 0.531709 0.094602
2.911767 0.587905 0.111107
3.505429 0.655873 0.131069
4.223460 0.738081 0.155214
5.091915 0.837512 0.184417
0.109839 0.326373 0.023518
0.113589 0.326803 0.023644
0.117338 0.327232 0.023770
0.121093 0.327662 0.023897
0.125318 0.328146 0.024039
0.130428 0.328731 0.024211
0.136609 0.329438 0.024418
0.144084 0.330294 0.024670
0.153126 0.331329 0.024974
0.164062 0.332581 0.025342
0.177289 0.334096 0.025786
0.193286 0.335927 0.026324
0.212636 0.338143 0.026975
0.236038 0.340822 0.027762
0.264344 0.344063 0.028714
0.298579 0.347982 0.029865
0.339987 0.352723 0.031257
0.390070 0.358457 0.032941
0.450644 0.365392 0.034978
0.523908 0.373780 0.037442
0.612521 0.383926 0.040422
0.719698 0.396197 0.044025
0.849328 0.411038 0.048384
1.006115 0.428989 0.053657
1.195749 0.450700 0.060033
1.425109 0.476960 0.067746
1.702519 0.508721 0.077074
2.038045 0.547135 0.088356
2.443863 0.593598 0.102002
2.934698 0.649794 0.118507
3.528359 0.717763 0.138469
4.246391 0.799971 0.162614
5.114846 0.899401 0.191817
0.137574 0.401228 0.032469
0.141324 0.401657 0.032595
0.145073 0.402087 0.032721
0.148828 0.402516 0.032847
0.153053 0.403000 0.032989
0.158163 0.403585 0.033161
0.164343 0.404293 0.033369
0.171819 0.405149 0.033620
0.180861 0.406184 0.033924
0.191796 0.407436 0.034292
0.205023 0.408950 0.034737
0.221021 0.410782 0.035275
0.240370 0.412997 0.035925
0.263773 0.415677 0.036712
0.292079 0.418917 0.037664
0.326314 0.422837 0.038815
0.367722 0.427578 0.040208
0.417804 0.433312 0.041892
0.478379 0.440247 0.043929
0.551643 0.448635 0.046392
0.640256 0.458781 0.049372
0.747433 0.471051 0.052976
0.877063 0.485893 0.057335
1.033850 0.503843 0.062607
1.223483 0.525555 0.068984
1.452844 0.551814 0.076696
1.730254 0.583575 0.086024
2.065780 0.621990 0.097307
2.471598 0.668452 0.110953
2.962432 0.724649 0.127458
3.556094 0.792617 0.147420
4.274126 0.874825 0.171565
5.142581 0.974256 0.200767
0.171119 0.491764 0.043294
0.174869 0.492194 0.043421
0.178618 0.492623 0.043547
0.182373 0.493053 0.043673
0.186598 0.493537 0.043815
0.191708 0.494122 0.043987
0.197889 0.494829 0.044195
0.205364 0.495685 0.044446
0.214406 0.496720 0.044750
0.225342 0.497972 0.045118
0.238568 0.499487 0.045562
0.254566 0.501318 0.046100
0.273915 0.503534 0.046751
0.297318 0.506213 0.047538
0.325624 0.509454 0.048490
0.359859 0.513373 0.049641
0.401267 0.518114 0.051033
0.451349 0.523848 0.052717
0.511924 0.530783 0.054754
0.585188 0.539172 0.057218
0.673801 0.549317 0.060198
0.780978 0.561588 0.063802
0.910608 0.576429 0.068160
1.067395 0.594380 0.073433
1.257028 0.616091 0.079809
1.486389 0.642351 0.087522
1.763799 0.674112 0.096850
2.099325 0.712526 0.108132
2.505143 0.758989 0.121778
2.995977 0.815185 0.138283
3.589639 0.883154 0.158246
4.307671 0.965362 0.182390
5.176126 1.064792 0.211593
0.211692 0.601268 0.056388
0.215441 0.601697 0.056514
0.219191 0.602126 0.056640
0.222945 0.602556 0.056766
0.227170 0.603040 0.056908
0.232280 0.603625 0.057080
0.238461 0.604333 0.057288
0.245937 0.605189 0.057539
0.254978 0.606224 0.057843
0.265914 0.607476 0.058211
0.279141 0.608990 0.058656
0.295139 0.610822 0.059194
0.314488 0.613037 0.059845
0.337891 0.615716 0.060631
0.366197 0.618957 0.061583
0.400432 0.622877 0.062735
0.441840 0.627618 0.064127
0.491922 0.633352 0.065811
0.552496 0.640287 0.067848
0.625761 0.648675 0.070311
0.714374 0.658820 0.073291
0.821551 0.671091 0.076895
0.951181 0.685933 0.081254
1.107968 0.703883 0.086526
1.297601 0.725594 0.092903
1.526961 0.751854 0.100615
1.804372 0.783615 0.109943
2.139898 0.822030 0.121226
2.545716 0.868492 0.134872
3.036550 0.924688 0.151377
3.630212 0.992657 0.171339
4.348243 1.074865 0.195484
5.216699 1.174295 0.224686
0.260764 0.733712 0.072224
0.264514 0.734141 0.072351
0.268263 0.734570 0.072477
0.272018 0.735000 0.072603
0.276243 0.735484 0.072745
0.281353 0.736069 0.072917
0.287534 0.736776 0.073125
0.295009 0.737632 0.073376
0.304051 0.738667 0.073680
0.314987 0.739920 0.074048
0.328213 0.741434 0.074492
0.344211 0.743265 0.075030
0.363561 0.745481 0.075681
0.386963 0.748160 0.076468
0.415269 0.751401 0.077420
0.449504 0.755321 0.078571
0.490912 0.760061 0.079963
0.540994 0.765795 0.081647
0.601569 0.772731 0.083684
0.674833 0.781119 0.086148
0.763446 0.791264 0.089128
0.870623 0.803535 0.092732
1.000253 0.818376 0.097091
1.157040 0.836327 0.102363
1.346673 0.858038 0.108739
1.576034 0.884298 0.116452
1.853444 0.916059 0.125780
2.188970 0.954474 0.137062
2.594788 1.000936 0.150708
3.085622 1.057132 0.167213
3.679284 1.125101 0.187176
4.397316 1.207309 0.211320
5.265771 1.306739 0.240523
0.320117 0.893902 0.091379
0.323867 0.894331 0.091505
0.327616 0.894760 0.091631
0.331371 0.895190 0.091757
0.335596 0.895674 0.091899
0.340706 0.896259 0.092071
0.346886 0.896967 0.092279
0.354362 0.897822 0.092530
0.363404 0.898858 0.092834
0.374340 0.900110 0.093202
0.387566 0.901624 0.093647
0.403564 0.903456 0.094185
0.422913 0.905671 0.094835
0.446316 0.908350 0.095622
0.474622 0.911591 0.096574
0.508857 0.915511 0.097725
0.550265 0.920252 0.099118
0.600347 0.925985 0.100802
0.660922 0.932921 0.102839
0.734186 0.941309 0.105302
0.822799 0.951454 0.108282
0.929976 0.963725 0.111886
1.059606 0.978566 0.116245
1.216393 0.996517 0.121517
1.406026 1.018228 0.127893
1.635387 1.044488 0.135606
1.912797 1.076249 0.144934
2.248323 1.114664 0.156217
2.654141 1.161126 0.169863
3.144975 1.217322 0.186367
3.738637 1.285291 0.206330
4.456669 1.367499 0.230474
5.325124 1.466929 0.259677
0.391904 1.087651 0.114546
0.395654 1.088080 0.114672
0.399403 1.088509 0.114798
0.403158 1.088939 0.114924
0.407383 1.089423 0.115066
0.412493 1.090008 0.115238
0.418673 1.090716 0.115446
0.426149 1.091572 0.115697
0.435191 1.092607 0.116001
0.446127 1.093859 0.116369
0.459353 1.095373 0.116814
0.475351 1.097205 0.117352
0.494700 1.099420 0.118002
0.518103 1.102100 0.118789
0.546409 1.105340 0.119741
0.580644 1.109260 0.120892
0.622052 1.114001 0.122285
0.672134 1.119735 0.123969
0.732709 1.126670 0.126005
0.805973 1.135058 0.128469
0.894586 1.145203 0.131449
1.001763 1.157474 0.135053
1.131393 1.172316 0.139412
1.288180 1.190266 0.144684
1.477813 1.211978 0.151060
1.707174 1.238237 0.158773
1.984584 1.269998 0.168101
2.320110 1.308413 0.179383
2.725928 1.354875 0.193029
3.216762 1.411071 0.209534
3.810424 1.479040 0.229497
4.528456 1.561248 0.253641
5.396911 1.660678 0.282844
0.478730 1.321990 0.142566
0.482480 1.322419 0.142692
0.486229 1.322848 0.142818
0.489984 1.323278 0.142944
0.494209 1.323762 0.143086
0.499319 1.324347 0.143258
0.505500 1.325054 0.143466
0.512975 1.325910 0.143717
0.522017 1.326946 0.144021
0.532953 1.328198 0.144389
0.546179 1.329712 0.144834
0.562177 1.331544 0.145372
0.581526 1.333759 0.146022
0.604929 1.336438 0.146809
0.633235 1.339679 0.147761
0.667470 1.343599 0.148912
0.708878 1.348339 0.150305
0.758960 1.354073 0.151989
0.819535 1.361009 0.154026
0.892799 1.369397 0.156489
0.981412 1.379542 0.159469
1.088589 1.391813 0.163073
1.218219 1.406654 0.167432
1.375006 1.424605 0.172704
1.564639 1.446316 0.179081
1.794000 1.472576 0.186793
2.071410 1.504337 0.196121
2.406936 1.542752 0.207404
2.812754 1.589214 0.221050
3.303588 1.645410 0.237555
3.897250 1.713379 0.257517
4.615282 1.795587 0.281662
5.483737 1.895017 0.310864
0.583746 1.605421 0.176456
0.587495 1.605850 0.176582
0.591245 1.606280 0.176708
0.594999 1.606710 0.176835
0.599224 1.607193 0.176977
0.604334 1.607778 0.177149
0.610515 1.608486 0.177356
0.617991 1.609342 0.177608
0.627032 1.610377 0.177912
0.637968 1.611629 0.178280
0.651195 1.613144 0.178724
0.667193 1.614975 0.179262
0.686542 1.617190 0.179913
0.709945 1.619870 0.180700
0.738251 1.623111 0.181652
0.772486 1.627030 0.182803
0.813894 1.631771 0.184195
0.863976 1.637505 0.185879
0.924550 1.644440 0.187916
0.997815 1.652828 0.190380
1.086428 1.662974 0.193359
1.193605 1.675244 0.196963
1.323235 1.690086 0.201322
1.480022 1.708037 0.206594
1.669655 1.729748 0.212971
1.899015 1.756008 0.220684
2.176426 1.787768 0.230012
2.511952 1.826183 0.241294
2.917770 1.872646 0.254940
3.408604 1.928842 0.271445
4.002266 1.996810 0.291407
4.720297 2.079018 0.315552
5.588753 2.178449 0.344755
0.710762 1.948230 0.217447
0.714511 1.948660 0.217573
0.718261 1.949089 0.217699
0.722015 1.949519 0.217825
0.726240 1.950002 0.217967
0.731350 1.950588 0.218139
0.737531 1.951295 0.218347
0.745007 1.952151 0.218598
0.754048 1.953186 0.218902
0.764984 1.954438 0.219270
0.778211 1.955953 0.219715
0.794209 1.957784 0.220253
0.813558 1.960000 0.220903
0.836961 1.962679 0.221690
0.865266 1.965920 0.222642
0.899502 1.969839 0.223793
0.940910 1.974580 0.225185
0.990992 1.980314 0.226870
1.051566 1.987249 0.228906
1.124831 1.995637 0.231370
1.213444 2.005783 0.234350
1.320621 2.018054 0.237954
1.450251 2.032895 0.242313
1.607038 2.050846 0.247585
1.796671 2.072557 0.253961
2.026031 2.098817 0.261674
2.303442 2.130578 0.271002
2.638968 2.168992 0.282284
3.044786 2.215455 0.295930
3.535620 2.271651 0.312435
4.129282 2.339620 0.332398
4.847313 2.421828 0.356542
5.715769 2.521258 0.385745
0.864387 2.362856 0.267024
0.868137 2.363286 0.267150
0.871886 2.363715 0.267276
0.875640 2.364145 0.267402
0.879866 2.364629 0.267545
0.884976 2.365214 0.267716
0.891156 2.365921 0.267924
0.898632 2.366777 0.268176
0.907674 2.367812 0.268480
0.918609 2.369064 0.268847
0.931836 2.370579 0.269292
0.947834 2.372410 0.269830
0.967183 2.374626 0.270481
0.990586 2.377305 0.271268
1.018892 2.380546 0.272219
1.053127 2.384465 0.273371
1.094535 2.389206 0.274763
1.144617 2.394940 0.276447
1.205192 2.401875 0.278484
1.278456 2.410264 0.280948
1.367069 2.420409 0.283927
