app/src/main/assets/luts/PixelLog_to_Rec709_Display.cube
# PixelLog to Rec.709 Preview 3D LUT
# Input: Pixel-Log BT.2020 [0, 1] -> Inverse -> BT.2020 to Rec.709 -> Filmic S-curve -> BT.709 OETF
LUT_3D_SIZE 33
DOMAIN_MIN 0.0 0.0 0.0
DOMAIN_MAX 1.0 1.0 1.0
0.000000 0.000000 0.000000
0.000000 0.000000 0.000000
0.000000 0.000000 0.000000
0.000000 0.000000 0.000000
0.000000 0.000000 0.000000
0.000000 0.000000 0.000000
0.000000 0.000000 0.000000
0.000000 0.000000 0.000000
0.095200 0.000000 0.000000
0.122684 0.000000 0.000000
0.152832 0.000000 0.000000
0.186251 0.000000 0.000000
0.223596 0.000000 0.000000
0.265581 0.000000 0.000000
0.312974 0.000000 0.000000
0.366584 0.000000 0.000000
0.427234 0.000000 0.000000
0.495712 0.000000 0.000000
0.572700 0.000000 0.000000
0.658678 0.000000 0.000000
0.753350 0.000000 0.000000
0.855967 0.000000 0.000000
0.966002 0.000000 0.000000
1.000000 0.000000 0.000000
1.000000 0.000000 0.000000
1.000000 0.000000 0.000000
1.000000 0.000000 0.000000
1.000000 0.000000 0.000000
1.000000 0.000000 0.000000
1.000000 0.000000 0.000000
1.000000 0.000000 0.045864
1.000000 0.000000 0.114541
1.000000 0.000000 0.177461
0.000000 0.000000 0.000000
0.000000 0.000000 0.000000
0.000000 0.000000 0.000000
0.000000 0.000000 0.000000
0.000000 0.000000 0.000000
0.000000 0.000000 0.000000
0.000000 0.000000 0.000000
0.068788 0.000000 0.000000
0.094617 0.000000 0.000000
0.122719 0.000000 0.000000
0.153384 0.000000 0.000000
0.187237 0.000000 0.000000
0.224938 0.000000 0.000000
0.267205 0.000000 0.000000
0.314804 0.000000 0.000000
0.368543 0.000000 0.000000
0.429241 0.000000 0.000000
0.497684 0.000000 0.000000
0.574551 0.000000 0.000000
0.660327 0.000000 0.000000
0.754610 0.000000 0.000000
0.856868 0.000000 0.000000
0.966493 0.000000 0.000000
1.000000 0.000000 0.000000
1.000000 0.000000 0.000000
1.000000 0.000000 0.000000
1.000000 0.000000 0.000000
1.000000 0.000000 0.000000
1.000000 0.000000 0.000000
1.000000 0.000000 0.000000
1.000000 0.000000 0.046259
1.000000 0.000000 0.114967
1.000000 0.000000 0.177826
0.000000 0.000000 0.000000
0.000000 0.000000 0.000000
0.000000 0.000000 0.000000
0.000000 0.000000 0.000000
0.000000 0.000000 0.000000
0.000000 0.000000 0.000000
0.046185 0.000000 0.000000
0.067320 0.000000 0.000000
0.093797 0.000000 0.000000
0.122549 0.000000 0.000000
0.153754 0.000000 0.000000
0.188055 0.000000 0.000000
0.226126 0.000000 0.000000
0.268686 0.000000 0.000000
0.316502 0.000000 0.000000
0.370380 0.000000 0.000000
0.431137 0.000000 0.000000
0.499555 0.000000 0.000000
0.576313 0.000000 0.000000
0.661897 0.000000 0.000000
0.755803 0.000000 0.000000
0.857714 0.000000 0.000000
0.966941 0.000000 0.000000
1.000000 0.000000 0.000000
1.000000 0.000000 0.000000
1.000000 0.000000 0.000000
1.000000 0.000000 0.000000
1.000000 0.000000 0.000000
1.000000 0.000000 0.000000
1.000000 0.000000 0.000000
1.000000 0.000000 0.046657
1.000000 0.000000 0.115393
1.000000 0.000000 0.178191
0.000000 0.000000 0.000000
0.000000 0.000000 0.000000
0.000000 0.000000 0.000000
0.000000 0.000000 0.000000
0.013027 0.000036 0.000000
0.026784 0.000000 0.000000
0.043988 0.000000 0.000000
0.065609 0.000000 0.000000
0.092742 0.000000 0.000000
0.122177 0.000000 0.000000
0.153945 0.000000 0.000000
0.188713 0.000000 0.000000
0.227166 0.000000 0.000000
0.270031 0.000000 0.000000
0.318074 0.000000 0.000000
0.372102 0.000000 0.000000
0.432927 0.000000 0.000000
0.501331 0.000000 0.000000
0.577991 0.000000 0.000000
0.663392 0.000000 0.000000
0.756933 0.000000 0.000000
0.858508 0.000000 0.000000
0.967345 0.000000 0.000000
1.000000 0.000000 0.000000
1.000000 0.000000 0.000000
1.000000 0.000000 0.000000
1.000000 0.000000 0.000000
1.000000 0.000000 0.000000
1.000000 0.000000 0.000000
1.000000 0.000000 0.000000
1.000000 0.000000 0.047059
1.000000 0.000000 0.115821
1.000000 0.000000 0.178557
0.000000 0.000000 0.000000
0.000000 0.009827 0.000000
0.000000 0.009203 0.000000
0.000000 0.008560 0.000000
0.009437 0.007815 0.000000
0.023580 0.006884 0.000000
0.041241 0.005715 0.000000
0.063402 0.004239 0.000000
0.091273 0.002365 0.000000
0.121522 0.000000 0.000000
0.153951 0.000000 0.000000
0.189264 0.000000 0.000000
0.228164 0.000000 0.000000
0.271384 0.000000 0.000000
0.319695 0.000000 0.000000
0.373902 0.000000 0.000000
0.434816 0.000000 0.000000
0.503215 0.000000 0.000000
0.579776 0.000000 0.000000
0.664986 0.000000 0.000000
0.758129 0.000000 0.000000
0.859337 0.000000 0.000000
0.967749 0.000000 0.000000
1.000000 0.000000 0.000000
1.000000 0.000000 0.000000
1.000000 0.000000 0.000000
1.000000 0.000000 0.000000
1.000000 0.000000 0.000000
1.000000 0.000000 0.000000
1.000000 0.000000 0.000000
1.000000 0.000000 0.047515
1.000000 0.000000 0.116303
1.000000 0.000000 0.178969
0.000000 0.020215 0.000000
0.000000 0.019682 0.000000
0.000000 0.019131 0.000000
0.000000 0.018560 0.000000
0.004736 0.017896 0.000000
0.019338 0.017063 0.000000
0.037543 0.016012 0.000000
0.060344 0.014677 0.000000
0.089096 0.012972 0.000000
0.120398 0.010780 0.000000
0.153670 0.007944 0.000000
0.189671 0.004254 0.000000
0.229133 0.000000 0.000000
0.272802 0.000000 0.000000
0.321453 0.000000 0.000000
0.375893 0.000000 0.000000
0.436930 0.000000 0.000000
0.505339 0.000000 0.000000
0.581796 0.000000 0.000000
0.666732 0.000000 0.000000
0.759470 0.000000 0.000000
0.860252 0.000000 0.000000
0.968168 0.000000 0.000000
1.000000 0.000000 0.000000
1.000000 0.000000 0.000000
1.000000 0.000000 0.000000
1.000000 0.000000 0.000000
1.000000 0.000000 0.000000
1.000000 0.000000 0.000000
1.000000 0.000000 0.000000
1.000000 0.000000 0.048071
1.000000 0.000000 0.116888
1.000000 0.000000 0.179468
0.000000 0.033020 0.000000
0.000000 0.032569 0.000000
0.000000 0.032100 0.000000
0.000000 0.031612 0.000000
0.000000 0.031041 0.000000
0.013687 0.030319 0.000000
0.032535 0.029401 0.000000
0.056096 0.028226 0.000000
0.085869 0.026713 0.000000
0.118558 0.024751 0.000000
0.152918 0.022191 0.000000
0.189798 0.018828 0.000000
0.229972 0.014388 0.000000
0.274209 0.008499 0.000000
0.323296 0.000666 0.000000
0.378038 0.000000 0.000000
0.439245 0.000000 0.000000
0.507688 0.000000 0.000000
0.584042 0.000000 0.000000
0.668585 0.000000 0.000000
0.760944 0.000000 0.000000
0.861236 0.000000 0.000000
0.968574 0.000000 0.000000
1.000000 0.000000 0.000000
1.000000 0.000000 0.000000
1.000000 0.000000 0.000000
1.000000 0.000000 0.000000
1.000000 0.000000 0.000000
1.000000 0.000000 0.000000
1.000000 0.000000 0.000000
1.000000 0.000000 0.048751
1.000000 0.000000 0.117596
1.000000 0.000000 0.180071
0.000000 0.049871 0.000000
0.000000 0.049514 0.000000
0.000000 0.049137 0.000000
0.000000 0.048741 0.000000
0.000000 0.048273 0.000000
0.006121 0.047675 0.000000
0.025728 0.046906 0.000000
0.050184 0.045911 0.000000
0.080823 0.044613 0.000000
0.115633 0.042908 0.000000
0.151422 0.040655 0.000000
0.189434 0.037658 0.000000
0.230520 0.033651 0.000000
0.275483 0.028275 0.000000
0.325128 0.021044 0.000000
0.380266 0.011312 0.000000
0.441707 0.000000 0.000000
0.510221 0.000000 0.000000
0.586482 0.000000 0.000000
0.670584 0.000000 0.000000
0.762519 0.000000 0.000000
0.862251 0.000000 0.000000
0.968925 0.000000 0.000000
1.000000 0.000000 0.000000
1.000000 0.000000 0.000000
1.000000 0.000000 0.000000
1.000000 0.000000 0.000000
1.000000 0.000000 0.000000
1.000000 0.000000 0.000000
1.000000 0.000000 0.000000
1.000000 0.000000 0.049585
1.000000 0.000000 0.118454
1.000000 0.000000 0.180802
0.000000 0.072150 0.000000
0.000000 0.071894 0.000000
0.000000 0.071618 0.000000
0.000000 0.071323 0.000000
0.000000 0.070967 0.000000
0.000000 0.070505 0.000000
0.016450 0.069900 0.000000
0.041954 0.069101 0.000000
0.073821 0.068038 0.000000
0.111063 0.066615 0.000000
0.148769 0.064697 0.000000
0.188267 0.062100 0.000000
0.230531 0.058568 0.000000
0.276430 0.053752 0.000000
0.326795 0.047179 0.000000
0.382454 0.038215 0.000000
0.444218 0.026023 0.000000
0.512858 0.009527 0.000000
0.589048 0.000000 0.000000
0.672666 0.000000 0.000000
0.764134 0.000000 0.000000
0.863236 0.000000 0.000000
0.969153 0.000000 0.000000
1.000000 0.000000 0.000000
1.000000 0.000000 0.000000
1.000000 0.000000 0.000000
1.000000 0.000000 0.000000
1.000000 0.000000 0.000000
1.000000 0.000000 0.000000
1.000000 0.000000 0.000000
1.000000 0.000000 0.050609
1.000000 0.000000 0.119496
1.000000 0.000000 0.181686
0.000000 0.100684 0.000000
0.000000 0.100553 0.000000
0.000000 0.100404 0.000000
0.000000 0.100237 0.000000
0.000000 0.100028 0.000000
0.000000 0.099746 0.000000
0.003790 0.099362 0.000000
0.030513 0.098834 0.000000
0.063808 0.098106 0.000000
0.103979 0.097093 0.000000
0.144345 0.095677 0.000000
0.185830 0.093684 0.000000
0.229640 0.090863 0.000000
0.276754 0.086844 0.000000
0.328058 0.080819 0.000000
0.384403 0.072669 0.000000
0.446613 0.061419 0.000000
0.515461 0.046000 0.000000
0.591460 0.025284 0.000000
0.674721 0.000000 0.000000
0.765685 0.000000 0.000000
0.864089 0.000000 0.000000
0.969155 0.000000 0.000000
1.000000 0.000000 0.000000
1.000000 0.000000 0.000000
1.000000 0.000000 0.000000
1.000000 0.000000 0.000000
1.000000 0.000000 0.000000
1.000000 0.000000 0.000000
1.000000 0.000000 0.000000
1.000000 0.000000 0.051870
1.000000 0.000000 0.120759
1.000000 0.000000 0.182758
0.000000 0.132277 0.000000
0.000000 0.132248 0.000000
0.000000 0.132204 0.000000
0.000000 0.132145 0.000000
0.000000 0.132061 0.000000
0.000000 0.131935 0.000000
0.000000 0.131746 0.000000
0.014656 0.131465 0.000000
0.049596 0.131049 0.000000
0.092960 0.130438 0.000000
0.137205 0.129542 0.000000
0.181430 0.128232 0.000000
0.227309 0.126323 0.000000
0.276023 0.123544 0.000000
0.328559 0.119502 0.000000
0.385816 0.113609 0.000000
0.448639 0.104972 0.000000
0.517810 0.092149 0.000000
0.593576 0.073171 0.000000
0.676574 0.047700 0.000000
0.767012 0.014300 0.000000
0.864658 0.000000 0.000000
0.968783 0.000000 0.000000
1.000000 0.000000 0.000000
1.000000 0.000000 0.000000
1.000000 0.000000 0.000000
1.000000 0.000000 0.000000
1.000000 0.000000 0.000000
1.000000 0.000000 0.000000
1.000000 0.000000 0.000000
1.000000 0.000000 0.053428
1.000000 0.000000 0.122294
1.000000 0.000000 0.184055
0.000000 0.167458 0.000000
0.000000 0.167498 0.000000
0.000000 0.167525 0.000000
0.000000 0.167540 0.000000
0.000000 0.167541 0.000000
0.000000 0.167521 0.000000
0.000000 0.167467 0.000000
0.000000 0.167356 0.000000
0.029601 0.167158 0.000000
0.075343 0.166827 0.000000
0.125847 0.166294 0.000000
0.174024 0.165461 0.000000
0.222747 0.164184 0.000000
0.273607 0.162257 0.000000
0.327779 0.159381 0.000000
0.386252 0.155124 0.000000
0.449917 0.148857 0.000000
0.519347 0.139820 0.000000
0.595181 0.126745 0.000000
0.677965 0.107442 0.000000
0.767878 0.077634 0.000000
0.864722 0.036406 0.000000
0.967824 0.000000 0.000000
1.000000 0.000000 0.000000
1.000000 0.000000 0.000000
1.000000 0.000000 0.000000
1.000000 0.000000 0.000000
1.000000 0.000000 0.000000
1.000000 0.000000 0.000000
1.000000 0.000000 0.000000
1.000000 0.000000 0.055358
1.000000 0.000000 0.124156
1.000000 0.000000 0.185626
0.000000 0.206745 0.000000
0.000000 0.206826 0.000000
0.000000 0.206895 0.000000
0.000000 0.206953 0.000000
0.000000 0.207005 0.000000
0.000000 0.207050 0.000000
0.000000 0.207078 0.000000
0.000000 0.207074 0.000000
0.001758 0.207014 0.000000
0.049942 0.206863 0.000000
0.107683 0.206568 0.000000
0.161989 0.206050 0.000000
0.214786 0.205197 0.000000
0.268598 0.203844 0.000000
0.324977 0.201756 0.000000
0.385088 0.198596 0.000000
0.449732 0.193969 0.000000
0.519759 0.187254 0.000000
0.595864 0.177555 0.000000
0.678523 0.163580 0.000000
0.767942 0.143331 0.000000
0.863968 0.113302 0.000000
0.965987 0.066014 0.000000
1.000000 0.003977 0.000000
1.000000 0.000000 0.000000
1.000000 0.000000 0.000000
1.000000 0.000000 0.000000
1.000000 0.000000 0.000000
1.000000 0.000000 0.000000
1.000000 0.000000 0.000000
1.000000 0.000000 0.057760
1.000000 0.000000 0.126419
1.000000 0.000000 0.187530
0.000000 0.250580 0.000000
0.000000 0.250673 0.000000
0.000000 0.250757 0.000000
0.000000 0.250832 0.000000
0.000000 0.250905 0.000000
0.000000 0.250977 0.000000
0.000000 0.251042 0.000000
0.000000 0.251088 0.000000
0.000000 0.251097 0.000000
0.014333 0.251040 0.000000
0.077264 0.250875 0.000000
0.142618 0.250539 0.000000
0.201654 0.249939 0.000000
0.259683 0.248942 0.000000
0.319067 0.247358 0.000000
0.381274 0.244948 0.000000
0.447438 0.241364 0.000000
0.518460 0.236124 0.000000
0.595056 0.228564 0.000000
0.677735 0.217772 0.000000
0.766741 0.202473 0.000000
0.861969 0.180801 0.000000
0.962879 0.149715 0.000000
1.000000 0.103041 0.000000
1.000000 0.031344 0.000000
1.000000 0.000000 0.000000
1.000000 0.000000 0.000000
1.000000 0.000000 0.000000
1.000000 0.000000 0.000000
1.000000 0.000000 0.001415
1.000000 0.000000 0.060758
1.000000 0.000000 0.129168
1.000000 0.000000 0.189835
0.000000 0.299275 0.000000
0.000000 0.299357 0.000000
0.000000 0.299432 0.000000
0.000000 0.299498 0.000000
0.000000 0.299564 0.000000
0.000000 0.299630 0.000000
0.000000 0.299690 0.000000
0.000000 0.299736 0.000000
0.000000 0.299751 0.000000
0.000000 0.299712 0.000000
0.031605 0.299575 0.000000
0.110833 0.299281 0.000000
0.180610 0.298771 0.000000
0.244975 0.297940 0.000000
0.308617 0.296638 0.000000
0.373853 0.294655 0.000000
0.442158 0.291703 0.000000
0.514607 0.287390 0.000000
0.592006 0.281190 0.000000
0.674925 0.272402 0.000000
0.763659 0.260101 0.000000
0.858166 0.243050 0.000000
0.957988 0.219536 0.000000
1.000000 0.186977 0.000000
1.000000 0.140675 0.000000
1.000000 0.068117 0.000000
1.000000 0.000000 0.000000
1.000000 0.000000 0.000000
1.000000 0.000000 0.000000
1.000000 0.000000 0.004223
1.000000 0.000000 0.064517
1.000000 0.000000 0.132506
1.000000 0.000000 0.192625
0.000000 0.352880 0.000000
0.000000 0.352920 0.000000
0.000000 0.352954 0.000000
0.000000 0.352982 0.000000
0.000000 0.353005 0.000000
0.000000 0.353023 0.000000
0.000000 0.353030 0.000000
0.000000 0.353016 0.000000
0.000000 0.352967 0.000000
0.000000 0.352864 0.000000
0.000000 0.352675 0.000000
0.056025 0.352356 0.000000
0.146892 0.351842 0.000000
0.221769 0.351043 0.000000
0.291790 0.349830 0.000000
0.361332 0.348026 0.000000
0.432632 0.345387 0.000000
0.507109 0.341586 0.000000
0.585748 0.336190 0.000000
0.669225 0.328634 0.000000
0.757911 0.318193 0.000000
0.851845 0.303948 0.000000
0.950664 0.284734 0.000000
1.000000 0.259044 0.000000
1.000000 0.224784 0.000000
1.000000 0.178534 0.000000
1.000000 0.112586 0.000000
1.000000 0.014782 0.000000
1.000000 0.000000 0.000000
1.000000 0.000000 0.007876
1.000000 0.000000 0.069249
1.000000 0.000000 0.136558
1.000000 0.000000 0.196003
0.000000 0.411060 0.000000
0.000000 0.411052 0.000000
0.000000 0.411039 0.000000
0.000000 0.411021 0.000000
0.000000 0.410995 0.000000
0.000000 0.410955 0.000000
0.000000 0.410894 0.000000
0.000000 0.410802 0.000000
0.000000 0.410666 0.000000
0.000000 0.410465 0.000000
0.000000 0.410171 0.000000
0.000000 0.409741 0.000000
0.088551 0.409118 0.000000
0.185212 0.408220 0.000000
0.265692 0.406934 0.000000
0.341647 0.405105 0.000000
0.417228 0.402524 0.000000
0.494596 0.398911 0.000000
0.575088 0.393899 0.000000
0.659568 0.387018 0.000000
0.748536 0.377674 0.000000
0.842135 0.365140 0.000000
0.940117 0.348535 0.000000
1.000000 0.326819 0.000000
1.000000 0.298744 0.000000
1.000000 0.262749 0.000000
1.000000 0.216590 0.000000
1.000000 0.156041 0.000000
1.000000 0.068358 0.000000
1.000000 0.000000 0.012651
1.000000 0.000000 0.075229
1.000000 0.000000 0.141472
1.000000 0.000000 0.200088
0.000000 0.473486 0.000000
0.000000 0.473417 0.000000
0.000000 0.473344 0.000000
0.000000 0.473266 0.000000
0.000000 0.473174 0.000000
0.000000 0.473056 0.000000
0.000000 0.472904 0.000000
0.000000 0.472707 0.000000
0.000000 0.472447 0.000000
0.000000 0.472106 0.000000
0.000000 0.471652 0.000000
0.000000 0.471045 0.000000
0.000000 0.470230 0.000000
0.124372 0.469132 0.000000
0.225552 0.467646 0.000000
0.311879 0.465636 0.000000
0.393830 0.462914 0.000000
0.475376 0.459238 0.000000
0.558588 0.454291 0.000000
0.644694 0.447673 0.000000
0.734404 0.438885 0.000000
0.828016 0.427327 0.000000
0.925424 0.412295 0.000000
1.000000 0.392994 0.000000
1.000000 0.368556 0.000000
1.000000 0.338057 0.000000
1.000000 0.300504 0.000000
1.000000 0.254737 0.000000
1.000000 0.199052 0.000000
1.000000 0.129758 0.018914
1.000000 0.039831 0.083052
1.000000 0.000000 0.147421
1.000000 0.000000 0.205021
0.000000 0.539295 0.000000
0.000000 0.539156 0.000000
0.000000 0.539014 0.000000
0.000000 0.538868 0.000000
0.000000 0.538701 0.000000
0.000000 0.538494 0.000000
0.000000 0.538236 0.000000
0.000000 0.537914 0.000000
0.000000 0.537509 0.000000
0.000000 0.536999 0.000000
0.000000 0.536351 0.000000
0.000000 0.535524 0.000000
0.000000 0.534464 0.000000
0.011616 0.533096 0.000000
0.161308 0.531325 0.000000
0.267437 0.529023 0.000000
0.359583 0.526022 0.000000
0.447358 0.522106 0.000000
0.534564 0.516997 0.000000
0.623163 0.510349 0.000000
0.714247 0.501735 0.000000
0.808353 0.490647 0.000000
0.905561 0.476504 0.000000
1.000000 0.458665 0.000000
1.000000 0.436464 0.000000
1.000000 0.409260 0.000000
1.000000 0.376495 0.000000
1.000000 0.337763 0.000000
1.000000 0.292885 0.000000
1.000000 0.241996 0.027144
1.000000 0.185722 0.092305
1.000000 0.125716 0.154604
1.000000 0.067271 0.210969
0.000000 0.607248 0.000000
0.000000 0.607037 0.000000
0.000000 0.606824 0.000000
0.000000 0.606608 0.000000
0.000000 0.606363 0.000000
0.000000 0.606064 0.000000
0.000000 0.605696 0.000000
0.000000 0.605244 0.000000
0.000000 0.604687 0.000000
0.000000 0.603998 0.000000
0.000000 0.603143 0.000000
0.000000 0.602079 0.000000
0.000000 0.600750 0.000000
0.000000 0.599083 0.000000
0.038443 0.596985 0.000000
0.199171 0.594335 0.000000
0.310205 0.590979 0.000000
0.407869 0.586720 0.000000
0.501057 0.581313 0.000000
0.593396 0.574451 0.000000
0.686713 0.565765 0.000000
0.781949 0.554820 0.000000
0.879456 0.541123 0.000000
0.979105 0.524140 0.000000
1.000000 0.503332 0.000000
1.000000 0.478207 0.000000
1.000000 0.448391 0.000000
1.000000 0.413721 0.000000
1.000000 0.374366 0.000000
1.000000 0.330993 0.037967
1.000000 0.285033 0.103359
1.000000 0.239158 0.163246
1.000000 0.198098 0.218121
0.000000 0.675797 0.000000
0.000000 0.675519 0.000000
0.000000 0.675240 0.000000
0.000000 0.674959 0.000000
0.000000 0.674641 0.000000
0.000000 0.674255 0.000000
0.000000 0.673784 0.000000
0.000000 0.673209 0.000000
0.000000 0.672508 0.000000
0.000000 0.671650 0.000000
0.000000 0.670599 0.000000
0.000000 0.669309 0.000000
0.000000 0.667720 0.000000
0.000000 0.665761 0.000000
0.000000 0.663340 0.000000
0.074114 0.660340 0.000000
0.237588 0.656617 0.000000
0.353088 0.651989 0.000000
0.455705 0.646235 0.000000
0.553677 0.639081 0.000000
0.650427 0.630203 0.000000
0.747633 0.619223 0.000000
0.846071 0.605717 0.000000
0.945911 0.589231 0.000000
1.000000 0.569312 0.000000
1.000000 0.545558 0.000000
1.000000 0.517683 0.000000
1.000000 0.485609 0.000000
1.000000 0.449574 0.000000
1.000000 0.410276 0.052182
1.000000 0.369070 0.116468
1.000000 0.328221 0.173590
1.000000 0.291227 0.226690
0.000000 0.743214 0.000000
0.000000 0.742880 0.000000
0.000000 0.742545 0.000000
0.000000 0.742210 0.000000
0.000000 0.741831 0.000000
0.000000 0.741371 0.000000
0.000000 0.740814 0.000000
0.000000 0.740137 0.000000
0.000000 0.739315 0.000000
0.000000 0.738315 0.000000
0.000000 0.737098 0.000000
0.000000 0.735615 0.000000
0.000000 0.733807 0.000000
0.000000 0.731599 0.000000
0.000000 0.728901 0.000000
0.000000 0.725600 0.000000
0.116018 0.721557 0.000000
0.276108 0.716605 0.000000
0.395305 0.710537 0.000000
0.502087 0.703109 0.000000
0.604031 0.694031 0.000000
0.704330 0.682971 0.000000
0.804494 0.669558 0.000000
0.905133 0.653400 0.000000
1.000000 0.634108 0.000000
1.000000 0.611338 0.000000
1.000000 0.584852 0.000000
1.000000 0.554594 0.000000
1.000000 0.520788 0.013578
1.000000 0.484055 0.070789
1.000000 0.445555 0.131882
1.000000 0.407149 0.185896
1.000000 0.371555 0.236909
0.000000 0.807764 0.000000
0.000000 0.807390 0.000000
0.000000 0.807016 0.000000
0.000000 0.806640 0.000000
0.000000 0.806218 0.000000
0.000000 0.805706 0.000000
0.000000 0.805086 0.000000
0.000000 0.804335 0.000000
0.000000 0.803426 0.000000
0.000000 0.802323 0.000000
0.000000 0.800987 0.000000
0.000000 0.799367 0.000000
0.000000 0.797401 0.000000
0.000000 0.795016 0.000000
0.000000 0.792121 0.000000
0.000000 0.788606 0.000000
0.000000 0.784340 0.000000
0.157083 0.779162 0.000000
0.314302 0.772883 0.000000
0.436172 0.765278 0.000000
0.546154 0.756086 0.000000
0.651131 0.745009 0.000000
0.754033 0.731721 0.000000
0.856187 0.715875 0.000000
0.958040 0.697130 0.000000
1.000000 0.675184 0.000000
1.000000 0.649823 0.000000
1.000000 0.620992 0.000000
1.000000 0.588872 0.036229
1.000000 0.553983 0.094670
1.000000 0.517288 0.149833
1.000000 0.480318 0.200421
1.000000 0.445259 0.249024
0.000000 0.867898 0.000000
0.000000 0.867502 0.000000
0.000000 0.867105 0.000000
0.000000 0.866708 0.000000
0.000000 0.866260 0.000000
0.000000 0.865720 0.000000
0.000000 0.865065 0.000000
0.000000 0.864274 0.000000
0.000000 0.863317 0.000000
0.000000 0.862159 0.000000
0.000000 0.860759 0.000000
0.000000 0.859066 0.000000
0.000000 0.857018 0.000000
0.000000 0.854543 0.000000
0.000000 0.851551 0.000000
0.000000 0.847935 0.000000
0.000000 0.843570 0.000000
0.000000 0.838305 0.000000
0.197954 0.831960 0.000000
0.351830 0.824329 0.000000
0.475180 0.815173 0.000000
0.587280 0.804223 0.000000
0.694278 0.791185 0.000000
0.798804 0.775749 0.000000
0.901993 0.757608 0.000000
1.000000 0.736489 0.000000
1.000000 0.712193 0.000000
1.000000 0.684650 0.016407
1.000000 0.653994 0.066278
1.000000 0.620640 0.121155
1.000000 0.585378 0.170514
1.000000 0.549464 0.217408
1.000000 0.514689 0.263281
0.000000 0.922396 0.000000
0.000000 0.921995 0.000000
0.000000 0.921594 0.000000
0.000000 0.921192 0.000000
0.000000 0.920740 0.000000
0.000000 0.920194 0.000000
0.000000 0.919533 0.000000
0.000000 0.918735 0.000000
0.000000 0.917770 0.000000
0.000000 0.916605 0.000000
0.000000 0.915197 0.000000
0.000000 0.913497 0.000000
0.000000 0.911445 0.000000
0.000000 0.908970 0.000000
0.000000 0.905985 0.000000
0.000000 0.902388 0.000000
0.000000 0.898059 0.000000
0.000000 0.892855 0.000000
0.000000 0.886609 0.000000
0.238848 0.879129 0.000000
0.388494 0.870194 0.000000
0.512035 0.859558 0.000000
0.625114 0.846953 0.000000
0.733092 0.832095 0.000000
0.838273 0.814705 0.000000
0.941587 0.794527 0.000000
1.000000 0.771369 0.012114
1.000000 0.745143 0.054564
1.000000 0.715932 0.104050
1.000000 0.684054 0.150220
1.000000 0.650144 0.194067
1.000000 0.615229 0.237064
1.000000 0.580785 0.279910
0.000000 0.970454 0.000000
0.000000 0.970063 0.000000
0.000000 0.969673 0.000000
0.000000 0.969282 0.000000
0.000000 0.968843 0.000000
0.000000 0.968312 0.000000
0.000000 0.967670 0.000000
0.000000 0.966895 0.000000
0.000000 0.965958 0.000000
0.000000 0.964828 0.000000
0.000000 0.963463 0.000000
0.000000 0.961816 0.000000
0.000000 0.959829 0.000000
0.000000 0.957436 0.000000
0.000000 0.954553 0.000000
0.000000 0.951085 0.000000
0.000000 0.946917 0.000000
0.000000 0.941917 0.000000
0.000000 0.935928 0.000000
0.043851 0.928771 0.000000
0.279854 0.920243 0.000000
0.424233 0.910117 0.000000
0.546661 0.898144 0.000000
0.659566 0.884063 0.000000
0.767496 0.867614 0.000000
0.872397 0.848553 0.025250
0.974981 0.826687 0.061324
1.000000 0.801909 0.103162
1.000000 0.774251 0.143105
1.000000 0.743944 0.181918
1.000000 0.711483 0.220564
1.000000 0.677697 0.259543
1.000000 0.643802 0.299111
0.000000 1.000000 0.000000
0.000000 1.000000 0.000000
0.000000 1.000000 0.000000
0.000000 1.000000 0.000000
0.000000 1.000000 0.000000
0.000000 1.000000 0.000000
0.000000 1.000000 0.000000
0.000000 1.000000 0.000000
0.000000 1.000000 0.000000
0.000000 1.000000 0.000000
0.000000 1.000000 0.000000
0.000000 1.000000 0.000000
0.000000 1.000000 0.000000
0.000000 0.999455 0.000000
0.000000 0.996752 0.000000
0.000000 0.993501 0.000000
0.000000 0.989598 0.000000
0.000000 0.984919 0.000000
0.000000 0.979319 0.000000
0.000000 0.972633 0.000000
0.123767 0.964674 0.000000
0.321012 0.955231 0.000000
0.459107 0.944074 0.011980
