app/src/main/assets/luts/PixelLog_to_Rec2020_Linear.cube
# PixelLog to Rec.2020 Scene-Linear 3D LUT
# Input: Pixel-Log BT.2020 [0, 1] -> Exact Unclipped Scene-Linear
LUT_3D_SIZE 33
DOMAIN_MIN 0.0 0.0 0.0
DOMAIN_MAX 1.0 1.0 1.0
0.000000 0.000000 0.000000
0.000000 0.000000 0.000000
0.000000 0.000000 0.000000
0.000742 0.000000 0.000000
0.007634 0.000000 0.000000
0.015969 0.000000 0.000000
0.026050 0.000000 0.000000
0.038243 0.000000 0.000000
0.052990 0.000000 0.000000
0.070827 0.000000 0.000000
0.092401 0.000000 0.000000
0.118495 0.000000 0.000000
0.150054 0.000000 0.000000
0.188226 0.000000 0.000000
0.234394 0.000000 0.000000
0.290234 0.000000 0.000000
0.357773 0.000000 0.000000
0.439460 0.000000 0.000000
0.538261 0.000000 0.000000
0.657760 0.000000 0.000000
0.802293 0.000000 0.000000
0.977106 0.000000 0.000000
1.188541 0.000000 0.000000
1.444270 0.000000 0.000000
1.753574 0.000000 0.000000
2.127675 0.000000 0.000000
2.580149 0.000000 0.000000
3.127414 0.000000 0.000000
3.789328 0.000000 0.000000
4.589910 0.000000 0.000000
5.558210 0.000000 0.000000
6.729364 0.000000 0.000000
8.145870 0.000000 0.000000
0.000000 0.000000 0.000000
0.000000 0.000000 0.000000
0.000000 0.000000 0.000000
0.000742 0.000000 0.000000
0.007634 0.000000 0.000000
0.015969 0.000000 0.000000
0.026050 0.000000 0.000000
0.038243 0.000000 0.000000
0.052990 0.000000 0.000000
0.070827 0.000000 0.000000
0.092401 0.000000 0.000000
0.118495 0.000000 0.000000
0.150054 0.000000 0.000000
0.188226 0.000000 0.000000
0.234394 0.000000 0.000000
0.290234 0.000000 0.000000
0.357773 0.000000 0.000000
0.439460 0.000000 0.000000
0.538261 0.000000 0.000000
0.657760 0.000000 0.000000
0.802293 0.000000 0.000000
0.977106 0.000000 0.000000
1.188541 0.000000 0.000000
1.444270 0.000000 0.000000
1.753574 0.000000 0.000000
2.127675 0.000000 0.000000
2.580149 0.000000 0.000000
3.127414 0.000000 0.000000
3.789328 0.000000 0.000000
4.589910 0.000000 0.000000
5.558210 0.000000 0.000000
6.729364 0.000000 0.000000
8.145870 0.000000 0.000000
0.000000 0.000000 0.000000
0.000000 0.000000 0.000000
0.000000 0.000000 0.000000
0.000742 0.000000 0.000000
0.007634 0.000000 0.000000
0.015969 0.000000 0.000000
0.026050 0.000000 0.000000
0.038243 0.000000 0.000000
0.052990 0.000000 0.000000
0.070827 0.000000 0.000000
0.092401 0.000000 0.000000
0.118495 0.000000 0.000000
0.150054 0.000000 0.000000
0.188226 0.000000 0.000000
0.234394 0.000000 0.000000
0.290234 0.000000 0.000000
0.357773 0.000000 0.000000
0.439460 0.000000 0.000000
0.538261 0.000000 0.000000
0.657760 0.000000 0.000000
0.802293 0.000000 0.000000
0.977106 0.000000 0.000000
1.188541 0.000000 0.000000
1.444270 0.000000 0.000000
1.753574 0.000000 0.000000
2.127675 0.000000 0.000000
2.580149 0.000000 0.000000
3.127414 0.000000 0.000000
3.789328 0.000000 0.000000
4.589910 0.000000 0.000000
5.558210 0.000000 0.000000
6.729364 0.000000 0.000000
8.145870 0.000000 0.000000
0.000000 0.000742 0.000000
0.000000 0.000742 0.000000
0.000000 0.000742 0.000000
0.000742 0.000742 0.000000
0.007634 0.000742 0.000000
0.015969 0.000742 0.000000
0.026050 0.000742 0.000000
0.038243 0.000742 0.000000
0.052990 0.000742 0.000000
0.070827 0.000742 0.000000
0.092401 0.000742 0.000000
0.118495 0.000742 0.000000
0.150054 0.000742 0.000000
0.188226 0.000742 0.000000
0.234394 0.000742 0.000000
0.290234 0.000742 0.000000
0.357773 0.000742 0.000000
0.439460 0.000742 0.000000
0.538261 0.000742 0.000000
0.657760 0.000742 0.000000
0.802293 0.000742 0.000000
0.977106 0.000742 0.000000
1.188541 0.000742 0.000000
1.444270 0.000742 0.000000
1.753574 0.000742 0.000000
2.127675 0.000742 0.000000
2.580149 0.000742 0.000000
3.127414 0.000742 0.000000
3.789328 0.000742 0.000000
4.589910 0.000742 0.000000
5.558210 0.000742 0.000000
6.729364 0.000742 0.000000
8.145870 0.000742 0.000000
0.000000 0.007634 0.000000
0.000000 0.007634 0.000000
0.000000 0.007634 0.000000
0.000742 0.007634 0.000000
0.007634 0.007634 0.000000
0.015969 0.007634 0.000000
0.026050 0.007634 0.000000
0.038243 0.007634 0.000000
0.052990 0.007634 0.000000
0.070827 0.007634 0.000000
0.092401 0.007634 0.000000
0.118495 0.007634 0.000000
0.150054 0.007634 0.000000
0.188226 0.007634 0.000000
0.234394 0.007634 0.000000
0.290234 0.007634 0.000000
0.357773 0.007634 0.000000
0.439460 0.007634 0.000000
0.538261 0.007634 0.000000
0.657760 0.007634 0.000000
0.802293 0.007634 0.000000
0.977106 0.007634 0.000000
1.188541 0.007634 0.000000
1.444270 0.007634 0.000000
1.753574 0.007634 0.000000
2.127675 0.007634 0.000000
2.580149 0.007634 0.000000
3.127414 0.007634 0.000000
3.789328 0.007634 0.000000
4.589910 0.007634 0.000000
5.558210 0.007634 0.000000
6.729364 0.007634 0.000000
8.145870 0.007634 0.000000
0.000000 0.015969 0.000000
0.000000 0.015969 0.000000
0.000000 0.015969 0.000000
0.000742 0.015969 0.000000
0.007634 0.015969 0.000000
0.015969 0.015969 0.000000
0.026050 0.015969 0.000000
0.038243 0.015969 0.000000
0.052990 0.015969 0.000000
0.070827 0.015969 0.000000
0.092401 0.015969 0.000000
0.118495 0.015969 0.000000
0.150054 0.015969 0.000000
0.188226 0.015969 0.000000
0.234394 0.015969 0.000000
0.290234 0.015969 0.000000
0.357773 0.015969 0.000000
0.439460 0.015969 0.000000
0.538261 0.015969 0.000000
0.657760 0.015969 0.000000
0.802293 0.015969 0.000000
0.977106 0.015969 0.000000
1.188541 0.015969 0.000000
1.444270 0.015969 0.000000
1.753574 0.015969 0.000000
2.127675 0.015969 0.000000
2.580149 0.015969 0.000000
3.127414 0.015969 0.000000
3.789328 0.015969 0.000000
4.589910 0.015969 0.000000
5.558210 0.015969 0.000000
6.729364 0.015969 0.000000
8.145870 0.015969 0.000000
0.000000 0.026050 0.000000
0.000000 0.026050 0.000000
0.000000 0.026050 0.000000
0.000742 0.026050 0.000000
0.007634 0.026050 0.000000
0.015969 0.026050 0.000000
0.026050 0.026050 0.000000
0.038243 0.026050 0.000000
0.052990 0.026050 0.000000
0.070827 0.026050 0.000000
0.092401 0.026050 0.000000
0.118495 0.026050 0.000000
0.150054 0.026050 0.000000
0.188226 0.026050 0.000000
0.234394 0.026050 0.000000
0.290234 0.026050 0.000000
0.357773 0.026050 0.000000
0.439460 0.026050 0.000000
0.538261 0.026050 0.000000
0.657760 0.026050 0.000000
0.802293 0.026050 0.000000
0.977106 0.026050 0.000000
1.188541 0.026050 0.000000
1.444270 0.026050 0.000000
1.753574 0.026050 0.000000
2.127675 0.026050 0.000000
2.580149 0.026050 0.000000
3.127414 0.026050 0.000000
3.789328 0.026050 0.000000
4.589910 0.026050 0.000000
5.558210 0.026050 0.000000
6.729364 0.026050 0.000000
8.145870 0.026050 0.000000
0.000000 0.038243 0.000000
0.000000 0.038243 0.000000
0.000000 0.038243 0.000000
0.000742 0.038243 0.000000
0.007634 0.038243 0.000000
0.015969 0.038243 0.000000
0.026050 0.038243 0.000000
0.038243 0.038243 0.000000
0.052990 0.038243 0.000000
0.070827 0.038243 0.000000
0.092401 0.038243 0.000000
0.118495 0.038243 0.000000
0.150054 0.038243 0.000000
0.188226 0.038243 0.000000
0.234394 0.038243 0.000000
0.290234 0.038243 0.000000
0.357773 0.038243 0.000000
0.439460 0.038243 0.000000
0.538261 0.038243 0.000000
0.657760 0.038243 0.000000
0.802293 0.038243 0.000000
0.977106 0.038243 0.000000
1.188541 0.038243 0.000000
1.444270 0.038243 0.000000
1.753574 0.038243 0.000000
2.127675 0.038243 0.000000
2.580149 0.038243 0.000000
3.127414 0.038243 0.000000
3.789328 0.038243 0.000000
4.589910 0.038243 0.000000
5.558210 0.038243 0.000000
6.729364 0.038243 0.000000
8.145870 0.038243 0.000000
0.000000 0.052990 0.000000
0.000000 0.052990 0.000000
0.000000 0.052990 0.000000
0.000742 0.052990 0.000000
0.007634 0.052990 0.000000
0.015969 0.052990 0.000000
0.026050 0.052990 0.000000
0.038243 0.052990 0.000000
0.052990 0.052990 0.000000
0.070827 0.052990 0.000000
0.092401 0.052990 0.000000
0.118495 0.052990 0.000000
0.150054 0.052990 0.000000
0.188226 0.052990 0.000000
0.234394 0.052990 0.000000
0.290234 0.052990 0.000000
0.357773 0.052990 0.000000
0.439460 0.052990 0.000000
0.538261 0.052990 0.000000
0.657760 0.052990 0.000000
0.802293 0.052990 0.000000
0.977106 0.052990 0.000000
1.188541 0.052990 0.000000
1.444270 0.052990 0.000000
1.753574 0.052990 0.000000
2.127675 0.052990 0.000000
2.580149 0.052990 0.000000
3.127414 0.052990 0.000000
3.789328 0.052990 0.000000
4.589910 0.052990 0.000000
5.558210 0.052990 0.000000
6.729364 0.052990 0.000000
8.145870 0.052990 0.000000
0.000000 0.070827 0.000000
0.000000 0.070827 0.000000
0.000000 0.070827 0.000000
0.000742 0.070827 0.000000
0.007634 0.070827 0.000000
0.015969 0.070827 0.000000
0.026050 0.070827 0.000000
0.038243 0.070827 0.000000
0.052990 0.070827 0.000000
0.070827 0.070827 0.000000
0.092401 0.070827 0.000000
0.118495 0.070827 0.000000
0.150054 0.070827 0.000000
0.188226 0.070827 0.000000
0.234394 0.070827 0.000000
0.290234 0.070827 0.000000
0.357773 0.070827 0.000000
0.439460 0.070827 0.000000
0.538261 0.070827 0.000000
0.657760 0.070827 0.000000
0.802293 0.070827 0.000000
0.977106 0.070827 0.000000
1.188541 0.070827 0.000000
1.444270 0.070827 0.000000
1.753574 0.070827 0.000000
2.127675 0.070827 0.000000
2.580149 0.070827 0.000000
3.127414 0.070827 0.000000
3.789328 0.070827 0.000000
4.589910 0.070827 0.000000
5.558210 0.070827 0.000000
6.729364 0.070827 0.000000
8.145870 0.070827 0.000000
0.000000 0.092401 0.000000
0.000000 0.092401 0.000000
0.000000 0.092401 0.000000
0.000742 0.092401 0.000000
0.007634 0.092401 0.000000
0.015969 0.092401 0.000000
0.026050 0.092401 0.000000
0.038243 0.092401 0.000000
0.052990 0.092401 0.000000
0.070827 0.092401 0.000000
0.092401 0.092401 0.000000
0.118495 0.092401 0.000000
0.150054 0.092401 0.000000
0.188226 0.092401 0.000000
0.234394 0.092401 0.000000
0.290234 0.092401 0.000000
0.357773 0.092401 0.000000
0.439460 0.092401 0.000000
0.538261 0.092401 0.000000
0.657760 0.092401 0.000000
0.802293 0.092401 0.000000
0.977106 0.092401 0.000000
1.188541 0.092401 0.000000
1.444270 0.092401 0.000000
1.753574 0.092401 0.000000
2.127675 0.092401 0.000000
2.580149 0.092401 0.000000
3.127414 0.092401 0.000000
3.789328 0.092401 0.000000
4.589910 0.092401 0.000000
5.558210 0.092401 0.000000
6.729364 0.092401 0.000000
8.145870 0.092401 0.000000
0.000000 0.118495 0.000000
0.000000 0.118495 0.000000
0.000000 0.118495 0.000000
0.000742 0.118495 0.000000
0.007634 0.118495 0.000000
0.015969 0.118495 0.000000
0.026050 0.118495 0.000000
0.038243 0.118495 0.000000
0.052990 0.118495 0.000000
0.070827 0.118495 0.000000
0.092401 0.118495 0.000000
0.118495 0.118495 0.000000
0.150054 0.118495 0.000000
0.188226 0.118495 0.000000
0.234394 0.118495 0.000000
0.290234 0.118495 0.000000
0.357773 0.118495 0.000000
0.439460 0.118495 0.000000
0.538261 0.118495 0.000000
0.657760 0.118495 0.000000
0.802293 0.118495 0.000000
0.977106 0.118495 0.000000
1.188541 0.118495 0.000000
1.444270 0.118495 0.000000
1.753574 0.118495 0.000000
2.127675 0.118495 0.000000
2.580149 0.118495 0.000000
3.127414 0.118495 0.000000
3.789328 0.118495 0.000000
4.589910 0.118495 0.000000
5.558210 0.118495 0.000000
6.729364 0.118495 0.000000
8.145870 0.118495 0.000000
0.000000 0.150054 0.000000
0.000000 0.150054 0.000000
0.000000 0.150054 0.000000
0.000742 0.150054 0.000000
0.007634 0.150054 0.000000
0.015969 0.150054 0.000000
0.026050 0.150054 0.000000
0.038243 0.150054 0.000000
0.052990 0.150054 0.000000
0.070827 0.150054 0.000000
0.092401 0.150054 0.000000
0.118495 0.150054 0.000000
0.150054 0.150054 0.000000
0.188226 0.150054 0.000000
0.234394 0.150054 0.000000
0.290234 0.150054 0.000000
0.357773 0.150054 0.000000
0.439460 0.150054 0.000000
0.538261 0.150054 0.000000
0.657760 0.150054 0.000000
0.802293 0.150054 0.000000
0.977106 0.150054 0.000000
1.188541 0.150054 0.000000
1.444270 0.150054 0.000000
1.753574 0.150054 0.000000
2.127675 0.150054 0.000000
2.580149 0.150054 0.000000
3.127414 0.150054 0.000000
3.789328 0.150054 0.000000
4.589910 0.150054 0.000000
5.558210 0.150054 0.000000
6.729364 0.150054 0.000000
8.145870 0.150054 0.000000
0.000000 0.188226 0.000000
0.000000 0.188226 0.000000
0.000000 0.188226 0.000000
0.000742 0.188226 0.000000
0.007634 0.188226 0.000000
0.015969 0.188226 0.000000
0.026050 0.188226 0.000000
0.038243 0.188226 0.000000
0.052990 0.188226 0.000000
0.070827 0.188226 0.000000
0.092401 0.188226 0.000000
0.118495 0.188226 0.000000
0.150054 0.188226 0.000000
0.188226 0.188226 0.000000
0.234394 0.188226 0.000000
0.290234 0.188226 0.000000
0.357773 0.188226 0.000000
0.439460 0.188226 0.000000
0.538261 0.188226 0.000000
0.657760 0.188226 0.000000
0.802293 0.188226 0.000000
0.977106 0.188226 0.000000
1.188541 0.188226 0.000000
1.444270 0.188226 0.000000
1.753574 0.188226 0.000000
2.127675 0.188226 0.000000
2.580149 0.188226 0.000000
3.127414 0.188226 0.000000
3.789328 0.188226 0.000000
4.589910 0.188226 0.000000
5.558210 0.188226 0.000000
6.729364 0.188226 0.000000
8.145870 0.188226 0.000000
0.000000 0.234394 0.000000
0.000000 0.234394 0.000000
0.000000 0.234394 0.000000
0.000742 0.234394 0.000000
0.007634 0.234394 0.000000
0.015969 0.234394 0.000000
0.026050 0.234394 0.000000
0.038243 0.234394 0.000000
0.052990 0.234394 0.000000
0.070827 0.234394 0.000000
0.092401 0.234394 0.000000
0.118495 0.234394 0.000000
0.150054 0.234394 0.000000
0.188226 0.234394 0.000000
0.234394 0.234394 0.000000
0.290234 0.234394 0.000000
0.357773 0.234394 0.000000
0.439460 0.234394 0.000000
0.538261 0.234394 0.000000
0.657760 0.234394 0.000000
0.802293 0.234394 0.000000
0.977106 0.234394 0.000000
1.188541 0.234394 0.000000
1.444270 0.234394 0.000000
1.753574 0.234394 0.000000
2.127675 0.234394 0.000000
2.580149 0.234394 0.000000
3.127414 0.234394 0.000000
3.789328 0.234394 0.000000
4.589910 0.234394 0.000000
5.558210 0.234394 0.000000
6.729364 0.234394 0.000000
8.145870 0.234394 0.000000
0.000000 0.290234 0.000000
0.000000 0.290234 0.000000
0.000000 0.290234 0.000000
0.000742 0.290234 0.000000
0.007634 0.290234 0.000000
0.015969 0.290234 0.000000
0.026050 0.290234 0.000000
0.038243 0.290234 0.000000
0.052990 0.290234 0.000000
0.070827 0.290234 0.000000
0.092401 0.290234 0.000000
0.118495 0.290234 0.000000
0.150054 0.290234 0.000000
0.188226 0.290234 0.000000
0.234394 0.290234 0.000000
0.290234 0.290234 0.000000
0.357773 0.290234 0.000000
0.439460 0.290234 0.000000
0.538261 0.290234 0.000000
0.657760 0.290234 0.000000
0.802293 0.290234 0.000000
0.977106 0.290234 0.000000
1.188541 0.290234 0.000000
1.444270 0.290234 0.000000
1.753574 0.290234 0.000000
2.127675 0.290234 0.000000
2.580149 0.290234 0.000000
3.127414 0.290234 0.000000
3.789328 0.290234 0.000000
4.589910 0.290234 0.000000
5.558210 0.290234 0.000000
6.729364 0.290234 0.000000
8.145870 0.290234 0.000000
0.000000 0.357773 0.000000
0.000000 0.357773 0.000000
0.000000 0.357773 0.000000
0.000742 0.357773 0.000000
0.007634 0.357773 0.000000
0.015969 0.357773 0.000000
0.026050 0.357773 0.000000
0.038243 0.357773 0.000000
0.052990 0.357773 0.000000
0.070827 0.357773 0.000000
0.092401 0.357773 0.000000
0.118495 0.357773 0.000000
0.150054 0.357773 0.000000
0.188226 0.357773 0.000000
0.234394 0.357773 0.000000
0.290234 0.357773 0.000000
0.357773 0.357773 0.000000
0.439460 0.357773 0.000000
0.538261 0.357773 0.000000
0.657760 0.357773 0.000000
0.802293 0.357773 0.000000
0.977106 0.357773 0.000000
1.188541 0.357773 0.000000
1.444270 0.357773 0.000000
1.753574 0.357773 0.000000
2.127675 0.357773 0.000000
2.580149 0.357773 0.000000
3.127414 0.357773 0.000000
3.789328 0.357773 0.000000
4.589910 0.357773 0.000000
5.558210 0.357773 0.000000
6.729364 0.357773 0.000000
8.145870 0.357773 0.000000
0.000000 0.439460 0.000000
0.000000 0.439460 0.000000
0.000000 0.439460 0.000000
0.000742 0.439460 0.000000
0.007634 0.439460 0.000000
0.015969 0.439460 0.000000
0.026050 0.439460 0.000000
0.038243 0.439460 0.000000
0.052990 0.439460 0.000000
0.070827 0.439460 0.000000
0.092401 0.439460 0.000000
0.118495 0.439460 0.000000
0.150054 0.439460 0.000000
0.188226 0.439460 0.000000
0.234394 0.439460 0.000000
0.290234 0.439460 0.000000
0.357773 0.439460 0.000000
0.439460 0.439460 0.000000
0.538261 0.439460 0.000000
0.657760 0.439460 0.000000
0.802293 0.439460 0.000000
0.977106 0.439460 0.000000
1.188541 0.439460 0.000000
1.444270 0.439460 0.000000
1.753574 0.439460 0.000000
2.127675 0.439460 0.000000
2.580149 0.439460 0.000000
3.127414 0.439460 0.000000
3.789328 0.439460 0.000000
4.589910 0.439460 0.000000
5.558210 0.439460 0.000000
6.729364 0.439460 0.000000
8.145870 0.439460 0.000000
0.000000 0.538261 0.000000
0.000000 0.538261 0.000000
0.000000 0.538261 0.000000
0.000742 0.538261 0.000000
0.007634 0.538261 0.000000
0.015969 0.538261 0.000000
0.026050 0.538261 0.000000
0.038243 0.538261 0.000000
0.052990 0.538261 0.000000
0.070827 0.538261 0.000000
0.092401 0.538261 0.000000
0.118495 0.538261 0.000000
0.150054 0.538261 0.000000
0.188226 0.538261 0.000000
0.234394 0.538261 0.000000
0.290234 0.538261 0.000000
0.357773 0.538261 0.000000
0.439460 0.538261 0.000000
0.538261 0.538261 0.000000
0.657760 0.538261 0.000000
0.802293 0.538261 0.000000
0.977106 0.538261 0.000000
1.188541 0.538261 0.000000
1.444270 0.538261 0.000000
1.753574 0.538261 0.000000
2.127675 0.538261 0.000000
2.580149 0.538261 0.000000
3.127414 0.538261 0.000000
3.789328 0.538261 0.000000
4.589910 0.538261 0.000000
5.558210 0.538261 0.000000
6.729364 0.538261 0.000000
8.145870 0.538261 0.000000
0.000000 0.657760 0.000000
0.000000 0.657760 0.000000
0.000000 0.657760 0.000000
0.000742 0.657760 0.000000
0.007634 0.657760 0.000000
0.015969 0.657760 0.000000
0.026050 0.657760 0.000000
0.038243 0.657760 0.000000
0.052990 0.657760 0.000000
0.070827 0.657760 0.000000
0.092401 0.657760 0.000000
0.118495 0.657760 0.000000
0.150054 0.657760 0.000000
0.188226 0.657760 0.000000
0.234394 0.657760 0.000000
0.290234 0.657760 0.000000
0.357773 0.657760 0.000000
0.439460 0.657760 0.000000
0.538261 0.657760 0.000000
0.657760 0.657760 0.000000
0.802293 0.657760 0.000000
0.977106 0.657760 0.000000
1.188541 0.657760 0.000000
1.444270 0.657760 0.000000
1.753574 0.657760 0.000000
2.127675 0.657760 0.000000
2.580149 0.657760 0.000000
3.127414 0.657760 0.000000
3.789328 0.657760 0.000000
4.589910 0.657760 0.000000
5.558210 0.657760 0.000000
6.729364 0.657760 0.000000
8.145870 0.657760 0.000000
0.000000 0.802293 0.000000
0.000000 0.802293 0.000000
0.000000 0.802293 0.000000
0.000742 0.802293 0.000000
0.007634 0.802293 0.000000
0.015969 0.802293 0.000000
0.026050 0.802293 0.000000
0.038243 0.802293 0.000000
0.052990 0.802293 0.000000
0.070827 0.802293 0.000000
0.092401 0.802293 0.000000
0.118495 0.802293 0.000000
0.150054 0.802293 0.000000
0.188226 0.802293 0.000000
0.234394 0.802293 0.000000
0.290234 0.802293 0.000000
0.357773 0.802293 0.000000
0.439460 0.802293 0.000000
0.538261 0.802293 0.000000
0.657760 0.802293 0.000000
0.802293 0.802293 0.000000
0.977106 0.802293 0.000000
1.188541 0.802293 0.000000
1.444270 0.802293 0.000000
1.753574 0.802293 0.000000
2.127675 0.802293 0.000000
2.580149 0.802293 0.000000
3.127414 0.802293 0.000000
3.789328 0.802293 0.000000
4.589910 0.802293 0.000000
5.558210 0.802293 0.000000
6.729364 0.802293 0.000000
8.145870 0.802293 0.000000
0.000000 0.977106 0.000000
0.000000 0.977106 0.000000
0.000000 0.977106 0.000000
0.000742 0.977106 0.000000
0.007634 0.977106 0.000000
0.015969 0.977106 0.000000
0.026050 0.977106 0.000000
0.038243 0.977106 0.000000
0.052990 0.977106 0.000000
0.070827 0.977106 0.000000
0.092401 0.977106 0.000000
0.118495 0.977106 0.000000
0.150054 0.977106 0.000000
0.188226 0.977106 0.000000
0.234394 0.977106 0.000000
0.290234 0.977106 0.000000
0.357773 0.977106 0.000000
0.439460 0.977106 0.000000
0.538261 0.977106 0.000000
0.657760 0.977106 0.000000
0.802293 0.977106 0.000000
0.977106 0.977106 0.000000
1.188541 0.977106 0.000000
1.444270 0.977106 0.000000
1.753574 0.977106 0.000000
2.127675 0.977106 0.000000
2.580149 0.977106 0.000000
3.127414 0.977106 0.000000
3.789328 0.977106 0.000000
4.589910 0.977106 0.000000
5.558210 0.977106 0.000000
6.729364 0.977106 0.000000
8.145870 0.977106 0.000000
0.000000 1.188541 0.000000
0.000000 1.188541 0.000000
0.000000 1.188541 0.000000
0.000742 1.188541 0.000000
0.007634 1.188541 0.000000
0.015969 1.188541 0.000000
0.026050 1.188541 0.000000
0.038243 1.188541 0.000000
0.052990 1.188541 0.000000
0.070827 1.188541 0.000000
0.092401 1.188541 0.000000
0.118495 1.188541 0.000000
0.150054 1.188541 0.000000
0.188226 1.188541 0.000000
0.234394 1.188541 0.000000
0.290234 1.188541 0.000000
0.357773 1.188541 0.000000
0.439460 1.188541 0.000000
0.538261 1.188541 0.000000
0.657760 1.188541 0.000000
0.802293 1.188541 0.000000
0.977106 1.188541 0.000000
1.188541 1.188541 0.000000
1.444270 1.188541 0.000000
1.753574 1.188541 0.000000
2.127675 1.188541 0.000000
2.580149 1.188541 0.000000
3.127414 1.188541 0.000000
3.789328 1.188541 0.000000
4.589910 1.188541 0.000000
5.558210 1.188541 0.000000
6.729364 1.188541 0.000000
8.145870 1.188541 0.000000
0.000000 1.444270 0.000000
0.000000 1.444270 0.000000
0.000000 1.444270 0.000000
0.000742 1.444270 0.000000
0.007634 1.444270 0.000000
0.015969 1.444270 0.000000
0.026050 1.444270 0.000000
0.038243 1.444270 0.000000
0.052990 1.444270 0.000000
0.070827 1.444270 0.000000
0.092401 1.444270 0.000000
0.118495 1.444270 0.000000
0.150054 1.444270 0.000000
0.188226 1.444270 0.000000
0.234394 1.444270 0.000000
0.290234 1.444270 0.000000
0.357773 1.444270 0.000000
0.439460 1.444270 0.000000
0.538261 1.444270 0.000000
0.657760 1.444270 0.000000
0.802293 1.444270 0.000000
0.977106 1.444270 0.000000
1.188541 1.444270 0.000000
1.444270 1.444270 0.000000
1.753574 1.444270 0.000000
2.127675 1.444270 0.000000
2.580149 1.444270 0.000000
3.127414 1.444270 0.000000
3.789328 1.444270 0.000000
4.589910 1.444270 0.000000
5.558210 1.444270 0.000000
6.729364 1.444270 0.000000
8.145870 1.444270 0.000000
0.000000 1.753574 0.000000
0.000000 1.753574 0.000000
0.000000 1.753574 0.000000
0.000742 1.753574 0.000000
0.007634 1.753574 0.000000
0.015969 1.753574 0.000000
0.026050 1.753574 0.000000
0.038243 1.753574 0.000000
0.052990 1.753574 0.000000
0.070827 1.753574 0.000000
0.092401 1.753574 0.000000
0.118495 1.753574 0.000000
0.150054 1.753574 0.000000
0.188226 1.753574 0.000000
0.234394 1.753574 0.000000
0.290234 1.753574 0.000000
0.357773 1.753574 0.000000
0.439460 1.753574 0.000000
0.538261 1.753574 0.000000
0.657760 1.753574 0.000000
0.802293 1.753574 0.000000
0.977106 1.753574 0.000000
1.188541 1.753574 0.000000
1.444270 1.753574 0.000000
1.753574 1.753574 0.000000
2.127675 1.753574 0.000000
2.580149 1.753574 0.000000
3.127414 1.753574 0.000000
3.789328 1.753574 0.000000
4.589910 1.753574 0.000000
5.558210 1.753574 0.000000
6.729364 1.753574 0.000000
8.145870 1.753574 0.000000
0.000000 2.127675 0.000000
0.000000 2.127675 0.000000
0.000000 2.127675 0.000000
0.000742 2.127675 0.000000
0.007634 2.127675 0.000000
0.015969 2.127675 0.000000
0.026050 2.127675 0.000000
0.038243 2.127675 0.000000
0.052990 2.127675 0.000000
0.070827 2.127675 0.000000
0.092401 2.127675 0.000000
0.118495 2.127675 0.000000
0.150054 2.127675 0.000000
0.188226 2.127675 0.000000
0.234394 2.127675 0.000000
0.290234 2.127675 0.000000
0.357773 2.127675 0.000000
0.439460 2.127675 0.000000
0.538261 2.127675 0.000000
0.657760 2.127675 0.000000
0.802293 2.127675 0.000000
0.977106 2.127675 0.000000
1.188541 2.127675 0.000000
1.444270 2.127675 0.000000
1.753574 2.127675 0.000000
2.127675 2.127675 0.000000
2.580149 2.127675 0.000000
3.127414 2.127675 0.000000
3.789328 2.127675 0.000000
4.589910 2.127675 0.000000
5.558210 2.127675 0.000000
6.729364 2.127675 0.000000
8.145870 2.127675 0.000000
0.000000 2.580149 0.000000
0.000000 2.580149 0.000000
0.000000 2.580149 0.000000
0.000742 2.580149 0.000000
0.007634 2.580149 0.000000
0.015969 2.580149 0.000000
0.026050 2.580149 0.000000
0.038243 2.580149 0.000000
0.052990 2.580149 0.000000
0.070827 2.580149 0.000000
0.092401 2.580149 0.000000
0.118495 2.580149 0.000000
0.150054 2.580149 0.000000
0.188226 2.580149 0.000000
0.234394 2.580149 0.000000
0.290234 2.580149 0.000000
0.357773 2.580149 0.000000
0.439460 2.580149 0.000000
0.538261 2.580149 0.000000
0.657760 2.580149 0.000000
0.802293 2.580149 0.000000
0.977106 2.580149 0.000000
1.188541 2.580149 0.000000
1.444270 2.580149 0.000000
