app/src/main/assets/luts/PixelLog_to_Rec709_Display.cube
# PixelLog to Rec.709 Preview 3D LUT
# Input: Pixel-Log BT.2020 [0, 1] -> Inverse -> BT.2020 to Rec.709 -> Filmic S-curve -> BT.709 OETF
LUT_3D_SIZE 5
DOMAIN_MIN 0.0 0.0 0.0
DOMAIN_MAX 1.0 1.0 1.0
0.000000 0.000000 0.000000
0.095200 0.000000 0.000000
0.427234 0.000000 0.000000
1.000000 0.000000 0.000000
1.000000 0.000000 0.177461
0.000000 0.072150 0.000000
0.073821 0.068038 0.000000
0.444218 0.026023 0.000000
1.000000 0.000000 0.000000
1.000000 0.000000 0.181686
0.000000 0.411060 0.000000
0.000000 0.410666 0.000000
0.417228 0.402524 0.000000
1.000000 0.298744 0.000000
1.000000 0.000000 0.200088
0.000000 0.922396 0.000000
0.000000 0.917770 0.000000
0.000000 0.898059 0.000000
0.838273 0.814705 0.000000
1.000000 0.580785 0.279910
0.000000 1.000000 0.392898
0.000000 1.000000 0.394188
0.000000 1.000000 0.399672
0.274151 1.000000 0.423158
0.992239 0.972622 0.506448
0.000000 0.000000 0.000000
0.093229 0.000000 0.059439
0.428662 0.000000 0.080062
1.000000 0.000000 0.087180
1.000000 0.000000 0.231180
0.000000 0.073093 0.064206
0.068580 0.068580 0.068580
0.444463 0.025297 0.079879
1.000000 0.000000 0.078017
1.000000 0.000000 0.233774
0.000000 0.411816 0.049803
0.000000 0.411291 0.049075
0.414721 0.402725 0.045684
1.000000 0.298409 0.046035
1.000000 0.000000 0.245759
0.000000 0.921658 0.000000
0.000000 0.917036 0.000000
0.000000 0.897345 0.000000
0.836741 0.814118 0.069569
1.000000 0.580677 0.306538
0.000000 1.000000 0.404574
0.000000 1.000000 0.405784
0.000000 1.000000 0.410929
0.273789 1.000000 0.433059
0.991893 0.972453 0.512579
0.000000 0.000000 0.269418
0.080323 0.000000 0.289263
0.433426 0.000000 0.349744
1.000000 0.000000 0.420411
1.000000 0.000000 0.390256
0.000000 0.076509 0.313701
0.042933 0.070347 0.327574
0.444466 0.021883 0.370806
1.000000 0.000000 0.418174
1.000000 0.000000 0.389690
0.000000 0.414758 0.391375
0.000000 0.413701 0.394458
0.403417 0.403417 0.403417
1.000000 0.296966 0.402326
1.000000 0.000000 0.388554
0.000000 0.918477 0.340706
0.000000 0.913873 0.340486
0.000000 0.894274 0.339790
0.830148 0.811600 0.341556
1.000000 0.580217 0.402175
0.000000 1.000000 0.451362
0.000000 1.000000 0.452276
0.000000 1.000000 0.456181
0.272232 1.000000 0.473264
0.990402 0.971727 0.538131
0.000000 0.000000 0.803426
0.000000 0.000000 0.827018
0.431415 0.000000 0.902397
1.000000 0.000000 0.982933
1.000000 0.000000 0.768803
0.000000 0.080526 0.858315
0.000000 0.068382 0.875788
0.425420 0.003665 0.930040
1.000000 0.000000 0.979367
1.000000 0.000000 0.763822
0.000000 0.422717 0.963637
0.000000 0.419820 0.967351
0.341669 0.403598 0.976965
1.000000 0.290472 0.952651
1.000000 0.000000 0.743951
0.000000 0.904094 0.862301
0.000000 0.899588 0.859581
0.000000 0.880459 0.848050
0.800382 0.800382 0.800382
1.000000 0.578231 0.680670
0.000000 1.000000 0.618645
0.000000 1.000000 0.618757
0.000000 1.000000 0.619264
0.265259 1.000000 0.622022
0.983655 0.968450 0.640297
0.000000 0.000000 1.000000
0.000000 0.000000 1.000000
0.063324 0.000000 1.000000
1.000000 0.000000 1.000000
1.000000 0.000000 1.000000
0.000000 0.017834 1.000000
0.000000 0.001053 1.000000
0.000000 0.000000 1.000000
1.000000 0.000000 1.000000
1.000000 0.000000 1.000000
0.000000 0.406674 1.000000
0.000000 0.401294 1.000000
0.000000 0.377687 1.000000
0.947833 0.267873 1.000000
1.000000 0.000000 1.000000
0.000000 0.843752 1.000000
0.000000 0.839834 1.000000
0.000000 0.823304 1.000000
0.672531 0.755360 1.000000
1.000000 0.571478 1.000000
0.000000 1.000000 1.000000
0.000000 1.000000 1.000000
0.000000 1.000000 1.000000
0.236574 1.000000 1.000000
0.954422 0.954422 0.954422
