app/src/main/assets/luts/PixelLog_to_Rec709_Display.cube
# PixelLog to Rec.709 Preview 3D LUT
# Input: Pixel-Log BT.2020 [0, 1] -> Inverse -> BT.2020 to Rec.709 -> Filmic S-curve -> BT.709 OETF
LUT_3D_SIZE 9
DOMAIN_MIN 0.0 0.0 0.0
DOMAIN_MAX 1.0 1.0 1.0
0.000000 0.000000 0.000000
0.000000 0.000000 0.000000
0.095200 0.000000 0.000000
0.223596 0.000000 0.000000
0.427234 0.000000 0.000000
0.753350 0.000000 0.000000
1.000000 0.000000 0.000000
1.000000 0.000000 0.000000
1.000000 0.000000 0.177461
0.000000 0.000000 0.000000
0.009437 0.007815 0.000000
0.091273 0.002365 0.000000
0.228164 0.000000 0.000000
0.434816 0.000000 0.000000
0.758129 0.000000 0.000000
1.000000 0.000000 0.000000
1.000000 0.000000 0.000000
1.000000 0.000000 0.178969
0.000000 0.072150 0.000000
0.000000 0.070967 0.000000
0.073821 0.068038 0.000000
0.230531 0.058568 0.000000
0.444218 0.026023 0.000000
0.764134 0.000000 0.000000
1.000000 0.000000 0.000000
1.000000 0.000000 0.000000
1.000000 0.000000 0.181686
0.000000 0.206745 0.000000
0.000000 0.207005 0.000000
0.001758 0.207014 0.000000
0.214786 0.205197 0.000000
0.449732 0.193969 0.000000
0.767942 0.143331 0.000000
1.000000 0.000000 0.000000
1.000000 0.000000 0.000000
1.000000 0.000000 0.187530
0.000000 0.411060 0.000000
0.000000 0.410995 0.000000
0.000000 0.410666 0.000000
0.088551 0.409118 0.000000
0.417228 0.402524 0.000000
0.748536 0.377674 0.000000
1.000000 0.298744 0.000000
1.000000 0.068358 0.000000
1.000000 0.000000 0.200088
0.000000 0.675797 0.000000
0.000000 0.674641 0.000000
0.000000 0.672508 0.000000
0.000000 0.667720 0.000000
0.237588 0.656617 0.000000
0.650427 0.630203 0.000000
1.000000 0.569312 0.000000
1.000000 0.449574 0.000000
1.000000 0.291227 0.226690
0.000000 0.922396 0.000000
0.000000 0.920740 0.000000
0.000000 0.917770 0.000000
0.000000 0.911445 0.000000
0.000000 0.898059 0.000000
0.388494 0.870194 0.000000
0.838273 0.814705 0.000000
1.000000 0.715932 0.104050
1.000000 0.580785 0.279910
0.000000 1.000000 0.095619
0.000000 1.000000 0.097557
0.000000 1.000000 0.100976
0.000000 1.000000 0.108044
0.000000 1.000000 0.122172
0.000000 1.000000 0.148870
0.526805 0.995208 0.195400
0.945532 0.922276 0.268900
1.000000 0.812138 0.373176
0.000000 1.000000 0.392898
0.000000 1.000000 0.393360
0.000000 1.000000 0.394188
0.000000 1.000000 0.395950
0.000000 1.000000 0.399672
0.000000 1.000000 0.407430
0.274151 1.000000 0.423158
0.656853 1.000000 0.453396
0.992239 0.972622 0.506448
0.000000 0.000000 0.000000
0.000000 0.000000 0.000000
0.094535 0.000000 0.009071
0.223796 0.000000 0.008664
0.427760 0.000000 0.005550
0.753658 0.000000 0.000000
1.000000 0.000000 0.000000
1.000000 0.000000 0.009484
1.000000 0.000000 0.198061
0.000000 0.010348 0.007769
0.007685 0.007685 0.007685
0.090184 0.002158 0.007405
0.228119 0.000000 0.006298
0.435174 0.000000 0.001965
0.758338 0.000000 0.000000
1.000000 0.000000 0.000000
1.000000 0.000000 0.009289
1.000000 0.000000 0.199321
0.000000 0.072494 0.004117
0.000000 0.071258 0.003709
0.071979 0.068238 0.002875
0.230105 0.058595 0.000691
0.444316 0.025767 0.000000
0.764188 0.000000 0.000000
1.000000 0.000000 0.000000
1.000000 0.000000 0.009172
1.000000 0.000000 0.201604
0.000000 0.207221 0.000000
0.000000 0.207446 0.000000
0.000000 0.207397 0.000000
0.213657 0.205470 0.000000
0.449392 0.194065 0.000000
0.767740 0.143197 0.000000
1.000000 0.000000 0.000000
1.000000 0.000000 0.009889
1.000000 0.000000 0.206554
0.000000 0.411334 0.000000
0.000000 0.411251 0.000000
0.000000 0.410893 0.000000
0.085042 0.409287 0.000000
0.416336 0.402598 0.000000
0.748009 0.377625 0.000000
1.000000 0.298624 0.000000
1.000000 0.068432 0.015446
1.000000 0.000000 0.217364
0.000000 0.675726 0.000000
0.000000 0.674565 0.000000
0.000000 0.672424 0.000000
0.000000 0.667620 0.000000
0.235781 0.656489 0.000000
0.649651 0.630042 0.000000
1.000000 0.569145 0.000000
1.000000 0.449481 0.042172
1.000000 0.291308 0.240884
0.000000 0.922132 0.000000
0.000000 0.920476 0.000000
0.000000 0.917508 0.000000
0.000000 0.911185 0.000000
0.000000 0.897804 0.000000
0.387598 0.869952 0.000000
0.837725 0.814495 0.000000
1.000000 0.715790 0.132433
1.000000 0.580747 0.289696
0.000000 1.000000 0.121940
0.000000 1.000000 0.123548
0.000000 1.000000 0.126399
0.000000 1.000000 0.132341
0.000000 1.000000 0.144403
0.000000 1.000000 0.167759
0.526442 0.995031 0.209785
0.945240 0.922142 0.278401
1.000000 0.812067 0.378455
0.000000 1.000000 0.397114
0.000000 1.000000 0.397566
0.000000 1.000000 0.398375
0.000000 1.000000 0.400096
0.000000 1.000000 0.403735
0.000000 1.000000 0.411324
0.274022 1.000000 0.426726
0.656736 1.000000 0.456404
0.992116 0.972561 0.508650
0.000000 0.000000 0.000000
0.000000 0.000000 0.000000
0.093229 0.000000 0.059439
0.224091 0.000000 0.067601
0.428662 0.000000 0.080062
0.754188 0.000000 0.089706
1.000000 0.000000 0.087180
1.000000 0.000000 0.108524
1.000000 0.000000 0.231180
0.000000 0.010182 0.057606
0.004439 0.007438 0.059848
0.088109 0.001774 0.063599
0.227983 0.000000 0.070493
0.435778 0.000000 0.080635
0.758692 0.000000 0.087535
1.000000 0.000000 0.084002
1.000000 0.000000 0.107822
1.000000 0.000000 0.232098
0.000000 0.073093 0.064206
0.000000 0.071762 0.065856
0.068580 0.068580 0.068580
0.229290 0.058629 0.073433
0.444463 0.025297 0.079879
0.764266 0.000000 0.082888
1.000000 0.000000 0.078017
1.000000 0.000000 0.106749
1.000000 0.000000 0.233774
0.000000 0.208057 0.068573
0.000000 0.208222 0.069215
0.000000 0.208070 0.070199
0.211579 0.205948 0.071622
0.448758 0.194229 0.072431
0.767364 0.142952 0.070497
1.000000 0.000000 0.066392
1.000000 0.000000 0.105256
1.000000 0.000000 0.237465
0.000000 0.411816 0.049803
0.000000 0.411703 0.049549
0.000000 0.411291 0.049075
0.078282 0.409585 0.048006
0.414721 0.402725 0.045684
0.747055 0.377535 0.041998
1.000000 0.298409 0.046035
1.000000 0.068566 0.105561
1.000000 0.000000 0.245759
0.000000 0.675595 0.000000
0.000000 0.674426 0.000000
0.000000 0.672270 0.000000
0.000000 0.667437 0.000000
0.232509 0.656259 0.000000
0.648255 0.629754 0.000000
1.000000 0.568845 0.026504
1.000000 0.449315 0.119056
1.000000 0.291452 0.264679
0.000000 0.921658 0.000000
0.000000 0.920003 0.000000
0.000000 0.917036 0.000000
0.000000 0.910717 0.000000
0.000000 0.897345 0.000000
0.385988 0.869517 0.009387
0.836741 0.814118 0.069569
1.000000 0.715535 0.174772
1.000000 0.580677 0.306538
0.000000 1.000000 0.161393
0.000000 1.000000 0.162632
0.000000 1.000000 0.164837
0.000000 1.000000 0.169473
0.000000 1.000000 0.179035
0.000000 1.000000 0.198069
0.525792 0.994713 0.233723
0.944716 0.921902 0.294754
1.000000 0.811940 0.387756
0.000000 1.000000 0.404574
0.000000 1.000000 0.405008
0.000000 1.000000 0.405784
0.000000 1.000000 0.407435
0.000000 1.000000 0.410929
0.000000 1.000000 0.418223
0.273789 1.000000 0.433059
0.656526 1.000000 0.461755
0.991893 0.972453 0.512579
0.000000 0.000000 0.000000
0.000000 0.000000 0.000000
0.089947 0.000000 0.154991
0.224460 0.000000 0.171387
0.430421 0.000000 0.197090
0.755224 0.000000 0.225983
1.000000 0.000000 0.240175
1.000000 0.000000 0.238703
1.000000 0.000000 0.290863
0.000000 0.009773 0.153052
0.000000 0.006859 0.157690
0.083139 0.000908 0.165405
0.227451 0.000000 0.179621
0.436918 0.000000 0.202025
0.759361 0.000000 0.227078
1.000000 0.000000 0.238820
1.000000 0.000000 0.237681
1.000000 0.000000 0.291281
0.000000 0.074295 0.170766
0.000000 0.072764 0.174347
0.060934 0.069242 0.180329
0.227331 0.058644 0.191412
0.444646 0.024258 0.208897
0.764359 0.000000 0.228183
1.000000 0.000000 0.236243
1.000000 0.000000 0.235939
1.000000 0.000000 0.292067
0.000000 0.209776 0.194834
0.000000 0.209814 0.196936
0.000000 0.209448 0.200447
0.206918 0.206918 0.206918
0.447310 0.194549 0.216934
0.766506 0.142418 0.227640
1.000000 0.000000 0.230325
1.000000 0.000000 0.232627
1.000000 0.000000 0.293888
0.000000 0.412809 0.210753
0.000000 0.412630 0.211365
0.000000 0.412108 0.212376
0.064159 0.410191 0.214187
0.411206 0.402976 0.216766
0.744986 0.377331 0.218546
1.000000 0.297949 0.217287
1.000000 0.068858 0.227465
1.000000 0.000000 0.298359
0.000000 0.675304 0.190027
0.000000 0.674116 0.189997
0.000000 0.671929 0.189942
0.000000 0.667037 0.189833
0.225381 0.655759 0.189686
0.645259 0.629134 0.190081
1.000000 0.568203 0.195468
1.000000 0.448961 0.224678
1.000000 0.291761 0.309964
0.000000 0.920643 0.147123
0.000000 0.918990 0.147721
0.000000 0.916027 0.148801
0.000000 0.909717 0.151142
0.000000 0.896365 0.156263
0.382533 0.868588 0.167613
0.834638 0.813314 0.192748
1.000000 0.714992 0.245348
1.000000 0.580530 0.339896
0.000000 1.000000 0.227455
0.000000 1.000000 0.228268
0.000000 1.000000 0.229722
0.000000 1.000000 0.232804
0.000000 1.000000 0.239272
0.000000 1.000000 0.252565
0.524400 0.994035 0.278814
0.943595 0.921388 0.327147
1.000000 0.811668 0.406926
0.000000 1.000000 0.420075
0.000000 1.000000 0.420471
0.000000 1.000000 0.421182
0.000000 1.000000 0.422694
0.000000 1.000000 0.425896
0.000000 1.000000 0.432598
0.273292 1.000000 0.446289
0.656077 1.000000 0.472985
0.991417 0.972221 0.520873
0.000000 0.000000 0.269418
0.000000 0.000000 0.276850
0.080323 0.000000 0.289263
0.224090 0.000000 0.312358
0.433426 0.000000 0.349744
0.757005 0.000000 0.394959
1.000000 0.000000 0.420411
1.000000 0.000000 0.402251
1.000000 0.000000 0.390256
0.000000 0.008656 0.287250
0.000000 0.005393 0.293742
0.070028 0.000000 0.304626
0.225247 0.000000 0.324992
0.438675 0.000000 0.358172
0.760397 0.000000 0.398136
1.000000 0.000000 0.419711
1.000000 0.000000 0.400779
1.000000 0.000000 0.390039
0.000000 0.076509 0.313701
0.000000 0.074566 0.318871
0.042933 0.070347 0.327574
0.222168 0.058422 0.343959
0.444466 0.021883 0.370806
0.764224 0.000000 0.402658
1.000000 0.000000 0.418174
1.000000 0.000000 0.398184
1.000000 0.000000 0.389690
0.000000 0.213141 0.353134
0.000000 0.212922 0.356404
0.000000 0.212123 0.361923
0.195928 0.208765 0.372336
0.443804 0.195096 0.389017
0.764432 0.141222 0.408216
1.000000 0.000000 0.413933
1.000000 0.000000 0.392856
1.000000 0.000000 0.389105
0.000000 0.414758 0.391375
0.000000 0.414447 0.392529
0.000000 0.413701 0.394458
0.033542 0.411355 0.398014
0.403417 0.403417 0.403417
0.740440 0.376851 0.407904
1.000000 0.296966 0.402326
1.000000 0.069510 0.382613
1.000000 0.000000 0.388554
0.000000 0.674627 0.392054
0.000000 0.673402 0.391937
0.000000 0.671152 0.391704
0.000000 0.666139 0.391116
0.209509 0.654659 0.389532
0.638814 0.627793 0.385276
1.000000 0.566833 0.375859
1.000000 0.448213 0.366425
1.000000 0.292424 0.390108
0.000000 0.918477 0.340706
0.000000 0.916828 0.340625
0.000000 0.913873 0.340486
0.000000 0.907581 0.340219
0.000000 0.894274 0.339790
0.375096 0.866607 0.339505
0.830148 0.811600 0.341556
1.000000 0.713836 0.355069
1.000000 0.580217 0.402175
0.000000 1.000000 0.330542
0.000000 1.000000 0.330930
0.000000 1.000000 0.331627
0.000000 1.000000 0.333119
0.000000 1.000000 0.336313
0.000000 1.000000 0.343142
0.521428 0.992590 0.357644
0.941205 0.920295 0.387636
1.000000 0.811089 0.445069
0.000000 1.000000 0.451362
0.000000 1.000000 0.451690
0.000000 1.000000 0.452276
0.000000 1.000000 0.453527
0.000000 1.000000 0.456181
0.000000 1.000000 0.461761
0.272232 1.000000 0.473264
0.655120 1.000000 0.496077
0.990402 0.971727 0.538131
0.000000 0.000000 0.470702
0.000000 0.000000 0.479601
0.050835 0.000000 0.494574
0.218304 0.000000 0.522787
0.436692 0.000000 0.569391
0.758982 0.000000 0.626720
1.000000 0.000000 0.658344
1.000000 0.000000 0.620407
1.000000 0.000000 0.544143
0.000000 0.005245 0.492447
0.000000 0.001303 0.500331
0.034350 0.000000 0.513631
0.215834 0.000000 0.538782
0.439573 0.000000 0.580496
0.760946 0.000000 0.631298
1.000000 0.000000 0.657791
1.000000 0.000000 0.618300
1.000000 0.000000 0.543187
0.000000 0.079712 0.525441
0.000000 0.076963 0.531847
0.000000 0.071377 0.542683
0.206666 0.056869 0.563253
0.441645 0.016177 0.597486
0.762519 0.000000 0.638030
1.000000 0.000000 0.656395
1.000000 0.000000 0.614538
1.000000 0.000000 0.541513
0.000000 0.219043 0.576568
0.000000 0.218337 0.580755
0.000000 0.216710 0.587846
0.167288 0.211790 0.601146
0.434542 0.195697 0.622420
0.758986 0.138456 0.647162
1.000000 0.000000 0.651985
1.000000 0.000000 0.606608
1.000000 0.000000 0.538110
0.000000 0.418191 0.629873
0.000000 0.417628 0.631381
0.000000 0.416452 0.633900
0.000000 0.413283 0.638531
0.385541 0.403961 0.645468
0.730199 0.375642 0.650495
1.000000 0.294871 0.638318
1.000000 0.071019 0.590395
1.000000 0.000000 0.531612
0.000000 0.672957 0.639246
0.000000 0.671661 0.638976
0.000000 0.669289 0.638452
0.000000 0.664046 0.637176
0.172033 0.652181 0.633851
0.624872 0.624872 0.624872
1.000000 0.563918 0.602420
1.000000 0.446651 0.560179
1.000000 0.293849 0.520940
0.000000 0.913861 0.568304
0.000000 0.912222 0.567777
0.000000 0.909286 0.566835
0.000000 0.903037 0.564846
0.000000 0.889829 0.560704
0.358968 0.862404 0.552410
0.820593 0.807972 0.537393
1.000000 0.711395 0.516952
1.000000 0.579563 0.509739
0.000000 1.000000 0.483072
0.000000 1.000000 0.483059
0.000000 1.000000 0.483039
0.000000 1.000000 0.483009
0.000000 1.000000 0.483007
0.000000 1.000000 0.483271
0.515097 0.989525 0.484911
0.936123 0.917976 0.492143
1.000000 0.809861 0.516703
0.000000 1.000000 0.511445
0.000000 1.000000 0.511656
0.000000 1.000000 0.512034
0.000000 1.000000 0.512841
0.000000 1.000000 0.514564
0.000000 1.000000 0.518224
0.269984 1.000000 0.525930
0.653085 1.000000 0.541823
0.988238 0.970674 0.573049
0.000000 0.000000 0.803426
0.000000 0.000000 0.812183
0.000000 0.000000 0.827018
0.184130 0.000000 0.855271
0.431415 0.000000 0.902397
0.756137 0.000000 0.958406
1.000000 0.000000 0.982933
1.000000 0.000000 0.914942
1.000000 0.000000 0.768803
0.000000 0.000000 0.825015
0.000000 0.000000 0.832870
0.000000 0.000000 0.846187
0.174057 0.000000 0.871575
0.430064 0.000000 0.913349
0.755660 0.000000 0.962948
1.000000 0.000000 0.981823
1.000000 0.000000 0.911931
1.000000 0.000000 0.767005
0.000000 0.080526 0.858315
0.000000 0.076359 0.864795
0.000000 0.068382 0.875788
0.150617 0.049395 0.896754
0.425420 0.003665 0.930040
0.753370 0.000000 0.969508
1.000000 0.000000 0.979367
1.000000 0.000000 0.906534
1.000000 0.000000 0.763822
0.000000 0.226860 0.910304
0.000000 0.225368 0.914382
0.000000 0.222429 0.921269
0.069620 0.215079 0.934261
0.407477 0.194876 0.955267
0.743380 0.131829 0.977830
1.000000 0.000000 0.972465
1.000000 0.000000 0.895076
1.000000 0.000000 0.757212
0.000000 0.422717 0.963637
0.000000 0.421724 0.965039
0.000000 0.419820 0.967351
0.000000 0.415258 0.971462
0.341669 0.403598 0.976965
0.706251 0.372373 0.977688
1.000000 0.290472 0.952651
1.000000 0.074757 0.871212
1.000000 0.000000 0.743951
0.000000 0.668523 0.965872
0.000000 0.667108 0.965271
0.000000 0.664534 0.964145
0.000000 0.658905 0.961550
0.060705 0.646415 0.955276
0.594392 0.618439 0.939529
1.000000 0.557767 0.901385
1.000000 0.443483 0.824458
1.000000 0.296922 0.719297
0.000000 0.904094 0.862301
0.000000 0.902480 0.861326
0.000000 0.899588 0.859581
0.000000 0.893438 0.855871
0.000000 0.880459 0.848050
0.323310 0.853570 0.831911
0.800382 0.800382 0.800382
1.000000 0.706314 0.746694
1.000000 0.578231 0.680670
0.000000 1.000000 0.700124
0.000000 1.000000 0.699724
0.000000 1.000000 0.699011
0.000000 1.000000 0.697506
0.000000 1.000000 0.694381
0.000000 1.000000 0.688111
0.501676 0.983091 0.676464
0.925397 0.913107 0.658336
1.000000 0.807287 0.640958
0.000000 1.000000 0.618645
0.000000 1.000000 0.618685
0.000000 1.000000 0.618757
0.000000 1.000000 0.618915
0.000000 1.000000 0.619264
0.000000 1.000000 0.620068
0.265259 1.000000 0.622022
0.648789 1.000000 0.627061
0.983655 0.968450 0.640297
0.000000 0.000000 1.000000
0.000000 0.000000 1.000000
0.000000 0.000000 1.000000
0.000000 0.000000 1.000000
0.377702 0.000000 1.000000
0.727030 0.000000 1.000000
1.000000 0.000000 1.000000
1.000000 0.000000 1.000000
1.000000 0.000000 1.000000
0.000000 0.000000 1.000000
0.000000 0.000000 1.000000
0.000000 0.000000 1.000000
0.000000 0.000000 1.000000
0.370534 0.000000 1.000000
0.723239 0.000000 1.000000
1.000000 0.000000 1.000000
1.000000 0.000000 1.000000
1.000000 0.000000 1.000000
0.000000 0.065538 1.000000
0.000000 0.059859 1.000000
0.000000 0.049474 1.000000
0.000000 0.026588 1.000000
0.356246 0.000000 1.000000
0.715672 0.000000 1.000000
1.000000 0.000000 1.000000
1.000000 0.000000 1.000000
1.000000 0.000000 1.000000
0.000000 0.230113 1.000000
0.000000 0.227656 1.000000
0.000000 0.223077 1.000000
0.000000 0.212590 1.000000
0.319988 0.187052 1.000000
0.696781 0.116215 1.000000
1.000000 0.000000 1.000000
1.000000 0.000000 1.000000
1.000000 0.000000 1.000000
0.000000 0.423490 1.000000
0.000000 0.421939 1.000000
0.000000 0.419086 1.000000
0.000000 0.412723 1.000000
0.215180 0.398091 1.000000
0.647990 0.363469 1.000000
1.000000 0.281753 1.000000
1.000000 0.085087 1.000000
1.000000 0.000000 1.000000
0.000000 0.656347 1.000000
0.000000 0.654786 1.000000
0.000000 0.651969 1.000000
0.000000 0.645892 1.000000
0.000000 0.632727 1.000000
0.526487 0.604293 1.000000
0.953161 0.545146 1.000000
1.000000 0.437483 1.000000
1.000000 0.303594 1.000000
0.000000 0.883803 1.000000
0.000000 0.882249 1.000000
0.000000 0.879468 1.000000
0.000000 0.873560 1.000000
0.000000 0.861119 1.000000
0.239136 0.835444 1.000000
0.758198 0.784929 1.000000
1.000000 0.696081 1.000000
1.000000 0.575682 0.932052
0.000000 1.000000 0.997767
0.000000 1.000000 0.996978
0.000000 1.000000 0.995567
0.000000 1.000000 0.992574
0.000000 1.000000 0.986292
0.000000 1.000000 0.973389
0.473514 0.969872 0.948091
0.903108 0.903108 0.903108
1.000000 0.802015 0.837830
0.000000 1.000000 0.793430
0.000000 1.000000 0.793255
0.000000 1.000000 0.792942
0.000000 1.000000 0.792279
0.000000 1.000000 0.790888
0.000000 1.000000 0.788042
0.255544 1.000000 0.782512
0.639863 1.000000 0.772935
0.974053 0.963812 0.760348
0.000000 0.000000 1.000000
0.000000 0.000000 1.000000
0.000000 0.000000 1.000000
0.000000 0.000000 1.000000
0.063324 0.000000 1.000000
0.609380 0.000000 1.000000
1.000000 0.000000 1.000000
1.000000 0.000000 1.000000
1.000000 0.000000 1.000000
0.000000 0.000000 1.000000
0.000000 0.000000 1.000000
0.000000 0.000000 1.000000
0.000000 0.000000 1.000000
0.033154 0.000000 1.000000
0.602645 0.000000 1.000000
1.000000 0.000000 1.000000
1.000000 0.000000 1.000000
1.000000 0.000000 1.000000
0.000000 0.017834 1.000000
0.000000 0.011818 1.000000
0.000000 0.001053 1.000000
0.000000 0.000000 1.000000
0.000000 0.000000 1.000000
0.590341 0.000000 1.000000
1.000000 0.000000 1.000000
1.000000 0.000000 1.000000
1.000000 0.000000 1.000000
0.000000 0.212445 1.000000
0.000000 0.209318 1.000000
0.000000 0.203616 1.000000
0.000000 0.191034 1.000000
0.000000 0.162192 1.000000
0.563281 0.087430 1.000000
0.995739 0.000000 1.000000
1.000000 0.000000 1.000000
1.000000 0.000000 1.000000
0.000000 0.406674 1.000000
0.000000 0.404755 1.000000
0.000000 0.401294 1.000000
0.000000 0.393836 1.000000
0.000000 0.377687 1.000000
0.502996 0.342668 1.000000
0.947833 0.267873 1.000000
1.000000 0.111705 1.000000
1.000000 0.000000 1.000000
0.000000 0.625494 1.000000
0.000000 0.623899 1.000000
0.000000 0.621038 1.000000
0.000000 0.614938 1.000000
0.000000 0.602003 1.000000
0.366797 0.575016 1.000000
0.850234 0.521349 1.000000
1.000000 0.427965 1.000000
1.000000 0.318130 1.000000
0.000000 0.843752 1.000000
0.000000 0.842347 1.000000
0.000000 0.839834 1.000000
0.000000 0.834502 1.000000
0.000000 0.823304 1.000000
0.000000 0.800304 1.000000
0.672531 0.755360 1.000000
1.000000 0.676902 1.000000
1.000000 0.571478 1.000000
0.000000 1.000000 1.000000
0.000000 1.000000 1.000000
0.000000 1.000000 1.000000
0.000000 1.000000 1.000000
0.000000 0.993968 1.000000
0.000000 0.977185 1.000000
0.415537 0.943939 1.000000
0.858288 0.883503 1.000000
1.000000 0.791744 1.000000
0.000000 1.000000 1.000000
0.000000 1.000000 1.000000
0.000000 1.000000 1.000000
0.000000 1.000000 1.000000
0.000000 1.000000 1.000000
0.000000 1.000000 1.000000
0.236574 1.000000 1.000000
0.621941 1.000000 0.998666
0.954422 0.954422 0.954422
