app/src/main/assets/luts/PixelLog_to_Rec2020_Linear.cube
# PixelLog to Rec.2020 Scene-Linear 3D LUT
# Input: Pixel-Log BT.2020 [0, 1] -> Exact Unclipped Scene-Linear
LUT_3D_SIZE 9
DOMAIN_MIN 0.0 0.0 0.0
DOMAIN_MAX 1.0 1.0 1.0
0.000000 0.000000 0.000000
0.007634 0.000000 0.000000
0.052990 0.000000 0.000000
0.150054 0.000000 0.000000
0.357773 0.000000 0.000000
0.802293 0.000000 0.000000
1.753574 0.000000 0.000000
3.789328 0.000000 0.000000
8.145870 0.000000 0.000000
0.000000 0.007634 0.000000
0.007634 0.007634 0.000000
0.052990 0.007634 0.000000
0.150054 0.007634 0.000000
0.357773 0.007634 0.000000
0.802293 0.007634 0.000000
1.753574 0.007634 0.000000
3.789328 0.007634 0.000000
8.145870 0.007634 0.000000
0.000000 0.052990 0.000000
0.007634 0.052990 0.000000
0.052990 0.052990 0.000000
0.150054 0.052990 0.000000
0.357773 0.052990 0.000000
0.802293 0.052990 0.000000
1.753574 0.052990 0.000000
3.789328 0.052990 0.000000
8.145870 0.052990 0.000000
0.000000 0.150054 0.000000
0.007634 0.150054 0.000000
0.052990 0.150054 0.000000
0.150054 0.150054 0.000000
0.357773 0.150054 0.000000
0.802293 0.150054 0.000000
1.753574 0.150054 0.000000
3.789328 0.150054 0.000000
8.145870 0.150054 0.000000
0.000000 0.357773 0.000000
0.007634 0.357773 0.000000
0.052990 0.357773 0.000000
0.150054 0.357773 0.000000
0.357773 0.357773 0.000000
0.802293 0.357773 0.000000
1.753574 0.357773 0.000000
3.789328 0.357773 0.000000
8.145870 0.357773 0.000000
0.000000 0.802293 0.000000
0.007634 0.802293 0.000000
0.052990 0.802293 0.000000
0.150054 0.802293 0.000000
0.357773 0.802293 0.000000
0.802293 0.802293 0.000000
1.753574 0.802293 0.000000
3.789328 0.802293 0.000000
8.145870 0.802293 0.000000
0.000000 1.753574 0.000000
0.007634 1.753574 0.000000
0.052990 1.753574 0.000000
0.150054 1.753574 0.000000
0.357773 1.753574 0.000000
0.802293 1.753574 0.000000
1.753574 1.753574 0.000000
3.789328 1.753574 0.000000
8.145870 1.753574 0.000000
0.000000 3.789328 0.000000
0.007634 3.789328 0.000000
0.052990 3.789328 0.000000
0.150054 3.789328 0.000000
0.357773 3.789328 0.000000
0.802293 3.789328 0.000000
1.753574 3.789328 0.000000
3.789328 3.789328 0.000000
8.145870 3.789328 0.000000
0.000000 8.145870 0.000000
0.007634 8.145870 0.000000
0.052990 8.145870 0.000000
0.150054 8.145870 0.000000
0.357773 8.145870 0.000000
0.802293 8.145870 0.000000
1.753574 8.145870 0.000000
3.789328 8.145870 0.000000
8.145870 8.145870 0.000000
0.000000 0.000000 0.007634
0.007634 0.000000 0.007634
0.052990 0.000000 0.007634
0.150054 0.000000 0.007634
0.357773 0.000000 0.007634
0.802293 0.000000 0.007634
1.753574 0.000000 0.007634
3.789328 0.000000 0.007634
8.145870 0.000000 0.007634
0.000000 0.007634 0.007634
0.007634 0.007634 0.007634
0.052990 0.007634 0.007634
0.150054 0.007634 0.007634
0.357773 0.007634 0.007634
0.802293 0.007634 0.007634
1.753574 0.007634 0.007634
3.789328 0.007634 0.007634
8.145870 0.007634 0.007634
0.000000 0.052990 0.007634
0.007634 0.052990 0.007634
0.052990 0.052990 0.007634
0.150054 0.052990 0.007634
0.357773 0.052990 0.007634
0.802293 0.052990 0.007634
1.753574 0.052990 0.007634
3.789328 0.052990 0.007634
8.145870 0.052990 0.007634
0.000000 0.150054 0.007634
0.007634 0.150054 0.007634
0.052990 0.150054 0.007634
0.150054 0.150054 0.007634
0.357773 0.150054 0.007634
0.802293 0.150054 0.007634
1.753574 0.150054 0.007634
3.789328 0.150054 0.007634
8.145870 0.150054 0.007634
0.000000 0.357773 0.007634
0.007634 0.357773 0.007634
0.052990 0.357773 0.007634
0.150054 0.357773 0.007634
0.357773 0.357773 0.007634
0.802293 0.357773 0.007634
1.753574 0.357773 0.007634
3.789328 0.357773 0.007634
8.145870 0.357773 0.007634
0.000000 0.802293 0.007634
0.007634 0.802293 0.007634
0.052990 0.802293 0.007634
0.150054 0.802293 0.007634
0.357773 0.802293 0.007634
0.802293 0.802293 0.007634
1.753574 0.802293 0.007634
3.789328 0.802293 0.007634
8.145870 0.802293 0.007634
0.000000 1.753574 0.007634
0.007634 1.753574 0.007634
0.052990 1.753574 0.007634
0.150054 1.753574 0.007634
0.357773 1.753574 0.007634
0.802293 1.753574 0.007634
1.753574 1.753574 0.007634
3.789328 1.753574 0.007634
8.145870 1.753574 0.007634
0.000000 3.789328 0.007634
0.007634 3.789328 0.007634
0.052990 3.789328 0.007634
0.150054 3.789328 0.007634
0.357773 3.789328 0.007634
0.802293 3.789328 0.007634
1.753574 3.789328 0.007634
3.789328 3.789328 0.007634
8.145870 3.789328 0.007634
0.000000 8.145870 0.007634
0.007634 8.145870 0.007634
0.052990 8.145870 0.007634
0.150054 8.145870 0.007634
0.357773 8.145870 0.007634
0.802293 8.145870 0.007634
1.753574 8.145870 0.007634
3.789328 8.145870 0.007634
8.145870 8.145870 0.007634
0.000000 0.000000 0.052990
0.007634 0.000000 0.052990
0.052990 0.000000 0.052990
0.150054 0.000000 0.052990
0.357773 0.000000 0.052990
0.802293 0.000000 0.052990
1.753574 0.000000 0.052990
3.789328 0.000000 0.052990
8.145870 0.000000 0.052990
0.000000 0.007634 0.052990
0.007634 0.007634 0.052990
0.052990 0.007634 0.052990
0.150054 0.007634 0.052990
0.357773 0.007634 0.052990
0.802293 0.007634 0.052990
1.753574 0.007634 0.052990
3.789328 0.007634 0.052990
8.145870 0.007634 0.052990
0.000000 0.052990 0.052990
0.007634 0.052990 0.052990
0.052990 0.052990 0.052990
0.150054 0.052990 0.052990
0.357773 0.052990 0.052990
0.802293 0.052990 0.052990
1.753574 0.052990 0.052990
3.789328 0.052990 0.052990
8.145870 0.052990 0.052990
0.000000 0.150054 0.052990
0.007634 0.150054 0.052990
0.052990 0.150054 0.052990
0.150054 0.150054 0.052990
0.357773 0.150054 0.052990
0.802293 0.150054 0.052990
1.753574 0.150054 0.052990
3.789328 0.150054 0.052990
8.145870 0.150054 0.052990
0.000000 0.357773 0.052990
0.007634 0.357773 0.052990
0.052990 0.357773 0.052990
0.150054 0.357773 0.052990
0.357773 0.357773 0.052990
0.802293 0.357773 0.052990
1.753574 0.357773 0.052990
3.789328 0.357773 0.052990
8.145870 0.357773 0.052990
0.000000 0.802293 0.052990
0.007634 0.802293 0.052990
0.052990 0.802293 0.052990
0.150054 0.802293 0.052990
0.357773 0.802293 0.052990
0.802293 0.802293 0.052990
1.753574 0.802293 0.052990
3.789328 0.802293 0.052990
8.145870 0.802293 0.052990
0.000000 1.753574 0.052990
0.007634 1.753574 0.052990
0.052990 1.753574 0.052990
0.150054 1.753574 0.052990
0.357773 1.753574 0.052990
0.802293 1.753574 0.052990
1.753574 1.753574 0.052990
3.789328 1.753574 0.052990
8.145870 1.753574 0.052990
0.000000 3.789328 0.052990
0.007634 3.789328 0.052990
0.052990 3.789328 0.052990
0.150054 3.789328 0.052990
0.357773 3.789328 0.052990
0.802293 3.789328 0.052990
1.753574 3.789328 0.052990
3.789328 3.789328 0.052990
8.145870 3.789328 0.052990
0.000000 8.145870 0.052990
0.007634 8.145870 0.052990
0.052990 8.145870 0.052990
0.150054 8.145870 0.052990
0.357773 8.145870 0.052990
0.802293 8.145870 0.052990
1.753574 8.145870 0.052990
3.789328 8.145870 0.052990
8.145870 8.145870 0.052990
0.000000 0.000000 0.150054
0.007634 0.000000 0.150054
0.052990 0.000000 0.150054
0.150054 0.000000 0.150054
0.357773 0.000000 0.150054
0.802293 0.000000 0.150054
1.753574 0.000000 0.150054
3.789328 0.000000 0.150054
8.145870 0.000000 0.150054
0.000000 0.007634 0.150054
0.007634 0.007634 0.150054
0.052990 0.007634 0.150054
0.150054 0.007634 0.150054
0.357773 0.007634 0.150054
0.802293 0.007634 0.150054
1.753574 0.007634 0.150054
3.789328 0.007634 0.150054
8.145870 0.007634 0.150054
0.000000 0.052990 0.150054
0.007634 0.052990 0.150054
0.052990 0.052990 0.150054
0.150054 0.052990 0.150054
0.357773 0.052990 0.150054
0.802293 0.052990 0.150054
1.753574 0.052990 0.150054
3.789328 0.052990 0.150054
8.145870 0.052990 0.150054
0.000000 0.150054 0.150054
0.007634 0.150054 0.150054
0.052990 0.150054 0.150054
0.150054 0.150054 0.150054
0.357773 0.150054 0.150054
0.802293 0.150054 0.150054
1.753574 0.150054 0.150054
3.789328 0.150054 0.150054
8.145870 0.150054 0.150054
0.000000 0.357773 0.150054
0.007634 0.357773 0.150054
0.052990 0.357773 0.150054
0.150054 0.357773 0.150054
0.357773 0.357773 0.150054
0.802293 0.357773 0.150054
1.753574 0.357773 0.150054
3.789328 0.357773 0.150054
8.145870 0.357773 0.150054
0.000000 0.802293 0.150054
0.007634 0.802293 0.150054
0.052990 0.802293 0.150054
0.150054 0.802293 0.150054
0.357773 0.802293 0.150054
0.802293 0.802293 0.150054
1.753574 0.802293 0.150054
3.789328 0.802293 0.150054
8.145870 0.802293 0.150054
0.000000 1.753574 0.150054
0.007634 1.753574 0.150054
0.052990 1.753574 0.150054
0.150054 1.753574 0.150054
0.357773 1.753574 0.150054
0.802293 1.753574 0.150054
1.753574 1.753574 0.150054
3.789328 1.753574 0.150054
8.145870 1.753574 0.150054
0.000000 3.789328 0.150054
0.007634 3.789328 0.150054
0.052990 3.789328 0.150054
0.150054 3.789328 0.150054
0.357773 3.789328 0.150054
0.802293 3.789328 0.150054
1.753574 3.789328 0.150054
3.789328 3.789328 0.150054
8.145870 3.789328 0.150054
0.000000 8.145870 0.150054
0.007634 8.145870 0.150054
0.052990 8.145870 0.150054
0.150054 8.145870 0.150054
0.357773 8.145870 0.150054
0.802293 8.145870 0.150054
1.753574 8.145870 0.150054
3.789328 8.145870 0.150054
8.145870 8.145870 0.150054
0.000000 0.000000 0.357773
0.007634 0.000000 0.357773
0.052990 0.000000 0.357773
0.150054 0.000000 0.357773
0.357773 0.000000 0.357773
0.802293 0.000000 0.357773
1.753574 0.000000 0.357773
3.789328 0.000000 0.357773
8.145870 0.000000 0.357773
0.000000 0.007634 0.357773
0.007634 0.007634 0.357773
0.052990 0.007634 0.357773
0.150054 0.007634 0.357773
0.357773 0.007634 0.357773
0.802293 0.007634 0.357773
1.753574 0.007634 0.357773
3.789328 0.007634 0.357773
8.145870 0.007634 0.357773
0.000000 0.052990 0.357773
0.007634 0.052990 0.357773
0.052990 0.052990 0.357773
0.150054 0.052990 0.357773
0.357773 0.052990 0.357773
0.802293 0.052990 0.357773
1.753574 0.052990 0.357773
3.789328 0.052990 0.357773
8.145870 0.052990 0.357773
0.000000 0.150054 0.357773
0.007634 0.150054 0.357773
0.052990 0.150054 0.357773
0.150054 0.150054 0.357773
0.357773 0.150054 0.357773
0.802293 0.150054 0.357773
1.753574 0.150054 0.357773
3.789328 0.150054 0.357773
8.145870 0.150054 0.357773
0.000000 0.357773 0.357773
0.007634 0.357773 0.357773
0.052990 0.357773 0.357773
0.150054 0.357773 0.357773
0.357773 0.357773 0.357773
0.802293 0.357773 0.357773
1.753574 0.357773 0.357773
3.789328 0.357773 0.357773
8.145870 0.357773 0.357773
0.000000 0.802293 0.357773
0.007634 0.802293 0.357773
0.052990 0.802293 0.357773
0.150054 0.802293 0.357773
0.357773 0.802293 0.357773
0.802293 0.802293 0.357773
1.753574 0.802293 0.357773
3.789328 0.802293 0.357773
8.145870 0.802293 0.357773
0.000000 1.753574 0.357773
0.007634 1.753574 0.357773
0.052990 1.753574 0.357773
0.150054 1.753574 0.357773
0.357773 1.753574 0.357773
0.802293 1.753574 0.357773
1.753574 1.753574 0.357773
3.789328 1.753574 0.357773
8.145870 1.753574 0.357773
0.000000 3.789328 0.357773
0.007634 3.789328 0.357773
0.052990 3.789328 0.357773
0.150054 3.789328 0.357773
0.357773 3.789328 0.357773
0.802293 3.789328 0.357773
1.753574 3.789328 0.357773
3.789328 3.789328 0.357773
8.145870 3.789328 0.357773
0.000000 8.145870 0.357773
0.007634 8.145870 0.357773
0.052990 8.145870 0.357773
0.150054 8.145870 0.357773
0.357773 8.145870 0.357773
0.802293 8.145870 0.357773
1.753574 8.145870 0.357773
3.789328 8.145870 0.357773
8.145870 8.145870 0.357773
0.000000 0.000000 0.802293
0.007634 0.000000 0.802293
0.052990 0.000000 0.802293
0.150054 0.000000 0.802293
0.357773 0.000000 0.802293
0.802293 0.000000 0.802293
1.753574 0.000000 0.802293
3.789328 0.000000 0.802293
8.145870 0.000000 0.802293
0.000000 0.007634 0.802293
0.007634 0.007634 0.802293
0.052990 0.007634 0.802293
0.150054 0.007634 0.802293
0.357773 0.007634 0.802293
0.802293 0.007634 0.802293
1.753574 0.007634 0.802293
3.789328 0.007634 0.802293
8.145870 0.007634 0.802293
0.000000 0.052990 0.802293
0.007634 0.052990 0.802293
0.052990 0.052990 0.802293
0.150054 0.052990 0.802293
0.357773 0.052990 0.802293
0.802293 0.052990 0.802293
1.753574 0.052990 0.802293
3.789328 0.052990 0.802293
8.145870 0.052990 0.802293
0.000000 0.150054 0.802293
0.007634 0.150054 0.802293
0.052990 0.150054 0.802293
0.150054 0.150054 0.802293
0.357773 0.150054 0.802293
0.802293 0.150054 0.802293
1.753574 0.150054 0.802293
3.789328 0.150054 0.802293
8.145870 0.150054 0.802293
0.000000 0.357773 0.802293
0.007634 0.357773 0.802293
0.052990 0.357773 0.802293
0.150054 0.357773 0.802293
0.357773 0.357773 0.802293
0.802293 0.357773 0.802293
1.753574 0.357773 0.802293
3.789328 0.357773 0.802293
8.145870 0.357773 0.802293
0.000000 0.802293 0.802293
0.007634 0.802293 0.802293
0.052990 0.802293 0.802293
0.150054 0.802293 0.802293
0.357773 0.802293 0.802293
0.802293 0.802293 0.802293
1.753574 0.802293 0.802293
3.789328 0.802293 0.802293
8.145870 0.802293 0.802293
0.000000 1.753574 0.802293
0.007634 1.753574 0.802293
0.052990 1.753574 0.802293
0.150054 1.753574 0.802293
0.357773 1.753574 0.802293
0.802293 1.753574 0.802293
1.753574 1.753574 0.802293
3.789328 1.753574 0.802293
8.145870 1.753574 0.802293
0.000000 3.789328 0.802293
0.007634 3.789328 0.802293
0.052990 3.789328 0.802293
0.150054 3.789328 0.802293
0.357773 3.789328 0.802293
0.802293 3.789328 0.802293
1.753574 3.789328 0.802293
3.789328 3.789328 0.802293
8.145870 3.789328 0.802293
0.000000 8.145870 0.802293
0.007634 8.145870 0.802293
0.052990 8.145870 0.802293
0.150054 8.145870 0.802293
0.357773 8.145870 0.802293
0.802293 8.145870 0.802293
1.753574 8.145870 0.802293
3.789328 8.145870 0.802293
8.145870 8.145870 0.802293
0.000000 0.000000 1.753574
0.007634 0.000000 1.753574
0.052990 0.000000 1.753574
0.150054 0.000000 1.753574
0.357773 0.000000 1.753574
0.802293 0.000000 1.753574
1.753574 0.000000 1.753574
3.789328 0.000000 1.753574
8.145870 0.000000 1.753574
0.000000 0.007634 1.753574
0.007634 0.007634 1.753574
0.052990 0.007634 1.753574
0.150054 0.007634 1.753574
0.357773 0.007634 1.753574
0.802293 0.007634 1.753574
1.753574 0.007634 1.753574
3.789328 0.007634 1.753574
8.145870 0.007634 1.753574
0.000000 0.052990 1.753574
0.007634 0.052990 1.753574
0.052990 0.052990 1.753574
0.150054 0.052990 1.753574
0.357773 0.052990 1.753574
0.802293 0.052990 1.753574
1.753574 0.052990 1.753574
3.789328 0.052990 1.753574
8.145870 0.052990 1.753574
0.000000 0.150054 1.753574
0.007634 0.150054 1.753574
0.052990 0.150054 1.753574
0.150054 0.150054 1.753574
0.357773 0.150054 1.753574
0.802293 0.150054 1.753574
1.753574 0.150054 1.753574
3.789328 0.150054 1.753574
8.145870 0.150054 1.753574
0.000000 0.357773 1.753574
0.007634 0.357773 1.753574
0.052990 0.357773 1.753574
0.150054 0.357773 1.753574
0.357773 0.357773 1.753574
0.802293 0.357773 1.753574
1.753574 0.357773 1.753574
3.789328 0.357773 1.753574
8.145870 0.357773 1.753574
0.000000 0.802293 1.753574
0.007634 0.802293 1.753574
0.052990 0.802293 1.753574
0.150054 0.802293 1.753574
0.357773 0.802293 1.753574
0.802293 0.802293 1.753574
1.753574 0.802293 1.753574
3.789328 0.802293 1.753574
8.145870 0.802293 1.753574
0.000000 1.753574 1.753574
0.007634 1.753574 1.753574
0.052990 1.753574 1.753574
0.150054 1.753574 1.753574
0.357773 1.753574 1.753574
0.802293 1.753574 1.753574
1.753574 1.753574 1.753574
3.789328 1.753574 1.753574
8.145870 1.753574 1.753574
0.000000 3.789328 1.753574
0.007634 3.789328 1.753574
0.052990 3.789328 1.753574
0.150054 3.789328 1.753574
0.357773 3.789328 1.753574
0.802293 3.789328 1.753574
1.753574 3.789328 1.753574
3.789328 3.789328 1.753574
8.145870 3.789328 1.753574
0.000000 8.145870 1.753574
0.007634 8.145870 1.753574
0.052990 8.145870 1.753574
0.150054 8.145870 1.753574
0.357773 8.145870 1.753574
0.802293 8.145870 1.753574
1.753574 8.145870 1.753574
3.789328 8.145870 1.753574
8.145870 8.145870 1.753574
0.000000 0.000000 3.789328
0.007634 0.000000 3.789328
0.052990 0.000000 3.789328
0.150054 0.000000 3.789328
0.357773 0.000000 3.789328
0.802293 0.000000 3.789328
1.753574 0.000000 3.789328
3.789328 0.000000 3.789328
8.145870 0.000000 3.789328
0.000000 0.007634 3.789328
0.007634 0.007634 3.789328
0.052990 0.007634 3.789328
0.150054 0.007634 3.789328
0.357773 0.007634 3.789328
0.802293 0.007634 3.789328
1.753574 0.007634 3.789328
3.789328 0.007634 3.789328
8.145870 0.007634 3.789328
0.000000 0.052990 3.789328
0.007634 0.052990 3.789328
0.052990 0.052990 3.789328
0.150054 0.052990 3.789328
0.357773 0.052990 3.789328
0.802293 0.052990 3.789328
1.753574 0.052990 3.789328
3.789328 0.052990 3.789328
8.145870 0.052990 3.789328
0.000000 0.150054 3.789328
0.007634 0.150054 3.789328
0.052990 0.150054 3.789328
0.150054 0.150054 3.789328
0.357773 0.150054 3.789328
0.802293 0.150054 3.789328
1.753574 0.150054 3.789328
3.789328 0.150054 3.789328
8.145870 0.150054 3.789328
0.000000 0.357773 3.789328
0.007634 0.357773 3.789328
0.052990 0.357773 3.789328
0.150054 0.357773 3.789328
0.357773 0.357773 3.789328
0.802293 0.357773 3.789328
1.753574 0.357773 3.789328
3.789328 0.357773 3.789328
8.145870 0.357773 3.789328
0.000000 0.802293 3.789328
0.007634 0.802293 3.789328
0.052990 0.802293 3.789328
0.150054 0.802293 3.789328
0.357773 0.802293 3.789328
0.802293 0.802293 3.789328
1.753574 0.802293 3.789328
3.789328 0.802293 3.789328
8.145870 0.802293 3.789328
0.000000 1.753574 3.789328
0.007634 1.753574 3.789328
0.052990 1.753574 3.789328
0.150054 1.753574 3.789328
0.357773 1.753574 3.789328
0.802293 1.753574 3.789328
1.753574 1.753574 3.789328
3.789328 1.753574 3.789328
8.145870 1.753574 3.789328
0.000000 3.789328 3.789328
0.007634 3.789328 3.789328
0.052990 3.789328 3.789328
0.150054 3.789328 3.789328
0.357773 3.789328 3.789328
0.802293 3.789328 3.789328
1.753574 3.789328 3.789328
3.789328 3.789328 3.789328
8.145870 3.789328 3.789328
0.000000 8.145870 3.789328
0.007634 8.145870 3.789328
0.052990 8.145870 3.789328
0.150054 8.145870 3.789328
0.357773 8.145870 3.789328
0.802293 8.145870 3.789328
1.753574 8.145870 3.789328
3.789328 8.145870 3.789328
8.145870 8.145870 3.789328
0.000000 0.000000 8.145870
0.007634 0.000000 8.145870
0.052990 0.000000 8.145870
0.150054 0.000000 8.145870
0.357773 0.000000 8.145870
0.802293 0.000000 8.145870
1.753574 0.000000 8.145870
3.789328 0.000000 8.145870
8.145870 0.000000 8.145870
0.000000 0.007634 8.145870
0.007634 0.007634 8.145870
0.052990 0.007634 8.145870
0.150054 0.007634 8.145870
0.357773 0.007634 8.145870
0.802293 0.007634 8.145870
1.753574 0.007634 8.145870
3.789328 0.007634 8.145870
8.145870 0.007634 8.145870
0.000000 0.052990 8.145870
0.007634 0.052990 8.145870
0.052990 0.052990 8.145870
0.150054 0.052990 8.145870
0.357773 0.052990 8.145870
0.802293 0.052990 8.145870
1.753574 0.052990 8.145870
3.789328 0.052990 8.145870
8.145870 0.052990 8.145870
0.000000 0.150054 8.145870
0.007634 0.150054 8.145870
0.052990 0.150054 8.145870
0.150054 0.150054 8.145870
0.357773 0.150054 8.145870
0.802293 0.150054 8.145870
1.753574 0.150054 8.145870
3.789328 0.150054 8.145870
8.145870 0.150054 8.145870
0.000000 0.357773 8.145870
0.007634 0.357773 8.145870
0.052990 0.357773 8.145870
0.150054 0.357773 8.145870
0.357773 0.357773 8.145870
0.802293 0.357773 8.145870
1.753574 0.357773 8.145870
3.789328 0.357773 8.145870
8.145870 0.357773 8.145870
0.000000 0.802293 8.145870
0.007634 0.802293 8.145870
0.052990 0.802293 8.145870
0.150054 0.802293 8.145870
0.357773 0.802293 8.145870
0.802293 0.802293 8.145870
1.753574 0.802293 8.145870
3.789328 0.802293 8.145870
8.145870 0.802293 8.145870
0.000000 1.753574 8.145870
0.007634 1.753574 8.145870
0.052990 1.753574 8.145870
0.150054 1.753574 8.145870
0.357773 1.753574 8.145870
0.802293 1.753574 8.145870
1.753574 1.753574 8.145870
3.789328 1.753574 8.145870
8.145870 1.753574 8.145870
0.000000 3.789328 8.145870
0.007634 3.789328 8.145870
0.052990 3.789328 8.145870
0.150054 3.789328 8.145870
0.357773 3.789328 8.145870
0.802293 3.789328 8.145870
1.753574 3.789328 8.145870
3.789328 3.789328 8.145870
8.145870 3.789328 8.145870
0.000000 8.145870 8.145870
0.007634 8.145870 8.145870
0.052990 8.145870 8.145870
0.150054 8.145870 8.145870
0.357773 8.145870 8.145870
0.802293 8.145870 8.145870
1.753574 8.145870 8.145870
3.789328 8.145870 8.145870
8.145870 8.145870 8.145870
