app/src/main/assets/luts/PixelLog_to_Rec2020_Linear.cube
# PixelLog to Rec.2020 Scene-Linear 3D LUT
# Input: Pixel-Log BT.2020 [0, 1] -> Exact Unclipped Scene-Linear
LUT_3D_SIZE 5
DOMAIN_MIN 0.0 0.0 0.0
DOMAIN_MAX 1.0 1.0 1.0
0.000000 0.000000 0.000000
0.052990 0.000000 0.000000
0.357773 0.000000 0.000000
1.753574 0.000000 0.000000
8.145870 0.000000 0.000000
0.000000 0.052990 0.000000
0.052990 0.052990 0.000000
0.357773 0.052990 0.000000
1.753574 0.052990 0.000000
8.145870 0.052990 0.000000
0.000000 0.357773 0.000000
0.052990 0.357773 0.000000
0.357773 0.357773 0.000000
1.753574 0.357773 0.000000
8.145870 0.357773 0.000000
0.000000 1.753574 0.000000
0.052990 1.753574 0.000000
0.357773 1.753574 0.000000
1.753574 1.753574 0.000000
8.145870 1.753574 0.000000
0.000000 8.145870 0.000000
0.052990 8.145870 0.000000
0.357773 8.145870 0.000000
1.753574 8.145870 0.000000
8.145870 8.145870 0.000000
0.000000 0.000000 0.052990
0.052990 0.000000 0.052990
0.357773 0.000000 0.052990
1.753574 0.000000 0.052990
8.145870 0.000000 0.052990
0.000000 0.052990 0.052990
0.052990 0.052990 0.052990
0.357773 0.052990 0.052990
1.753574 0.052990 0.052990
8.145870 0.052990 0.052990
0.000000 0.357773 0.052990
0.052990 0.357773 0.052990
0.357773 0.357773 0.052990
1.753574 0.357773 0.052990
8.145870 0.357773 0.052990
0.000000 1.753574 0.052990
0.052990 1.753574 0.052990
0.357773 1.753574 0.052990
1.753574 1.753574 0.052990
8.145870 1.753574 0.052990
0.000000 8.145870 0.052990
0.052990 8.145870 0.052990
0.357773 8.145870 0.052990
1.753574 8.145870 0.052990
8.145870 8.145870 0.052990
0.000000 0.000000 0.357773
0.052990 0.000000 0.357773
0.357773 0.000000 0.357773
1.753574 0.000000 0.357773
8.145870 0.000000 0.357773
0.000000 0.052990 0.357773
0.052990 0.052990 0.357773
0.357773 0.052990 0.357773
1.753574 0.052990 0.357773
8.145870 0.052990 0.357773
0.000000 0.357773 0.357773
0.052990 0.357773 0.357773
0.357773 0.357773 0.357773
1.753574 0.357773 0.357773
8.145870 0.357773 0.357773
0.000000 1.753574 0.357773
0.052990 1.753574 0.357773
0.357773 1.753574 0.357773
1.753574 1.753574 0.357773
8.145870 1.753574 0.357773
0.000000 8.145870 0.357773
0.052990 8.145870 0.357773
0.357773 8.145870 0.357773
1.753574 8.145870 0.357773
8.145870 8.145870 0.357773
0.000000 0.000000 1.753574
0.052990 0.000000 1.753574
0.357773 0.000000 1.753574
1.753574 0.000000 1.753574
8.145870 0.000000 1.753574
0.000000 0.052990 1.753574
0.052990 0.052990 1.753574
0.357773 0.052990 1.753574
1.753574 0.052990 1.753574
8.145870 0.052990 1.753574
0.000000 0.357773 1.753574
0.052990 0.357773 1.753574
0.357773 0.357773 1.753574
1.753574 0.357773 1.753574
8.145870 0.357773 1.753574
0.000000 1.753574 1.753574
0.052990 1.753574 1.753574
0.357773 1.753574 1.753574
1.753574 1.753574 1.753574
8.145870 1.753574 1.753574
0.000000 8.145870 1.753574
0.052990 8.145870 1.753574
0.357773 8.145870 1.753574
1.753574 8.145870 1.753574
8.145870 8.145870 1.753574
0.000000 0.000000 8.145870
0.052990 0.000000 8.145870
0.357773 0.000000 8.145870
1.753574 0.000000 8.145870
8.145870 0.000000 8.145870
0.000000 0.052990 8.145870
0.052990 0.052990 8.145870
0.357773 0.052990 8.145870
1.753574 0.052990 8.145870
8.145870 0.052990 8.145870
0.000000 0.357773 8.145870
0.052990 0.357773 8.145870
0.357773 0.357773 8.145870
1.753574 0.357773 8.145870
8.145870 0.357773 8.145870
0.000000 1.753574 8.145870
0.052990 1.753574 8.145870
0.357773 1.753574 8.145870
1.753574 1.753574 8.145870
8.145870 1.753574 8.145870
0.000000 8.145870 8.145870
0.052990 8.145870 8.145870
0.357773 8.145870 8.145870
1.753574 8.145870 8.145870
8.145870 8.145870 8.145870
