post_production/LogToLinear_1D.cube
# PixelLog 1D Log-to-Linear De-Log LUT
# Curve: Pixel-Log C1 log2 + linear toe
# Input: [0.0, 1.0] Log Code | Output: Scene-Linear x / xmax (xmax = 8.145870)
# Middle Grey (y=0.40) -> x/xmax = 0.022097
LUT_1D_SIZE 4096
DOMAIN_MIN 0.0
DOMAIN_MAX 1.0

-0.0021622
-0.0021563
-0.0021504
-0.0021446
-0.0021387
-0.0021328
-0.0021270
-0.0021211
-0.0021152
-0.0021094
-0.0021035
-0.0020976
-0.0020918
-0.0020859
-0.0020800
-0.0020742
-0.0020683
-0.0020624
-0.0020566
-0.0020507
-0.0020448
-0.0020390
-0.0020331
-0.0020272
-0.0020214
-0.0020155
-0.0020096
-0.0020038
-0.0019979
-0.0019920
-0.0019862
-0.0019803
-0.0019744
-0.0019686
-0.0019627
-0.0019568
-0.0019510
-0.0019451
-0.0019392
-0.0019334
-0.0019275
-0.0019216
-0.0019158
-0.0019099
-0.0019040
-0.0018982
-0.0018923
-0.0018864
-0.0018806
-0.0018747
-0.0018688
-0.0018630
-0.0018571
-0.0018512
-0.0018454
-0.0018395
-0.0018336
-0.0018278
-0.0018219
-0.0018160
-0.0018102
-0.0018043
-0.0017984
-0.0017926
-0.0017867
-0.0017808
-0.0017750
-0.0017691
-0.0017632
-0.0017574
-0.0017515
-0.0017456
-0.0017398
-0.0017339
-0.0017280
-0.0017222
-0.0017163
-0.0017104
-0.0017046
-0.0016987
-0.0016928
-0.0016870
-0.0016811
-0.0016752
-0.0016694
-0.0016635
-0.0016576
-0.0016518
-0.0016459
-0.0016400
-0.0016342
-0.0016283
-0.0016224
-0.0016166
-0.0016107
-0.0016048
-0.0015990
-0.0015931
-0.0015872
-0.0015814
-0.0015755
-0.0015696
-0.0015638
-0.0015579
-0.0015520
-0.0015462
-0.0015403
-0.0015344
-0.0015286
-0.0015227
-0.0015168
-0.0015110
-0.0015051
-0.0014992
-0.0014934
-0.0014875
-0.0014816
-0.0014758
-0.0014699
-0.0014640
-0.0014582
-0.0014523
-0.0014464
-0.0014406
-0.0014347
-0.0014288
-0.0014230
-0.0014171
-0.0014112
-0.0014054
-0.0013995
-0.0013936
-0.0013878
-0.0013819
-0.0013760
-0.0013702
-0.0013643
-0.0013584
-0.0013526
-0.0013467
-0.0013408
-0.0013350
-0.0013291
-0.0013232
-0.0013174
-0.0013115
-0.0013056
-0.0012998
-0.0012939
-0.0012880
-0.0012822
-0.0012763
-0.0012704
-0.0012646
-0.0012587
-0.0012528
-0.0012470
-0.0012411
-0.0012352
-0.0012294
-0.0012235
-0.0012176
-0.0012118
-0.0012059
-0.0012000
-0.0011942
-0.0011883
-0.0011824
-0.0011766
-0.0011707
-0.0011648
-0.0011590
-0.0011531
-0.0011472
-0.0011414
-0.0011355
-0.0011296
-0.0011238
-0.0011179
-0.0011120
-0.0011062
-0.0011003
-0.0010944
-0.0010886
-0.0010827
-0.0010768
-0.0010710
-0.0010651
-0.0010592
-0.0010534
-0.0010475
-0.0010416
-0.0010358
-0.0010299
-0.0010240
-0.0010182
-0.0010123
-0.0010064
-0.0010006
-0.0009947
-0.0009888
-0.0009830
-0.0009771
-0.0009712
-0.0009654
-0.0009595
-0.0009536
-0.0009478
-0.0009419
-0.0009360
-0.0009302
-0.0009243
-0.0009184
-0.0009126
-0.0009067
-0.0009008
-0.0008950
-0.0008891
-0.0008832
-0.0008774
-0.0008715
-0.0008656
-0.0008598
-0.0008539
-0.0008480
-0.0008422
-0.0008363
-0.0008304
-0.0008246
-0.0008187
-0.0008128
-0.0008070
-0.0008011
-0.0007952
-0.0007894
-0.0007835
-0.0007776
-0.0007718
-0.0007659
-0.0007600
-0.0007542
-0.0007483
-0.0007424
-0.0007366
-0.0007307
-0.0007248
-0.0007190
-0.0007131
-0.0007072
-0.0007014
-0.0006955
-0.0006896
-0.0006838
-0.0006779
-0.0006720
-0.0006662
-0.0006603
-0.0006544
-0.0006486
-0.0006427
-0.0006368
-0.0006310
-0.0006251
-0.0006192
-0.0006134
-0.0006075
-0.0006016
-0.0005958
-0.0005899
-0.0005840
-0.0005782
-0.0005723
-0.0005664
-0.0005606
-0.0005547
-0.0005488
-0.0005430
-0.0005371
-0.0005312
-0.0005254
-0.0005195
-0.0005136
-0.0005078
-0.0005019
-0.0004960
-0.0004902
-0.0004843
-0.0004784
-0.0004726
-0.0004667
-0.0004608
-0.0004550
-0.0004491
-0.0004432
-0.0004374
-0.0004315
-0.0004256
-0.0004198
-0.0004139
-0.0004080
-0.0004022
-0.0003963
-0.0003904
-0.0003846
-0.0003787
-0.0003728
-0.0003670
-0.0003611
-0.0003552
-0.0003494
-0.0003435
-0.0003376
-0.0003318
-0.0003259
-0.0003200
-0.0003142
-0.0003083
-0.0003024
-0.0002966
-0.0002907
-0.0002848
-0.0002790
-0.0002731
-0.0002672
-0.0002614
-0.0002555
-0.0002496
-0.0002438
-0.0002379
-0.0002320
-0.0002262
-0.0002203
-0.0002144
-0.0002086
-0.0002027
-0.0001968
-0.0001910
-0.0001851
-0.0001792
-0.0001734
-0.0001675
-0.0001616
-0.0001558
-0.0001499
-0.0001440
-0.0001382
-0.0001323
-0.0001264
-0.0001206
-0.0001147
-0.0001088
-0.0001030
-0.0000971
-0.0000912
-0.0000854
-0.0000795
-0.0000736
-0.0000678
-0.0000619
-0.0000560
-0.0000502
-0.0000443
-0.0000384
-0.0000326
-0.0000267
-0.0000208
-0.0000150
-0.0000091
-0.0000032
0.0000026
0.0000085
0.0000144
0.0000203
0.0000262
0.0000321
0.0000380
0.0000439
0.0000499
0.0000558
0.0000618
0.0000677
0.0000737
0.0000797
0.0000857
0.0000917
0.0000977
0.0001037
0.0001097
0.0001158
0.0001218
0.0001279
0.0001339
0.0001400
0.0001461
0.0001522
0.0001583
0.0001644
0.0001705
0.0001766
0.0001827
0.0001889
0.0001950
0.0002012
0.0002074
0.0002135
0.0002197
0.0002259
0.0002321
0.0002384
0.0002446
0.0002508
0.0002571
0.0002633
0.0002696
0.0002759
0.0002821
0.0002884
0.0002947
0.0003010
0.0003074
0.0003137
0.0003200
0.0003264
0.0003327
0.0003391
0.0003455
0.0003518
0.0003582
0.0003646
0.0003711
0.0003775
0.0003839
0.0003904
0.0003968
0.0004033
0.0004097
0.0004162
0.0004227
0.0004292
0.0004357
0.0004422
0.0004488
0.0004553
0.0004619
0.0004684
0.0004750
0.0004816
0.0004881
0.0004947
0.0005014
0.0005080
0.0005146
0.0005212
0.0005279
0.0005345
0.0005412
0.0005479
0.0005546
0.0005613
0.0005680
0.0005747
0.0005814
0.0005881
0.0005949
0.0006016
0.0006084
0.0006152
0.0006220
0.0006288
0.0006356
0.0006424
0.0006492
0.0006561
0.0006629
0.0006698
0.0006766
0.0006835
0.0006904
0.0006973
0.0007042
0.0007111
0.0007180
0.0007250
0.0007319
0.0007389
0.0007459
0.0007528
0.0007598
0.0007668
0.0007738
0.0007809
0.0007879
0.0007949
0.0008020
0.0008091
0.0008161
0.0008232
0.0008303
0.0008374
0.0008445
0.0008517
0.0008588
0.0008659
0.0008731
0.0008803
0.0008875
0.0008946
0.0009019
0.0009091
0.0009163
0.0009235
0.0009308
0.0009380
0.0009453
0.0009526
0.0009599
0.0009672
0.0009745
0.0009818
0.0009891
0.0009965
0.0010038
0.0010112
0.0010185
0.0010259
0.0010333
0.0010407
0.0010482
0.0010556
0.0010630
0.0010705
0.0010779
0.0010854
0.0010929
0.0011004
0.0011079
0.0011154
0.0011230
0.0011305
0.0011381
0.0011456
0.0011532
0.0011608
0.0011684
0.0011760
0.0011836
0.0011912
0.0011989
0.0012065
0.0012142
0.0012219
0.0012296
0.0012373
0.0012450
0.0012527
0.0012604
0.0012682
0.0012759
0.0012837
0.0012915
0.0012993
0.0013071
0.0013149
0.0013227
0.0013306
0.0013384
0.0013463
0.0013541
0.0013620
0.0013699
0.0013778
0.0013858
0.0013937
0.0014016
0.0014096
0.0014176
0.0014255
0.0014335
0.0014415
0.0014495
0.0014576
0.0014656
0.0014737
0.0014817
0.0014898
0.0014979
0.0015060
0.0015141
0.0015222
0.0015304
0.0015385
0.0015467
0.0015548
0.0015630
0.0015712
0.0015794
0.0015876
0.0015959
0.0016041
0.0016124
0.0016206
0.0016289
0.0016372
0.0016455
0.0016538
0.0016622
0.0016705
0.0016789
0.0016872
0.0016956
0.0017040
0.0017124
0.0017208
0.0017293
0.0017377
0.0017462
0.0017546
0.0017631
0.0017716
0.0017801
0.0017886
0.0017972
0.0018057
0.0018143
0.0018228
0.0018314
0.0018400
0.0018486
0.0018572
0.0018659
0.0018745
0.0018832
0.0018919
0.0019005
0.0019092
0.0019180
0.0019267
0.0019354
0.0019442
0.0019529
0.0019617
0.0019705
0.0019793
0.0019881
0.0019969
0.0020058
0.0020146
0.0020235
0.0020324
0.0020413
0.0020502
0.0020591
0.0020680
0.0020770
0.0020859
0.0020949
0.0021039
0.0021129
0.0021219
0.0021309
0.0021400
0.0021490
0.0021581
0.0021672
0.0021763
0.0021854
0.0021945
0.0022037
0.0022128
0.0022220
0.0022311
0.0022403
0.0022495
0.0022587
0.0022680
0.0022772
0.0022865
0.0022958
0.0023050
0.0023143
0.0023237
0.0023330
0.0023423
0.0023517
0.0023610
0.0023704
0.0023798
0.0023892
0.0023987
0.0024081
0.0024176
0.0024270
0.0024365
0.0024460
0.0024555
0.0024650
0.0024746
0.0024841
0.0024937
0.0025033
0.0025129
0.0025225
0.0025321
0.0025417
0.0025514
0.0025610
0.0025707
0.0025804
0.0025901
0.0025999
0.0026096
0.0026193
0.0026291
0.0026389
0.0026487
0.0026585
0.0026683
0.0026782
0.0026880
0.0026979
0.0027078
0.0027177
0.0027276
0.0027375
0.0027475
0.0027574
0.0027674
0.0027774
0.0027874
0.0027974
0.0028074
0.0028175
0.0028275
0.0028376
0.0028477
0.0028578
0.0028679
0.0028781
0.0028882
0.0028984
0.0029086
0.0029188
0.0029290
0.0029392
0.0029494
0.0029597
0.0029700
0.0029803
0.0029906
0.0030009
0.0030112
0.0030216
0.0030319
0.0030423
0.0030527
0.0030631
0.0030736
0.0030840
0.0030945
0.0031049
0.0031154
0.0031259
0.0031364
0.0031470
0.0031575
0.0031681
0.0031787
0.0031893
0.0031999
0.0032105
0.0032212
0.0032318
0.0032425
0.0032532
0.0032639
0.0032746
0.0032854
0.0032961
0.0033069
0.0033177
0.0033285
0.0033393
0.0033502
0.0033610
0.0033719
0.0033828
0.0033937
0.0034046
0.0034155
0.0034265
0.0034375
0.0034484
0.0034594
0.0034705
0.0034815
0.0034925
0.0035036
0.0035147
0.0035258
0.0035369
0.0035480
0.0035592
0.0035704
0.0035815
0.0035927
0.0036040
0.0036152
0.0036264
0.0036377
0.0036490
0.0036603
0.0036716
0.0036829
0.0036943
0.0037056
0.0037170
0.0037284
0.0037398
0.0037513
0.0037627
0.0037742
0.0037857
0.0037972
0.0038087
0.0038202
0.0038318
0.0038434
0.0038549
0.0038665
0.0038782
0.0038898
0.0039015
0.0039131
0.0039248
0.0039365
0.0039483
0.0039600
0.0039718
0.0039836
0.0039953
0.0040072
0.0040190
0.0040308
0.0040427
0.0040546
0.0040665
0.0040784
0.0040904
0.0041023
0.0041143
0.0041263
0.0041383
0.0041503
0.0041624
0.0041744
0.0041865
0.0041986
0.0042107
0.0042228
0.0042350
0.0042472
0.0042594
0.0042716
0.0042838
0.0042960
0.0043083
0.0043206
0.0043329
0.0043452
0.0043575
0.0043699
0.0043822
0.0043946
0.0044070
0.0044195
0.0044319
0.0044444
0.0044569
0.0044694
0.0044819
0.0044944
0.0045070
0.0045195
0.0045321
0.0045447
0.0045574
0.0045700
0.0045827
0.0045954
0.0046081
0.0046208
0.0046336
0.0046463
0.0046591
0.0046719
0.0046847
0.0046976
0.0047104
0.0047233
0.0047362
0.0047491
0.0047620
0.0047750
0.0047880
0.0048010
0.0048140
0.0048270
0.0048401
0.0048531
0.0048662
0.0048793
0.0048925
0.0049056
0.0049188
0.0049320
0.0049452
0.0049584
0.0049716
0.0049849
0.0049982
0.0050115
0.0050248
0.0050382
0.0050515
0.0050649
0.0050783
0.0050917
0.0051052
0.0051187
0.0051321
0.0051456
0.0051592
0.0051727
0.0051863
0.0051999
0.0052135
0.0052271
0.0052407
0.0052544
0.0052681
0.0052818
0.0052955
0.0053093
0.0053230
0.0053368
0.0053506
0.0053645
0.0053783
0.0053922
0.0054061
0.0054200
0.0054339
0.0054479
0.0054619
0.0054759
0.0054899
0.0055039
0.0055180
0.0055320
0.0055461
0.0055603
0.0055744
0.0055886
0.0056028
0.0056170
0.0056312
0.0056454
0.0056597
0.0056740
0.0056883
0.0057026
0.0057170
0.0057314
0.0057458
0.0057602
0.0057746
0.0057891
0.0058036
0.0058181
0.0058326
0.0058471
0.0058617
0.0058763
0.0058909
0.0059055
0.0059202
0.0059349
0.0059496
0.0059643
0.0059790
0.0059938
0.0060086
0.0060234
0.0060382
0.0060531
0.0060679
0.0060828
0.0060978
0.0061127
0.0061277
0.0061426
0.0061577
0.0061727
0.0061877
0.0062028
0.0062179
0.0062330
0.0062482
0.0062633
0.0062785
0.0062937
0.0063090
0.0063242
0.0063395
0.0063548
0.0063701
0.0063855
0.0064008
0.0064162
0.0064316
0.0064471
0.0064625
0.0064780
0.0064935
0.0065091
0.0065246
0.0065402
0.0065558
0.0065714
0.0065871
0.0066027
0.0066184
0.0066341
0.0066499
0.0066656
0.0066814
0.0066972
0.0067131
0.0067289
0.0067448
0.0067607
0.0067766
0.0067926
0.0068086
0.0068246
0.0068406
0.0068566
0.0068727
0.0068888
0.0069049
0.0069210
0.0069372
0.0069534
0.0069696
0.0069859
0.0070021
0.0070184
0.0070347
0.0070510
0.0070674
0.0070838
0.0071002
0.0071166
0.0071331
0.0071496
0.0071661
0.0071826
0.0071992
0.0072157
0.0072323
0.0072490
0.0072656
0.0072823
0.0072990
0.0073157
0.0073325
0.0073493
0.0073661
0.0073829
0.0073997
0.0074166
0.0074335
0.0074504
0.0074674
0.0074844
0.0075014
0.0075184
0.0075355
0.0075525
0.0075697
0.0075868
0.0076039
0.0076211
0.0076383
0.0076556
0.0076728
0.0076901
0.0077074
0.0077247
0.0077421
0.0077595
0.0077769
0.0077943
0.0078118
0.0078293
0.0078468
0.0078644
0.0078819
0.0078995
0.0079171
0.0079348
0.0079525
0.0079702
0.0079879
0.0080056
0.0080234
0.0080412
0.0080591
0.0080769
0.0080948
0.0081127
0.0081307
0.0081486
0.0081666
0.0081846
0.0082027
0.0082207
0.0082388
0.0082570
0.0082751
0.0082933
0.0083115
0.0083297
0.0083480
0.0083663
0.0083846
0.0084029
0.0084213
0.0084397
0.0084581
0.0084766
0.0084951
0.0085136
0.0085321
0.0085507
0.0085693
0.0085879
0.0086065
0.0086252
0.0086439
0.0086626
0.0086814
0.0087002
0.0087190
0.0087378
0.0087567
0.0087756
0.0087945
0.0088135
0.0088324
0.0088514
0.0088705
0.0088895
0.0089086
0.0089278
0.0089469
0.0089661
0.0089853
0.0090045
0.0090238
0.0090431
0.0090624
0.0090818
0.0091011
0.0091206
0.0091400
0.0091595
0.0091790
0.0091985
0.0092180
0.0092376
0.0092572
0.0092769
0.0092965
0.0093162
0.0093360
0.0093557
0.0093755
0.0093953
0.0094152
0.0094350
0.0094549
0.0094749
0.0094948
0.0095148
0.0095349
0.0095549
0.0095750
0.0095951
0.0096153
0.0096354
0.0096556
0.0096759
0.0096961
0.0097164
0.0097367
0.0097571
0.0097775
0.0097979
0.0098183
0.0098388
0.0098593
0.0098799
0.0099004
0.0099210
0.0099417
0.0099623
0.0099830
0.0100037
0.0100245
0.0100453
0.0100661
0.0100869
0.0101078
0.0101287
0.0101496
0.0101706
0.0101916
0.0102126
0.0102337
0.0102548
0.0102759
0.0102971
0.0103182
0.0103395
0.0103607
0.0103820
0.0104033
0.0104247
0.0104460
0.0104674
0.0104889
0.0105104
0.0105319
0.0105534
0.0105750
0.0105966
0.0106182
0.0106399
0.0106616
0.0106833
0.0107051
0.0107268
0.0107487
0.0107705
0.0107924
0.0108143
0.0108363
0.0108583
0.0108803
0.0109024
0.0109245
0.0109466
0.0109687
0.0109909
0.0110131
0.0110354
0.0110577
0.0110800
0.0111023
0.0111247
0.0111471
0.0111696
0.0111921
0.0112146
0.0112372
0.0112597
0.0112824
0.0113050
0.0113277
0.0113504
0.0113732
0.0113960
0.0114188
0.0114416
0.0114645
0.0114874
0.0115104
0.0115334
0.0115564
0.0115795
0.0116026
0.0116257
0.0116489
0.0116721
0.0116953
0.0117186
0.0117419
0.0117652
0.0117886
0.0118120
0.0118354
0.0118589
0.0118824
0.0119060
0.0119295
0.0119532
0.0119768
0.0120005
0.0120242
0.0120480
0.0120718
0.0120956
0.0121194
0.0121433
0.0121673
0.0121912
0.0122153
0.0122393
0.0122634
0.0122875
0.0123116
0.0123358
0.0123600
0.0123843
0.0124086
0.0124329
0.0124573
0.0124817
0.0125061
0.0125306
0.0125551
0.0125796
0.0126042
0.0126288
0.0126535
0.0126782
0.0127029
0.0127277
0.0127525
0.0127773
0.0128022
0.0128271
0.0128521
0.0128770
0.0129021
0.0129271
0.0129522
0.0129774
0.0130025
0.0130278
0.0130530
0.0130783
0.0131036
0.0131290
0.0131544
0.0131798
0.0132053
0.0132308
0.0132564
0.0132819
0.0133076
0.0133332
0.0133589
0.0133847
0.0134105
0.0134363
0.0134621
0.0134880
0.0135140
0.0135399
0.0135659
0.0135920
0.0136181
0.0136442
0.0136704
0.0136966
0.0137228
0.0137491
0.0137754
0.0138018
0.0138282
0.0138546
0.0138811
0.0139076
0.0139342
0.0139608
0.0139874
0.0140141
0.0140408
0.0140676
0.0140944
0.0141212
0.0141481
0.0141750
0.0142019
0.0142289
0.0142560
0.0142830
0.0143102
0.0143373
0.0143645
0.0143918
0.0144190
0.0144464
0.0144737
0.0145011
0.0145286
0.0145560
0.0145836
0.0146111
0.0146387
0.0146664
0.0146941
0.0147218
0.0147495
0.0147774
0.0148052
0.0148331
0.0148610
0.0148890
0.0149170
0.0149451
0.0149732
0.0150013
0.0150295
0.0150577
0.0150860
0.0151143
0.0151427
0.0151711
0.0151995
0.0152280
0.0152565
0.0152851
0.0153137
0.0153423
0.0153710
0.0153998
0.0154285
0.0154573
0.0154862
0.0155151
0.0155441
0.0155731
0.0156021
0.0156312
0.0156603
0.0156895
0.0157187
0.0157479
0.0157772
0.0158065
0.0158359
0.0158654
0.0158948
0.0159243
0.0159539
0.0159835
0.0160131
0.0160428
0.0160726
0.0161023
0.0161322
0.0161620
0.0161919
0.0162219
0.0162519
0.0162819
0.0163120
0.0163422
0.0163723
0.0164026
0.0164328
0.0164632
0.0164935
0.0165239
0.0165544
0.0165849
0.0166154
0.0166460
0.0166766
0.0167073
0.0167380
0.0167688
0.0167996
0.0168305
0.0168614
0.0168923
0.0169233
0.0169544
0.0169854
0.0170166
0.0170478
0.0170790
0.0171103
0.0171416
0.0171730
0.0172044
0.0172358
0.0172673
0.0172989
0.0173305
0.0173621
0.0173938
0.0174256
0.0174574
0.0174892
0.0175211
0.0175530
0.0175850
0.0176170
0.0176491
0.0176812
0.0177134
0.0177456
0.0177779
0.0178102
0.0178426
0.0178750
0.0179074
0.0179399
0.0179725
0.0180051
0.0180378
0.0180705
0.0181032
0.0181360
0.0181688
0.0182017
0.0182347
0.0182677
0.0183007
0.0183338
0.0183670
0.0184001
0.0184334
0.0184667
0.0185000
0.0185334
0.0185668
0.0186003
0.0186339
0.0186675
0.0187011
0.0187348
0.0187685
0.0188023
0.0188361
0.0188700
0.0189040
0.0189380
0.0189720
0.0190061
0.0190402
0.0190744
0.0191087
0.0191430
0.0191773
0.0192117
0.0192461
0.0192806
0.0193152
0.0193498
0.0193845
0.0194192
0.0194539
0.0194887
0.0195236
0.0195585
0.0195935
0.0196285
0.0196635
0.0196987
0.0197338
0.0197690
0.0198043
0.0198397
0.0198750
0.0199105
0.0199460
0.0199815
0.0200171
0.0200527
0.0200884
0.0201242
0.0201600
0.0201958
0.0202318
0.0202677
0.0203037
0.0203398
0.0203759
0.0204121
0.0204483
0.0204846
0.0205210
0.0205574
0.0205938
0.0206303
0.0206669
0.0207035
0.0207401
0.0207769
0.0208136
0.0208505
0.0208874
0.0209243
0.0209613
0.0209983
0.0210354
0.0210726
0.0211098
0.0211471
0.0211844
0.0212218
0.0212592
0.0212967
0.0213343
0.0213719
0.0214095
0.0214473
0.0214850
0.0215229
0.0215607
0.0215987
0.0216367
0.0216747
0.0217128
0.0217510
0.0217892
0.0218275
0.0218659
0.0219043
0.0219427
0.0219812
0.0220198
0.0220584
0.0220971
0.0221358
0.0221746
0.0222135
0.0222524
0.0222914
0.0223304
0.0223695
0.0224086
0.0224478
0.0224871
0.0225264
0.0225658
0.0226052
0.0226447
0.0226843
0.0227239
0.0227635
0.0228033
0.0228431
0.0228829
0.0229228
0.0229628
0.0230028
0.0230429
0.0230830
0.0231232
0.0231635
0.0232038
0.0232442
0.0232847
0.0233252
0.0233657
0.0234064
0.0234471
0.0234878
0.0235286
0.0235695
0.0236104
0.0236514
0.0236924
0.0237336
0.0237747
0.0238160
0.0238573
0.0238986
0.0239400
0.0239815
0.0240231
0.0240647
0.0241063
0.0241481
0.0241898
0.0242317
0.0242736
0.0243156
0.0243576
0.0243997
0.0244419
0.0244841
0.0245264
0.0245688
0.0246112
0.0246537
0.0246962
0.0247388
0.0247815
0.0248242
0.0248670
0.0249099
0.0249528
0.0249958
0.0250388
0.0250819
0.0251251
0.0251683
0.0252117
0.0252550
0.0252985
0.0253420
0.0253855
0.0254292
0.0254729
0.0255166
0.0255604
0.0256043
0.0256483
0.0256923
0.0257364
0.0257805
0.0258248
0.0258690
0.0259134
0.0259578
0.0260023
0.0260468
0.0260915
0.0261361
0.0261809
0.0262257
0.0262706
0.0263155
0.0263605
0.0264056
0.0264508
0.0264960
0.0265413
0.0265866
0.0266320
0.0266775
0.0267231
0.0267687
0.0268144
0.0268601
0.0269059
0.0269518
0.0269978
0.0270438
0.0270899
0.0271361
0.0271823
0.0272286
0.0272750
0.0273214
0.0273680
0.0274145
0.0274612
0.0275079
0.0275547
0.0276015
0.0276485
0.0276955
0.0277425
0.0277897
0.0278369
0.0278841
0.0279315
0.0279789
0.0280264
0.0280740
0.0281216
0.0281693
0.0282171
0.0282649
0.0283128
0.0283608
0.0284089
0.0284570
0.0285052
0.0285534
0.0286018
0.0286502
0.0286987
0.0287472
0.0287959
0.0288446
0.0288934
0.0289422
0.0289911
0.0290401
0.0290892
0.0291383
0.0291875
0.0292368
0.0292862
0.0293356
0.0293851
0.0294347
0.0294844
0.0295341
0.0295839
0.0296338
0.0296837
0.0297337
0.0297838
0.0298340
0.0298842
0.0299346
0.0299850
0.0300354
0.0300860
0.0301366
0.0301873
0.0302381
0.0302889
0.0303398
0.0303908
0.0304419
0.0304931
0.0305443
0.0305956
0.0306470
0.0306984
0.0307500
0.0308016
0.0308533
0.0309050
0.0309569
0.0310088
0.0310608
0.0311129
0.0311650
0.0312172
0.0312695
0.0313219
0.0313744
0.0314269
0.0314795
0.0315322
0.0315850
0.0316378
0.0316908
0.0317438
0.0317969
0.0318500
0.0319033
0.0319566
0.0320100
0.0320635
0.0321171
0.0321707
0.0322244
0.0322782
0.0323321
0.0323861
0.0324401
0.0324942
0.0325484
0.0326027
0.0326571
0.0327115
0.0327661
0.0328207
0.0328754
0.0329301
0.0329850
0.0330399
0.0330949
0.0331500
0.0332052
0.0332605
0.0333158
0.0333712
0.0334268
0.0334823
0.0335380
0.0335938
0.0336496
0.0337055
0.0337615
0.0338176
0.0338738
0.0339301
0.0339864
0.0340428
0.0340993
0.0341559
0.0342126
0.0342694
0.0343262
0.0343831
0.0344401
0.0344972
0.0345544
0.0346117
0.0346691
0.0347265
0.0347840
0.0348416
0.0348993
0.0349571
0.0350150
0.0350729
0.0351310
0.0351891
0.0352473
0.0353056
0.0353640
0.0354225
0.0354810
0.0355397
0.0355984
0.0356572
0.0357161
0.0357751
0.0358342
0.0358934
0.0359526
0.0360120
0.0360714
0.0361309
0.0361906
0.0362503
0.0363101
0.0363699
0.0364299
0.0364900
0.0365501
0.0366103
0.0366707
0.0367311
0.0367916
0.0368522
0.0369129
0.0369736
0.0370345
0.0370955
0.0371565
0.0372177
0.0372789
0.0373402
0.0374016
0.0374631
0.0375247
0.0375864
0.0376482
0.0377101
0.0377720
0.0378341
0.0378962
0.0379585
0.0380208
0.0380832
0.0381457
0.0382083
0.0382710
0.0383338
0.0383967
0.0384597
0.0385228
0.0385860
0.0386492
0.0387126
0.0387760
0.0388396
0.0389032
0.0389670
0.0390308
0.0390947
0.0391587
0.0392229
0.0392871
0.0393514
0.0394158
0.0394803
0.0395449
0.0396096
0.0396744
0.0397392
0.0398042
0.0398693
0.0399345
0.0399997
0.0400651
0.0401306
0.0401961
0.0402618
0.0403276
0.0403934
0.0404594
0.0405254
0.0405916
0.0406578
0.0407242
0.0407906
0.0408572
0.0409238
0.0409905
0.0410574
0.0411243
0.0411914
0.0412585
0.0413257
0.0413931
0.0414605
0.0415281
0.0415957
0.0416634
0.0417313
0.0417992
0.0418673
0.0419354
0.0420037
0.0420720
0.0421405
0.0422090
0.0422777
0.0423464
0.0424153
0.0424842
0.0425533
0.0426225
0.0426917
0.0427611
0.0428306
0.0429002
0.0429699
0.0430396
0.0431095
0.0431795
0.0432496
0.0433198
0.0433901
0.0434605
0.0435311
0.0436017
0.0436724
0.0437432
0.0438142
0.0438852
0.0439564
0.0440276
0.0440990
0.0441704
0.0442420
0.0443137
0.0443855
0.0444574
0.0445294
0.0446015
0.0446737
0.0447460
0.0448184
0.0448910
0.0449636
0.0450364
0.0451092
0.0451822
0.0452553
0.0453284
0.0454017
0.0454751
0.0455487
0.0456223
0.0456960
0.0457698
0.0458438
0.0459179
0.0459920
0.0460663
0.0461407
0.0462152
0.0462898
0.0463645
0.0464394
0.0465143
0.0465894
0.0466645
0.0467398
0.0468152
0.0468907
0.0469663
0.0470421
0.0471179
0.0471939
0.0472699
0.0473461
0.0474224
0.0474988
0.0475753
0.0476520
0.0477287
0.0478056
0.0478826
0.0479597
0.0480369
0.0481142
0.0481916
0.0482692
0.0483469
0.0484246
0.0485025
0.0485806
0.0486587
0.0487369
0.0488153
0.0488938
0.0489724
0.0490511
0.0491299
0.0492089
0.0492879
0.0493671
0.0494464
0.0495258
0.0496054
0.0496850
0.0497648
0.0498447
0.0499247
0.0500048
0.0500851
0.0501655
0.0502459
0.0503266
0.0504073
0.0504881
0.0505691
0.0506502
0.0507314
0.0508127
0.0508942
0.0509758
0.0510574
0.0511393
0.0512212
0.0513033
0.0513854
0.0514677
0.0515502
0.0516327
0.0517154
0.0517982
0.0518811
0.0519641
0.0520473
0.0521306
0.0522140
0.0522975
0.0523812
0.0524650
0.0525489
0.0526329
0.0527171
0.0528014
0.0528858
0.0529703
0.0530550
0.0531398
0.0532247
0.0533097
0.0533949
0.0534802
0.0535656
0.0536511
0.0537368
0.0538226
0.0539085
0.0539946
0.0540808
0.0541671
0.0542535
0.0543401
0.0544268
0.0545136
0.0546006
0.0546877
0.0547749
0.0548622
0.0549497
0.0550373
0.0551250
0.0552129
0.0553009
0.0553890
0.0554773
0.0555657
0.0556542
0.0557429
0.0558316
0.0559206
0.0560096
0.0560988
0.0561881
0.0562775
0.0563671
0.0564568
0.0565467
0.0566367
0.0567268
0.0568170
0.0569074
0.0569979
0.0570886
0.0571794
0.0572703
0.0573613
0.0574525
0.0575439
0.0576353
0.0577269
0.0578187
0.0579105
0.0580025
0.0580947
0.0581870
0.0582794
0.0583719
0.0584646
0.0585575
0.0586504
0.0587436
0.0588368
0.0589302
0.0590237
0.0591174
0.0592112
0.0593051
0.0593992
0.0594934
0.0595878
0.0596823
0.0597769
0.0598717
0.0599667
0.0600617
0.0601569
0.0602523
0.0603478
0.0604434
0.0605392
0.0606351
0.0607312
0.0608274
0.0609237
0.0610202
0.0611168
0.0612136
0.0613105
0.0614076
0.0615048
0.0616022
0.0616997
0.0617973
0.0618951
0.0619930
0.0620911
0.0621894
0.0622877
0.0623862
0.0624849
0.0625837
0.0626827
0.0627818
0.0628811
0.0629805
0.0630800
0.0631797
0.0632795
0.0633795
0.0634797
0.0635800
0.0636804
0.0637810
0.0638818
0.0639826
0.0640837
0.0641849
0.0642862
0.0643877
0.0644894
0.0645911
0.0646931
0.0647952
0.0648974
0.0649998
0.0651024
0.0652051
0.0653080
0.0654110
0.0655141
0.0656175
0.0657209
0.0658246
0.0659283
0.0660323
0.0661364
0.0662406
0.0663450
0.0664496
0.0665543
0.0666591
0.0667642
0.0668693
0.0669747
0.0670802
0.0671858
0.0672916
0.0673976
0.0675037
0.0676100
0.0677164
0.0678230
0.0679298
0.0680367
0.0681437
0.0682510
0.0683584
0.0684659
0.0685736
0.0686815
0.0687895
0.0688977
0.0690061
0.0691146
0.0692232
0.0693321
0.0694411
0.0695502
0.0696596
