post_production/PixelLog_to_AgX_Punchy_33.cube
# PixelLog to AgX (Punchy) Rec.709 Display Transform 3D LUT
# Architecture: AgX Display Rendering Transform (Troy Sobotka / Blender 4.0+)
# Target Device: Google Pixel 11 Pro Primary Sensor (Tensor G6)
# Transform: Pixel-Log BT.2020 -> Scene-Linear -> BT.2020 to Rec.709 -> AgX Inset -> Log2 EV -> Sigmoid -> Outset
LUT_3D_SIZE 33
DOMAIN_MIN 0.0 0.0 0.0
DOMAIN_MAX 1.0 1.0 1.0
0.000000 0.000000 0.000000
0.000000 0.000000 0.000000
0.000000 0.000000 0.000000
0.052534 0.000000 0.000000
0.118638 0.000000 0.000000
0.186223 0.000000 0.000000
0.254105 0.000000 0.000000
0.322225 0.000000 0.000000
0.390629 0.000000 0.000000
0.459314 0.000000 0.000000
0.528202 0.000000 0.000000
0.597139 0.000000 0.000000
0.665911 0.000000 0.000000
0.734242 0.000000 0.000000
0.801813 0.000000 0.000000
0.868267 0.000000 0.000000
0.933219 0.000000 0.000000
0.995913 0.000000 0.000000
1.000000 0.000000 0.000000
1.000000 0.000000 0.000000
1.000000 0.000000 0.004486
1.000000 0.000000 0.045858
1.000000 0.000000 0.091652
1.000000 0.000000 0.140327
1.000000 0.000000 0.191698
1.000000 0.000000 0.245575
1.000000 0.000000 0.301740
1.000000 0.000000 0.359935
1.000000 0.000000 0.419857
1.000000 0.000000 0.481152
1.000000 0.000000 0.543422
1.000000 0.000000 0.606221
1.000000 0.000000 0.669061
0.000000 0.000000 0.000000
0.000000 0.000000 0.000000
0.000000 0.000000 0.000000
0.033912 0.000000 0.000000
0.102065 0.000000 0.000000
0.172450 0.000000 0.000000
0.242718 0.000000 0.000000
0.312800 0.000000 0.000000
0.382820 0.000000 0.000000
0.452846 0.000000 0.000000
0.522851 0.000000 0.000000
0.592724 0.000000 0.000000
0.662279 0.000000 0.000000
0.731267 0.000000 0.000000
0.799389 0.000000 0.000000
0.866303 0.000000 0.000000
0.931638 0.000000 0.000000
0.994670 0.000000 0.000000
1.000000 0.000000 0.000000
1.000000 0.000000 0.000000
1.000000 0.000000 0.003613
1.000000 0.000000 0.045059
1.000000 0.000000 0.090950
1.000000 0.000000 0.139715
1.000000 0.000000 0.191167
1.000000 0.000000 0.245117
1.000000 0.000000 0.301348
1.000000 0.000000 0.359601
1.000000 0.000000 0.419574
1.000000 0.000000 0.480914
1.000000 0.000000 0.543223
1.000000 0.000000 0.606056
1.000000 0.000000 0.668925
0.000000 0.000000 0.000000
0.000000 0.000000 0.000000
0.000000 0.000000 0.000000
0.016168 0.000000 0.000000
0.084791 0.000000 0.000000
0.158136 0.000000 0.000000
0.230963 0.000000 0.000000
0.303126 0.000000 0.000000
0.374843 0.000000 0.000000
0.446261 0.000000 0.000000
0.517420 0.000000 0.000000
0.588253 0.000000 0.000000
0.658609 0.000000 0.000000
0.728266 0.000000 0.000000
0.796947 0.000000 0.000000
0.864326 0.000000 0.000000
0.930048 0.000000 0.000000
0.993422 0.000000 0.000000
1.000000 0.000000 0.000000
1.000000 0.000000 0.000000
1.000000 0.000000 0.002737
1.000000 0.000000 0.044259
1.000000 0.000000 0.090247
1.000000 0.000000 0.139102
1.000000 0.000000 0.190636
1.000000 0.000000 0.244660
1.000000 0.000000 0.300956
1.000000 0.000000 0.359267
1.000000 0.000000 0.419291
1.000000 0.000000 0.480676
1.000000 0.000000 0.543024
1.000000 0.000000 0.605891
1.000000 0.000000 0.668789
0.000000 0.000000 0.000000
0.000000 0.000000 0.000000
0.000000 0.000000 0.000000
0.000303 0.000000 0.000000
0.066815 0.000000 0.000000
0.143219 0.000000 0.000000
0.218797 0.000000 0.000000
0.293177 0.000000 0.000000
0.366677 0.000000 0.000000
0.439548 0.000000 0.000000
0.511899 0.000000 0.000000
0.583719 0.000000 0.000000
0.654895 0.000000 0.000000
0.725235 0.000000 0.000000
0.794483 0.000000 0.000000
0.862334 0.000000 0.000000
0.928447 0.000000 0.000000
0.992165 0.000000 0.000000
1.000000 0.000000 0.000000
1.000000 0.000000 0.000000
1.000000 0.000000 0.001858
1.000000 0.000000 0.043455
1.000000 0.000000 0.089542
1.000000 0.000000 0.138486
1.000000 0.000000 0.190103
1.000000 0.000000 0.244201
1.000000 0.000000 0.300563
1.000000 0.000000 0.358932
1.000000 0.000000 0.419007
1.000000 0.000000 0.480437
1.000000 0.000000 0.542825
1.000000 0.000000 0.605725
1.000000 0.000000 0.668653
0.000000 0.035797 0.000000
0.000000 0.034307 0.000000
0.000000 0.032818 0.000000
0.000000 0.031328 0.000000
0.035766 0.025114 0.000000
0.116621 0.014589 0.000000
0.196811 0.003736 0.000000
0.275285 0.000000 0.000000
0.352233 0.000000 0.000000
0.427887 0.000000 0.000000
0.502849 0.000000 0.000000
0.577115 0.000000 0.000000
0.650668 0.000000 0.000000
0.721790 0.000000 0.000000
0.791688 0.000000 0.000000
0.860077 0.000000 0.000000
0.926636 0.000000 0.000000
0.990743 0.000000 0.000000
1.000000 0.000000 0.000000
1.000000 0.000000 0.000000
1.000000 0.000000 0.000867
1.000000 0.000000 0.042549
1.000000 0.000000 0.088746
1.000000 0.000000 0.137793
1.000000 0.000000 0.189502
1.000000 0.000000 0.243683
1.000000 0.000000 0.300120
1.000000 0.000000 0.358555
1.000000 0.000000 0.418688
1.000000 0.000000 0.480169
1.000000 0.000000 0.542600
1.000000 0.000000 0.605539
1.000000 0.000000 0.668499
0.000000 0.082226 0.000000
0.000000 0.080868 0.000000
0.000000 0.079504 0.000000
0.000000 0.078133 0.000000
0.000000 0.075253 0.000000
0.077594 0.064583 0.000000
0.162159 0.053396 0.000000
0.244110 0.042000 0.000000
0.324080 0.030215 0.000000
0.402702 0.017839 0.000000
0.480387 0.004657 0.000000
0.557365 0.000000 0.000000
0.633730 0.000000 0.000000
0.708551 0.000000 0.000000
0.782220 0.000000 0.000000
0.854594 0.000000 0.000000
0.924429 0.000000 0.000000
0.989012 0.000000 0.000000
1.000000 0.000000 0.000000
1.000000 0.000000 0.000000
1.000000 0.000000 0.000000
1.000000 0.000000 0.041449
1.000000 0.000000 0.087781
1.000000 0.000000 0.136953
1.000000 0.000000 0.188774
1.000000 0.000000 0.243057
1.000000 0.000000 0.299583
1.000000 0.000000 0.358098
1.000000 0.000000 0.418301
1.000000 0.000000 0.479843
1.000000 0.000000 0.542328
1.000000 0.000000 0.605313
1.000000 0.000000 0.668313
0.000000 0.131206 0.000000
0.000000 0.130047 0.000000
0.000000 0.128884 0.000000
0.000000 0.127714 0.000000
0.000000 0.126392 0.000000
0.031058 0.118319 0.000000
0.121329 0.106857 0.000000
0.207844 0.095377 0.000000
0.291252 0.083714 0.000000
0.372483 0.071652 0.000000
0.452156 0.058976 0.000000
0.530637 0.045454 0.000000
0.608117 0.030824 0.000000
0.684674 0.014760 0.000000
0.760318 0.000000 0.000000
0.835027 0.000000 0.000000
0.908205 0.000000 0.000000
0.978660 0.000000 0.000000
1.000000 0.000000 0.000000
1.000000 0.000000 0.000000
1.000000 0.000000 0.000000
1.000000 0.000000 0.040115
1.000000 0.000000 0.086611
1.000000 0.000000 0.135933
1.000000 0.000000 0.187892
1.000000 0.000000 0.242297
1.000000 0.000000 0.298933
1.000000 0.000000 0.357545
1.000000 0.000000 0.417833
1.000000 0.000000 0.479450
1.000000 0.000000 0.541999
1.000000 0.000000 0.605040
1.000000 0.000000 0.668089
0.000000 0.181421 0.000000
0.000000 0.180443 0.000000
0.000000 0.179462 0.000000
0.000000 0.178476 0.000000
0.000000 0.177363 0.000000
0.000000 0.173659 0.000000
0.073187 0.162177 0.000000
0.166038 0.150397 0.000000
0.254135 0.138694 0.000000
0.338869 0.126823 0.000000
0.421190 0.114560 0.000000
0.501668 0.101690 0.000000
0.580622 0.087982 0.000000
0.658206 0.073162 0.000000
0.734471 0.056891 0.000000
0.809418 0.038723 0.000000
0.883032 0.018052 0.000000
0.955182 0.000000 0.000000
1.000000 0.000000 0.000000
1.000000 0.000000 0.000000
1.000000 0.000000 0.000000
1.000000 0.000000 0.038495
1.000000 0.000000 0.085190
1.000000 0.000000 0.134697
1.000000 0.000000 0.186822
1.000000 0.000000 0.241377
1.000000 0.000000 0.298145
1.000000 0.000000 0.356874
1.000000 0.000000 0.417266
1.000000 0.000000 0.478973
1.000000 0.000000 0.541601
1.000000 0.000000 0.604710
1.000000 0.000000 0.667817
0.000000 0.232600 0.000000
0.000000 0.231777 0.000000
0.000000 0.230952 0.000000
0.000000 0.230123 0.000000
0.000000 0.229188 0.000000
0.000000 0.228053 0.000000
0.015009 0.219312 0.000000
0.116859 0.206895 0.000000
0.211533 0.194883 0.000000
0.301073 0.182981 0.000000
0.386987 0.170927 0.000000
0.470181 0.158500 0.000000
0.551180 0.145487 0.000000
0.630261 0.131655 0.000000
0.707553 0.116727 0.000000
0.783089 0.100357 0.000000
0.856861 0.082083 0.000000
0.928741 0.061153 0.000000
0.998441 0.036331 0.000000
1.000000 0.006555 0.000000
1.000000 0.000000 0.000000
1.000000 0.000000 0.022293
1.000000 0.000000 0.081813
1.000000 0.000000 0.133195
1.000000 0.000000 0.185524
1.000000 0.000000 0.240260
1.000000 0.000000 0.297190
1.000000 0.000000 0.356062
1.000000 0.000000 0.416578
1.000000 0.000000 0.478395
1.000000 0.000000 0.541118
1.000000 0.000000 0.604310
1.000000 0.000000 0.667487
0.000000 0.284653 0.000000
0.000000 0.283962 0.000000
0.000000 0.283269 0.000000
0.000000 0.282573 0.000000
0.000000 0.281789 0.000000
0.000000 0.280837 0.000000
0.000000 0.277105 0.000000
0.057224 0.265133 0.000000
0.161458 0.252435 0.000000
0.257749 0.240217 0.000000
0.348594 0.228133 0.000000
0.435482 0.215923 0.000000
0.519272 0.203368 0.000000
0.600450 0.190255 0.000000
0.679271 0.176350 0.000000
0.755845 0.161373 0.000000
0.830200 0.144969 0.000000
0.902258 0.126595 0.000000
0.971603 0.105177 0.000000
1.000000 0.080071 0.000000
1.000000 0.050013 0.000000
1.000000 0.008562 0.000000
1.000000 0.000000 0.053348
1.000000 0.000000 0.119852
1.000000 0.000000 0.183947
1.000000 0.000000 0.238905
1.000000 0.000000 0.296031
1.000000 0.000000 0.355076
1.000000 0.000000 0.415745
1.000000 0.000000 0.477695
1.000000 0.000000 0.540534
1.000000 0.000000 0.603825
1.000000 0.000000 0.667088
0.000000 0.337505 0.000000
0.000000 0.336925 0.000000
0.000000 0.336345 0.000000
0.000000 0.335762 0.000000
0.000000 0.335105 0.000000
0.000000 0.334308 0.000000
0.000000 0.333342 0.000000
0.000000 0.325620 0.000000
0.100708 0.311658 0.000000
0.206850 0.298732 0.000000
0.304621 0.286325 0.000000
0.396577 0.274084 0.000000
0.484163 0.261752 0.000000
0.568208 0.249112 0.000000
0.649174 0.235948 0.000000
0.727305 0.222024 0.000000
0.802706 0.207056 0.000000
0.875411 0.190682 0.000000
0.944865 0.171853 0.000000
1.000000 0.150248 0.000000
1.000000 0.125028 0.000000
1.000000 0.092531 0.000000
1.000000 0.050755 0.019667
1.000000 0.000000 0.084704
1.000000 0.000000 0.158503
1.000000 0.000000 0.235797
1.000000 0.000000 0.294625
1.000000 0.000000 0.353881
1.000000 0.000000 0.414735
1.000000 0.000000 0.476846
1.000000 0.000000 0.539826
1.000000 0.000000 0.603238
1.000000 0.000000 0.666605
0.000000 0.391049 0.000000
0.000000 0.390564 0.000000
0.000000 0.390078 0.000000
0.000000 0.389591 0.000000
0.000000 0.389042 0.000000
0.000000 0.388377 0.000000
0.000000 0.387570 0.000000
0.000000 0.385280 0.000000
0.023726 0.373076 0.000000
0.145111 0.358818 0.000000
0.252987 0.345686 0.000000
0.352056 0.333115 0.000000
0.444854 0.320752 0.000000
0.532797 0.308341 0.000000
0.616699 0.295665 0.000000
0.697016 0.282506 0.000000
0.773993 0.268625 0.000000
0.847745 0.253731 0.000000
0.917849 0.236980 0.000000
0.984506 0.218039 0.000000
1.000000 0.196416 0.000000
1.000000 0.170864 0.000000
1.000000 0.135926 0.000000
1.000000 0.094972 0.050201
1.000000 0.042857 0.118414
1.000000 0.000000 0.195376
1.000000 0.000000 0.281709
1.000000 0.000000 0.352430
1.000000 0.000000 0.413510
1.000000 0.000000 0.475817
1.000000 0.000000 0.538967
1.000000 0.000000 0.602526
1.000000 0.000000 0.666020
0.000000 0.445136 0.000000
0.000000 0.444732 0.000000
0.000000 0.444327 0.000000
0.000000 0.443922 0.000000
0.000000 0.443464 0.000000
0.000000 0.442910 0.000000
0.000000 0.442239 0.000000
0.000000 0.441424 0.000000
0.000000 0.435788 0.000000
0.066817 0.420976 0.000000
0.190368 0.406475 0.000000
0.299810 0.393161 0.000000
0.399921 0.380459 0.000000
0.493218 0.368018 0.000000
0.581117 0.355580 0.000000
0.664430 0.342927 0.000000
0.743625 0.329837 0.000000
0.818960 0.316067 0.000000
0.890207 0.300951 0.000000
0.957404 0.284066 0.000000
1.000000 0.265178 0.000000
1.000000 0.243648 0.000000
1.000000 0.215530 0.000000
1.000000 0.180991 0.018277
1.000000 0.140083 0.083178
1.000000 0.087172 0.154344
1.000000 0.014519 0.234166
1.000000 0.000000 0.327538
1.000000 0.000000 0.412022
1.000000 0.000000 0.474569
1.000000 0.000000 0.537926
1.000000 0.000000 0.601664
1.000000 0.000000 0.665310
0.000000 0.499576 0.000000
0.000000 0.499241 0.000000
0.000000 0.498905 0.000000
0.000000 0.498568 0.000000
0.000000 0.498188 0.000000
0.000000 0.497729 0.000000
0.000000 0.497172 0.000000
0.000000 0.496497 0.000000
0.000000 0.495678 0.000000
0.000000 0.486261 0.000000
0.110934 0.469165 0.000000
0.236457 0.454448 0.000000
0.347228 0.440983 0.000000
0.448043 0.428194 0.000000
0.541434 0.415728 0.000000
0.628830 0.403324 0.000000
0.711069 0.390758 0.000000
0.788641 0.377808 0.000000
0.861588 0.363975 0.000000
0.929818 0.348689 0.000000
0.993805 0.331906 0.000000
1.000000 0.313193 0.000000
1.000000 0.290884 0.000000
1.000000 0.261014 0.000000
1.000000 0.227409 0.050652
1.000000 0.186026 0.118440
1.000000 0.132417 0.192313
1.000000 0.058640 0.274697
1.000000 0.000000 0.371559
1.000000 0.000000 0.473053
1.000000 0.000000 0.536662
1.000000 0.000000 0.600618
1.000000 0.000000 0.664450
0.000000 0.554139 0.000000
0.000000 0.553861 0.000000
0.000000 0.553584 0.000000
0.000000 0.553305 0.000000
0.000000 0.552992 0.000000
0.000000 0.552612 0.000000
0.000000 0.552152 0.000000
0.000000 0.551595 0.000000
0.000000 0.550919 0.000000
0.000000 0.549834 0.000000
0.002905 0.534813 0.000000
0.156050 0.517423 0.000000
0.283335 0.502517 0.000000
0.395110 0.488944 0.000000
0.496218 0.476122 0.000000
0.589233 0.463691 0.000000
0.675627 0.451387 0.000000
0.756276 0.438982 0.000000
0.831592 0.426127 0.000000
0.901425 0.412084 0.000000
0.966383 0.396923 0.000000
1.000000 0.380376 0.000000
1.000000 0.361937 0.000000
1.000000 0.337067 0.000000
1.000000 0.307976 0.019646
1.000000 0.274435 0.085399
1.000000 0.232696 0.155819
1.000000 0.178515 0.232102
1.000000 0.103744 0.316703
1.000000 0.000000 0.415724
1.000000 0.000000 0.535128
1.000000 0.000000 0.599348
1.000000 0.000000 0.663407
0.000000 0.608556 0.000000
0.000000 0.608328 0.000000
0.000000 0.608100 0.000000
0.000000 0.607871 0.000000
0.000000 0.607613 0.000000
0.000000 0.607301 0.000000
0.000000 0.606923 0.000000
0.000000 0.606465 0.000000
0.000000 0.605911 0.000000
0.000000 0.605238 0.000000
0.000000 0.601294 0.000000
0.046537 0.583137 0.000000
0.202168 0.565489 0.000000
0.330919 0.550434 0.000000
0.443287 0.536805 0.000000
0.544207 0.524010 0.000000
0.636328 0.511683 0.000000
0.721187 0.499553 0.000000
0.799714 0.487383 0.000000
0.871860 0.474303 0.000000
0.938339 0.460376 0.000000
0.999652 0.445493 0.000000
1.000000 0.429284 0.000000
1.000000 0.409451 0.000000
1.000000 0.383638 0.000000
1.000000 0.355566 0.054016
1.000000 0.321901 0.122374
1.000000 0.279946 0.195125
1.000000 0.225351 0.273463
1.000000 0.149751 0.359872
1.000000 0.033422 0.460587
1.000000 0.000000 0.591258
1.000000 0.000000 0.662140
0.000000 0.662532 0.000000
0.000000 0.662345 0.000000
0.000000 0.662159 0.000000
0.000000 0.661972 0.000000
0.000000 0.661761 0.000000
0.000000 0.661506 0.000000
0.000000 0.661197 0.000000
0.000000 0.660823 0.000000
0.000000 0.660370 0.000000
0.000000 0.659821 0.000000
0.000000 0.659156 0.000000
0.000000 0.651626 0.000000
0.091404 0.630949 0.000000
0.249264 0.613076 0.000000
0.379084 0.597922 0.000000
0.491553 0.584300 0.000000
0.591745 0.571602 0.000000
0.682416 0.559453 0.000000
0.765185 0.547571 0.000000
0.840653 0.535315 0.000000
0.909335 0.522300 0.000000
0.972106 0.508671 0.000000
1.000000 0.494170 0.000000
1.000000 0.478391 0.000000
1.000000 0.455962 0.000000
1.000000 0.431130 0.023532
1.000000 0.403243 0.090749
1.000000 0.369592 0.161410
1.000000 0.327581 0.236135
1.000000 0.272761 0.316111
1.000000 0.196546 0.403855
1.000000 0.078668 0.505741
1.000000 0.000000 0.642647
0.000000 0.715744 0.000000
0.000000 0.715592 0.000000
0.000000 0.715440 0.000000
0.000000 0.715289 0.000000
0.000000 0.715117 0.000000
0.000000 0.714910 0.000000
0.000000 0.714660 0.000000
0.000000 0.714356 0.000000
0.000000 0.713989 0.000000
0.000000 0.713543 0.000000
0.000000 0.713003 0.000000
0.000000 0.712349 0.000000
0.000000 0.701067 0.000000
0.137532 0.677933 0.000000
0.297272 0.659880 0.000000
0.427664 0.644688 0.000000
0.539670 0.631142 0.000000
0.638549 0.618616 0.000000
0.727186 0.606721 0.000000
0.807149 0.595015 0.000000
0.878936 0.582655 0.000000
0.943827 0.569932 0.000000
1.000000 0.556712 0.000000
1.000000 0.542681 0.000000
1.000000 0.524720 0.000000
1.000000 0.502240 0.000000
1.000000 0.478473 0.060165
1.000000 0.450742 0.129699
1.000000 0.417252 0.202310
1.000000 0.375365 0.278594
1.000000 0.320536 0.359731
1.000000 0.243964 0.448270
1.000000 0.124814 0.550737
0.000000 0.767853 0.000000
0.000000 0.767731 0.000000
0.000000 0.767608 0.000000
0.000000 0.767486 0.000000
0.000000 0.767348 0.000000
0.000000 0.767181 0.000000
0.000000 0.766979 0.000000
0.000000 0.766734 0.000000
0.000000 0.766438 0.000000
0.000000 0.766079 0.000000
0.000000 0.765644 0.000000
0.000000 0.765117 0.000000
0.000000 0.764478 0.000000
0.000000 0.748184 0.000000
0.184932 0.723755 0.000000
0.346079 0.705580 0.000000
0.476455 0.690422 0.000000
0.587374 0.677029 0.000000
0.684318 0.664755 0.000000
0.770325 0.653194 0.000000
0.846540 0.641354 0.000000
0.914409 0.629230 0.000000
0.975129 0.616926 0.000000
1.000000 0.604202 0.000000
1.000000 0.590232 0.000000
1.000000 0.570073 0.000000
1.000000 0.548605 0.030034
1.000000 0.525208 0.099183
1.000000 0.497762 0.170686
1.000000 0.464591 0.244838
1.000000 0.423019 0.322211
1.000000 0.368419 0.403974
1.000000 0.291789 0.492709
0.000000 0.818511 0.000000
0.000000 0.818413 0.000000
0.000000 0.818315 0.000000
0.000000 0.818217 0.000000
0.000000 0.818107 0.000000
0.000000 0.817973 0.000000
0.000000 0.817811 0.000000
0.000000 0.817615 0.000000
0.000000 0.817378 0.000000
0.000000 0.817091 0.000000
0.000000 0.816744 0.000000
0.000000 0.816322 0.000000
0.000000 0.815812 0.000000
0.000000 0.815192 0.000000
0.008394 0.792810 0.000000
0.233568 0.768080 0.000000
0.395527 0.749853 0.000000
0.525217 0.734808 0.000000
0.634379 0.721651 0.000000
0.728747 0.709710 0.000000
0.811245 0.698279 0.000000
0.883285 0.686488 0.000000
0.946877 0.674771 0.000000
1.000000 0.662975 0.000000
1.000000 0.650821 0.000000
1.000000 0.634202 0.000000
1.000000 0.614451 0.000043
1.000000 0.594052 0.069247
1.000000 0.571004 0.140419
1.000000 0.543978 0.213489
1.000000 0.511286 0.288721
1.000000 0.470230 0.366659
1.000000 0.416115 0.448461
0.000000 0.867369 0.000000
0.000000 0.867291 0.000000
0.000000 0.867214 0.000000
0.000000 0.867136 0.000000
0.000000 0.867048 0.000000
0.000000 0.866942 0.000000
0.000000 0.866813 0.000000
0.000000 0.866658 0.000000
0.000000 0.866470 0.000000
0.000000 0.866242 0.000000
0.000000 0.865966 0.000000
0.000000 0.865632 0.000000
0.000000 0.865227 0.000000
0.000000 0.864737 0.000000
0.000000 0.864142 0.000000
0.055590 0.835544 0.000000
0.283352 0.810575 0.000000
0.445411 0.792378 0.000000
0.573681 0.777534 0.000000
0.680383 0.764699 0.000000
0.771528 0.753172 0.000000
0.849620 0.741624 0.000000
0.917221 0.730180 0.000000
0.976170 0.718970 0.000000
1.000000 0.707753 0.000000
1.000000 0.694828 0.000000
1.000000 0.676769 0.000000
1.000000 0.657924 0.039337
1.000000 0.638107 0.110865
1.000000 0.615518 0.183666
1.000000 0.589041 0.257848
1.000000 0.556991 0.333645
1.000000 0.516653 0.411575
0.000000 0.914087 0.000000
0.000000 0.914026 0.000000
0.000000 0.913964 0.000000
0.000000 0.913903 0.000000
0.000000 0.913834 0.000000
0.000000 0.913751 0.000000
0.000000 0.913650 0.000000
0.000000 0.913527 0.000000
0.000000 0.913379 0.000000
0.000000 0.913200 0.000000
0.000000 0.912983 0.000000
0.000000 0.912721 0.000000
0.000000 0.912403 0.000000
0.000000 0.912017 0.000000
0.000000 0.911550 0.000000
0.000000 0.910983 0.000000
0.104480 0.876049 0.000000
0.334143 0.850919 0.000000
0.495489 0.832847 0.000000
0.621552 0.818296 0.000000
0.725077 0.805868 0.000000
0.812084 0.794554 0.000000
0.885370 0.783101 0.000000
0.948171 0.772142 0.000000
1.000000 0.761510 0.000000
1.000000 0.750929 0.000000
1.000000 0.735167 0.000000
1.000000 0.717587 0.009229
1.000000 0.699778 0.081437
1.000000 0.680421 0.154687
1.000000 0.658394 0.228668
1.000000 0.632593 0.303457
1.000000 0.601339 0.379258
0.000000 0.958343 0.000000
0.000000 0.958296 0.000000
0.000000 0.958248 0.000000
0.000000 0.958200 0.000000
0.000000 0.958147 0.000000
0.000000 0.958082 0.000000
0.000000 0.958003 0.000000
0.000000 0.957908 0.000000
0.000000 0.957792 0.000000
0.000000 0.957653 0.000000
0.000000 0.957484 0.000000
0.000000 0.957279 0.000000
0.000000 0.957032 0.000000
0.000000 0.956732 0.000000
0.000000 0.956368 0.000000
0.000000 0.955927 0.000000
0.000000 0.953986 0.000000
0.155041 0.914012 0.000000
0.385747 0.888818 0.000000
0.545479 0.870972 0.000000
0.668517 0.856809 0.000000
0.768150 0.844875 0.000000
0.850093 0.833524 0.000000
0.918330 0.822469 0.000000
0.976001 0.812077 0.000000
1.000000 0.802079 0.000000
1.000000 0.789816 0.000000
1.000000 0.773357 0.000000
1.000000 0.756484 0.051518
1.000000 0.739464 0.125933
1.000000 0.720647 0.200461
1.000000 0.699279 0.275121
1.000000 0.674268 0.349965
0.000000 0.999848 0.000000
0.000000 0.999811 0.000000
0.000000 0.999774 0.000000
0.000000 0.999738 0.000000
0.000000 0.999696 0.000000
0.000000 0.999646 0.000000
0.000000 0.999585 0.000000
0.000000 0.999512 0.000000
0.000000 0.999423 0.000000
0.000000 0.999315 0.000000
0.000000 0.999185 0.000000
0.000000 0.999028 0.000000
0.000000 0.998837 0.000000
0.000000 0.998606 0.000000
0.000000 0.998326 0.000000
0.000000 0.997986 0.000000
0.000000 0.997575 0.000000
0.000000 0.992309 0.000000
0.207190 0.949154 0.000000
0.437916 0.924009 0.000000
0.595069 0.906498 0.000000
0.714249 0.892817 0.000000
0.809252 0.881412 0.000000
0.885486 0.869996 0.000000
0.948345 0.859472 0.000000
1.000000 0.849705 0.000000
1.000000 0.840377 0.000000
1.000000 0.825041 0.000000
1.000000 0.809081 0.020893
1.000000 0.793182 0.096745
1.000000 0.776659 0.172569
1.000000 0.758454 0.247879
1.000000 0.737825 0.322673
0.000000 1.000000 0.000000
0.000000 1.000000 0.000000
0.000000 1.000000 0.000000
0.000000 1.000000 0.000000
0.000000 1.000000 0.000000
0.000000 1.000000 0.000000
0.000000 1.000000 0.000000
0.000000 1.000000 0.000000
0.000000 1.000000 0.000000
0.000000 1.000000 0.000000
0.000000 1.000000 0.000000
0.000000 1.000000 0.000000
0.000000 1.000000 0.000000
0.000000 1.000000 0.000000
0.000000 1.000000 0.000000
0.000000 1.000000 0.000000
0.000000 1.000000 0.000000
0.000000 1.000000 0.000000
0.000000 1.000000 0.000000
0.260775 0.981243 0.000000
0.490357 0.956274 0.000000
0.643920 0.939209 0.000000
0.758419 0.926105 0.000000
0.847706 0.914863 0.000000
0.918109 0.903795 0.000000
0.975305 0.893876 0.000000
1.000000 0.884770 0.000000
1.000000 0.872871 0.000000
1.000000 0.857480 0.000000
1.000000 0.842047 0.066407
1.000000 0.827045 0.144297
1.000000 0.811069 0.221036
1.000000 0.793529 0.296583
0.000000 1.000000 0.000000
0.000000 1.000000 0.000000
0.000000 1.000000 0.000000
0.000000 1.000000 0.000000
0.000000 1.000000 0.000000
0.000000 1.000000 0.000000
0.000000 1.000000 0.000000
0.000000 1.000000 0.000000
0.000000 1.000000 0.000000
0.000000 1.000000 0.000000
0.000000 1.000000 0.000000
0.000000 1.000000 0.000000
0.000000 1.000000 0.000000
0.000000 1.000000 0.000000
0.000000 1.000000 0.000000
0.000000 1.000000 0.000000
0.000000 1.000000 0.000000
0.000000 1.000000 0.000000
0.000000 1.000000 0.000000
0.000000 1.000000 0.000000
0.315578 1.000000 0.000000
0.542732 0.985450 0.000000
0.691675 0.968945 0.000000
0.800703 0.956506 0.000000
0.883497 0.945296 0.000000
0.947816 0.934755 0.000000
0.999169 0.925483 0.000000
1.000000 0.917056 0.000000
1.000000 0.901813 0.000000
1.000000 0.886896 0.034380
1.000000 0.872294 0.114815
1.000000 0.857829 0.193853
1.000000 0.842433 0.270960
0.000000 1.000000 0.000000
0.000000 1.000000 0.000000
0.000000 1.000000 0.000000
0.000000 1.000000 0.000000
0.000000 1.000000 0.000000
0.000000 1.000000 0.000000
0.000000 1.000000 0.000000
0.000000 1.000000 0.000000
0.000000 1.000000 0.000000
0.000000 1.000000 0.000000
0.000000 1.000000 0.000000
0.000000 1.000000 0.000000
0.000000 1.000000 0.000000
0.000000 1.000000 0.000000
0.000000 1.000000 0.000000
0.000000 1.000000 0.000000
