post_production/PixelLog_to_ACEScg_65.cube
# PixelLog to ACEScg (AP1) Scene-Linear 3D LUT
# For ACEScg VFX pipelines and DaVinci Resolve Free ACES grading
# Input: Pixel-Log BT.2020 [0, 1] -> Inverse -> BT.2020 to ACEScg (AP1) Linear
LUT_3D_SIZE 9
DOMAIN_MIN 0.0 0.0 0.0
DOMAIN_MAX 1.0 1.0 1.0
0.000000 0.000000 0.000000
0.000000 0.000000 0.000000
0.025674 0.000000 0.000000
0.085184 0.000000 0.000000
0.212535 0.008737 0.000000
0.485069 0.039940 0.000000
1.068297 0.106714 0.018902
2.316411 0.249612 0.060871
4.987394 0.555415 0.150686
0.000000 0.005522 0.000000
0.006437 0.007294 0.000000
0.034246 0.010478 0.000000
0.093755 0.017291 0.000000
0.221107 0.031872 0.000000
0.493641 0.063074 0.002057
1.076868 0.129849 0.021668
2.324983 0.272746 0.063637
4.995966 0.578549 0.153452
0.006359 0.047085 0.000000
0.021837 0.048857 0.000000
0.049645 0.052041 0.000000
0.109155 0.058854 0.000000
0.236506 0.073434 0.000000
0.509041 0.104637 0.007026
1.092268 0.171411 0.026638
2.340382 0.314309 0.068607
5.011366 0.620112 0.158422
0.039314 0.136030 0.000759
0.054793 0.137802 0.001279
0.082601 0.140986 0.002214
0.142110 0.147799 0.004215
0.269462 0.162380 0.008498
0.541996 0.193582 0.017662
1.125223 0.260356 0.037273
2.373338 0.403254 0.079243
5.044321 0.709057 0.169057
0.109839 0.326373 0.023518
0.125318 0.328146 0.024039
0.153126 0.331329 0.024974
0.212636 0.338143 0.026975
0.339987 0.352723 0.031257
0.612521 0.383926 0.040422
1.195749 0.450700 0.060033
2.443863 0.593598 0.102002
5.114846 0.899401 0.191817
0.260764 0.733712 0.072224
0.276243 0.735484 0.072745
0.304051 0.738667 0.073680
0.363561 0.745481 0.075681
0.490912 0.760061 0.079963
0.763446 0.791264 0.089128
1.346673 0.858038 0.108739
2.594788 1.000936 0.150708
5.265771 1.306739 0.240523
0.583746 1.605421 0.176456
0.599224 1.607193 0.176977
0.627032 1.610377 0.177912
0.686542 1.617190 0.179913
0.813894 1.631771 0.184195
1.086428 1.662974 0.193359
1.669655 1.729748 0.212971
2.917770 1.872646 0.254940
5.588753 2.178449 0.344755
1.274931 3.470892 0.399514
1.290410 3.472664 0.400034
1.318218 3.475848 0.400969
1.377727 3.482662 0.402970
1.505079 3.497242 0.407253
1.777613 3.528445 0.416417
2.360840 3.595219 0.436029
3.608955 3.738117 0.477998
6.279938 4.043920 0.567812
2.754078 7.463027 0.876860
2.769556 7.464800 0.877381
2.797364 7.467983 0.878316
2.856874 7.474797 0.880317
2.984225 7.489377 0.884599
3.256759 7.520580 0.893763
3.839987 7.587354 0.913375
5.088101 7.730252 0.955344
7.759084 8.036055 1.045159
0.000000 0.000000 0.004347
0.000000 0.000000 0.004867
0.026870 0.000000 0.005802
0.086380 0.000000 0.007804
0.213731 0.009077 0.012086
0.486265 0.040279 0.021250
1.069493 0.107054 0.040862
2.317607 0.249951 0.082831
4.988590 0.555754 0.172645
0.000000 0.005861 0.007113
0.007634 0.007634 0.007634
0.035442 0.010817 0.008569
0.094951 0.017631 0.010570
0.222303 0.032211 0.014852
0.494837 0.063414 0.024016
1.078064 0.130188 0.043628
2.326179 0.273086 0.085597
4.997162 0.578889 0.175411
0.007555 0.047424 0.012083
0.023033 0.049196 0.012603
0.050841 0.052380 0.013538
0.110351 0.059194 0.015539
0.237703 0.073774 0.019822
0.510237 0.104977 0.028986
1.093464 0.171751 0.048598
2.341579 0.314649 0.090567
5.012562 0.620452 0.180381
0.040510 0.136369 0.022718
0.055989 0.138141 0.023239
0.083797 0.141325 0.024174
0.143306 0.148139 0.026175
0.270658 0.162719 0.030457
0.543192 0.193922 0.039621
1.126419 0.260696 0.059233
2.374534 0.403594 0.101202
5.045517 0.709397 0.191017
0.111036 0.326713 0.045478
0.126514 0.328485 0.045998
0.154322 0.331669 0.046933
0.213832 0.338482 0.048935
0.341183 0.353063 0.053217
0.613718 0.384265 0.062381
1.196945 0.451040 0.081993
2.445059 0.593937 0.123962
5.116042 0.899741 0.213776
0.261960 0.734051 0.094184
0.277439 0.735823 0.094704
0.305247 0.739007 0.095640
0.364757 0.745820 0.097641
0.492108 0.760401 0.101923
0.764642 0.791604 0.111087
1.347870 0.858378 0.130699
2.595984 1.001276 0.172668
5.266967 1.307079 0.262482
0.584942 1.605761 0.198416
0.600420 1.607533 0.198936
0.628229 1.610717 0.199871
0.687738 1.617530 0.201872
0.815090 1.632111 0.206155
1.087624 1.663313 0.215319
1.670851 1.730087 0.234931
2.918966 1.872985 0.276900
5.589949 2.178788 0.366714
1.276127 3.471232 0.421473
1.291606 3.473004 0.421994
1.319414 3.476188 0.422929
1.378923 3.483001 0.424930
1.506275 3.497582 0.429212
1.778809 3.528784 0.438377
2.362036 3.595559 0.457988
3.610151 3.738456 0.499957
6.281134 4.044259 0.589772
2.755274 7.463367 0.898820
2.770752 7.465139 0.899340
2.798560 7.468323 0.900275
2.858070 7.475136 0.902276
2.985421 7.489717 0.906559
3.257956 7.520920 0.915723
3.841183 7.587694 0.935334
5.089297 7.730591 0.977304
7.760280 8.036395 1.067118
0.000000 0.000000 0.043799
0.001211 0.000000 0.044319
0.029019 0.000000 0.045254
0.088529 0.000000 0.047255
0.215880 0.009687 0.051538
0.488414 0.040890 0.060702
1.071642 0.107664 0.080314
2.319756 0.250561 0.122283
4.990739 0.556365 0.212097
0.000000 0.006472 0.046565
0.009783 0.008244 0.047086
0.037591 0.011428 0.048021
0.097100 0.018241 0.050022
0.224452 0.032821 0.054304
0.496986 0.064024 0.063468
1.080213 0.130798 0.083080
2.328328 0.273696 0.125049
4.999311 0.579499 0.214863
0.009704 0.048034 0.051535
0.025182 0.049807 0.052055
0.052990 0.052990 0.052990
0.112500 0.059804 0.054991
0.239852 0.074384 0.059274
0.512386 0.105587 0.068438
1.095613 0.172361 0.088050
2.343727 0.315259 0.130019
5.014711 0.621062 0.219833
0.042659 0.136979 0.062170
0.058138 0.138752 0.062691
0.085946 0.141935 0.063626
0.145455 0.148749 0.065627
0.272807 0.163329 0.069909
0.545341 0.194532 0.079073
1.128568 0.261306 0.098685
2.376683 0.404204 0.140654
5.047666 0.710007 0.230468
0.113184 0.327323 0.084930
0.128663 0.329095 0.085450
0.156471 0.332279 0.086385
0.215981 0.339092 0.088386
0.343332 0.353673 0.092669
0.615866 0.384876 0.101833
1.199094 0.451650 0.121445
2.447208 0.594548 0.163414
5.118191 0.900351 0.253228
0.264109 0.734661 0.133636
0.279588 0.736433 0.134156
0.307396 0.739617 0.135091
0.366906 0.746431 0.137093
0.494257 0.761011 0.141375
0.766791 0.792214 0.150539
1.350019 0.858988 0.170151
2.598133 1.001886 0.212120
5.269116 1.307689 0.301934
0.587091 1.606371 0.237868
0.602569 1.608143 0.238388
0.630378 1.611327 0.239323
0.689887 1.618140 0.241324
0.817239 1.632721 0.245607
1.089773 1.663923 0.254771
1.673000 1.730698 0.274383
2.921115 1.873595 0.316352
5.592098 2.179398 0.406166
1.278276 3.471842 0.460925
1.293755 3.473614 0.461446
1.321563 3.476798 0.462381
1.381072 3.483611 0.464382
1.508424 3.498192 0.468664
1.780958 3.529395 0.477828
2.364185 3.596169 0.497440
3.612300 3.739066 0.539409
6.283283 4.044870 0.629224
2.757423 7.463977 0.938272
2.772901 7.465749 0.938792
2.800709 7.468933 0.939727
2.860219 7.475746 0.941728
2.987570 7.490327 0.946011
3.260105 7.521530 0.955175
3.843332 7.588304 0.974786
5.091446 7.731202 1.016756
7.762429 8.037005 1.106570
0.000000 0.000000 0.128226
0.005810 0.000000 0.128747
0.033618 0.000000 0.129682
0.093127 0.000000 0.131683
0.220479 0.010993 0.135965
0.493013 0.042195 0.145130
1.076240 0.108969 0.164741
2.324355 0.251867 0.206710
4.995338 0.557670 0.296525
0.000000 0.007777 0.130993
0.014381 0.009549 0.131513
0.042189 0.012733 0.132448
0.101699 0.019547 0.134449
0.229051 0.034127 0.138732
0.501585 0.065330 0.147896
1.084812 0.132104 0.167508
2.332927 0.275002 0.209477
5.003910 0.580805 0.299291
0.014303 0.049340 0.135962
0.029781 0.051112 0.136483
0.057589 0.054296 0.137418
0.117099 0.061109 0.139419
0.244450 0.075690 0.143701
0.516985 0.106893 0.152866
1.100212 0.173667 0.172477
2.348326 0.316565 0.214446
5.019309 0.622368 0.304261
0.047258 0.138285 0.146598
0.062736 0.140057 0.147118
0.090545 0.143241 0.148053
0.150054 0.150054 0.150054
0.277406 0.164635 0.154337
0.549940 0.195838 0.163501
1.133167 0.262612 0.183113
2.381282 0.405510 0.225082
5.052265 0.711313 0.314896
0.117783 0.328629 0.169357
0.133262 0.330401 0.169878
0.161070 0.333585 0.170813
0.220579 0.340398 0.172814
0.347931 0.354979 0.177096
0.620465 0.386181 0.186261
1.203692 0.452956 0.205872
2.451807 0.595853 0.247841
5.122790 0.901656 0.337656
0.268708 0.735967 0.218064
0.284187 0.737739 0.218584
0.311995 0.740923 0.219519
0.371504 0.747736 0.221520
0.498856 0.762317 0.225803
0.771390 0.793520 0.234967
1.354617 0.860294 0.254578
2.602732 1.003191 0.296547
5.273715 1.308995 0.386362
0.591690 1.607677 0.322295
0.607168 1.609449 0.322816
0.634976 1.612633 0.323751
0.694486 1.619446 0.325752
0.821838 1.634026 0.330034
1.094372 1.665229 0.339199
1.677599 1.732003 0.358810
2.925714 1.874901 0.400779
5.596697 2.180704 0.490594
1.282875 3.473148 0.545353
1.298353 3.474920 0.545873
1.326162 3.478104 0.546808
1.385671 3.484917 0.548810
1.513023 3.499498 0.553092
1.785557 3.530700 0.562256
2.368784 3.597474 0.581868
3.616899 3.740372 0.623837
6.287882 4.046175 0.713651
2.762021 7.465283 1.022699
2.777500 7.467055 1.023220
2.805308 7.470239 1.024155
2.864818 7.477052 1.026156
2.992169 7.491633 1.030438
3.264703 7.522835 1.039602
3.847931 7.589610 1.059214
5.096045 7.732507 1.101183
7.767028 8.038310 1.190998
0.000173 0.000000 0.308903
0.015651 0.000000 0.309423
0.043459 0.000000 0.310358
0.102969 0.000000 0.312360
0.230321 0.013787 0.316642
0.502855 0.044990 0.325806
1.086082 0.111764 0.345418
2.334196 0.254661 0.387387
5.005180 0.560465 0.477201
0.008744 0.010572 0.311669
0.024223 0.012344 0.312190
0.052031 0.015527 0.313125
0.111541 0.022341 0.315126
0.238892 0.036921 0.319408
0.511426 0.068124 0.328572
1.094654 0.134898 0.348184
2.342768 0.277796 0.390153
5.013751 0.583599 0.479968
0.024144 0.052134 0.316639
0.039622 0.053907 0.317159
0.067431 0.057090 0.318094
0.126940 0.063904 0.320096
0.254292 0.078484 0.324378
0.526826 0.109687 0.333542
1.110053 0.176461 0.353154
2.358168 0.319359 0.395123
5.029151 0.625162 0.484937
0.057100 0.141079 0.327274
0.072578 0.142852 0.327795
0.100386 0.146035 0.328730
0.159896 0.152849 0.330731
0.287247 0.167429 0.335013
0.559782 0.198632 0.344177
1.143009 0.265406 0.363789
2.391123 0.408304 0.405758
5.062106 0.714107 0.495573
0.127625 0.331423 0.350034
0.143103 0.333195 0.350554
0.170911 0.336379 0.351489
0.230421 0.343192 0.353491
0.357773 0.357773 0.357773
0.630307 0.388976 0.366937
1.213534 0.455750 0.386549
2.461648 0.598647 0.428518
5.132632 0.904451 0.518332
0.278550 0.738761 0.398740
0.294028 0.740533 0.399261
0.321836 0.743717 0.400196
0.381346 0.750530 0.402197
0.508697 0.765111 0.406479
0.781232 0.796314 0.415643
1.364459 0.863088 0.435255
2.612573 1.005986 0.477224
5.283557 1.311789 0.567038
0.601531 1.610471 0.502972
0.617010 1.612243 0.503492
0.644818 1.615427 0.504427
0.704327 1.622240 0.506428
0.831679 1.636821 0.510711
1.104213 1.668023 0.519875
1.687440 1.734798 0.539487
2.935555 1.877695 0.581456
5.606538 2.183498 0.671270
1.292717 3.475942 0.726029
1.308195 3.477714 0.726550
1.336003 3.480898 0.727485
1.395513 3.487711 0.729486
1.522864 3.502292 0.733768
1.795399 3.533495 0.742933
2.378626 3.600269 0.762544
3.626740 3.743166 0.804513
6.297723 4.048970 0.894328
2.771863 7.468077 1.203376
2.787341 7.469849 1.203896
2.815149 7.473033 1.204831
2.874659 7.479846 1.206832
3.002011 7.494427 1.211115
3.274545 7.525630 1.220279
3.857772 7.592404 1.239891
5.105887 7.735301 1.281860
7.776870 8.041105 1.371674
0.021234 0.000000 0.695553
0.036712 0.000000 0.696074
0.064520 0.000000 0.697009
0.124030 0.005186 0.699010
0.251381 0.019767 0.703292
0.523916 0.050969 0.712456
1.107143 0.117743 0.732068
2.355257 0.260641 0.774037
5.026240 0.566444 0.863852
0.029805 0.016551 0.698319
0.045284 0.018323 0.698840
0.073092 0.021507 0.699775
0.132602 0.028320 0.701776
0.259953 0.042901 0.706058
0.532487 0.074104 0.715223
1.115715 0.140878 0.734834
2.363829 0.283776 0.776803
5.034812 0.589579 0.866618
0.045205 0.058114 0.703289
0.060683 0.059886 0.703810
0.088492 0.063070 0.704745
0.148001 0.069883 0.706746
0.275353 0.084464 0.711028
0.547887 0.115667 0.720192
1.131114 0.182441 0.739804
2.379229 0.325338 0.781773
5.050212 0.631142 0.871587
0.078161 0.147059 0.713924
0.093639 0.148831 0.714445
0.121447 0.152015 0.715380
0.180957 0.158828 0.717381
0.308308 0.173409 0.721663
0.580842 0.204612 0.730828
1.164070 0.271386 0.750439
2.412184 0.414283 0.792408
5.083167 0.720087 0.882223
0.148686 0.337403 0.736684
0.164164 0.339175 0.737205
0.191972 0.342359 0.738140
0.251482 0.349172 0.740141
0.378833 0.363753 0.744423
0.651368 0.394955 0.753587
1.234595 0.461729 0.773199
2.482709 0.604627 0.815168
5.153693 0.910430 0.904983
0.299611 0.744741 0.785390
0.315089 0.746513 0.785911
0.342897 0.749697 0.786846
0.402407 0.756510 0.788847
0.529758 0.771091 0.793129
0.802293 0.802293 0.802293
1.385520 0.869068 0.821905
2.633634 1.011965 0.863874
5.304617 1.317768 0.953689
0.622592 1.616451 0.889622
0.638071 1.618223 0.890143
0.665879 1.621406 0.891078
0.725388 1.628220 0.893079
0.852740 1.642800 0.897361
1.125274 1.674003 0.906525
1.708501 1.740777 0.926137
2.956616 1.883675 0.968106
5.627599 2.189478 1.057920
1.313777 3.481922 1.112680
1.329256 3.483694 1.113200
1.357064 3.486878 1.114135
1.416574 3.493691 1.116136
1.543925 3.508272 1.120419
1.816459 3.539474 1.129583
2.399687 3.606248 1.149194
3.647801 3.749146 1.191163
6.318784 4.054949 1.280978
2.792924 7.474057 1.590026
2.808402 7.475829 1.590546
2.836210 7.479013 1.591482
2.895720 7.485826 1.593483
3.023072 7.500407 1.597765
3.295606 7.531609 1.606929
3.878833 7.598383 1.626541
5.126948 7.741281 1.668510
7.797931 8.047084 1.758324
0.066304 0.006213 1.522990
0.081783 0.007985 1.523511
0.109591 0.011169 1.524446
0.169101 0.017983 1.526447
0.296452 0.032563 1.530729
0.568986 0.063766 1.539893
1.152214 0.130540 1.559505
2.400328 0.273438 1.601474
5.071311 0.579241 1.691289
0.074876 0.029348 1.525756
0.090355 0.031120 1.526277
0.118163 0.034304 1.527212
0.177672 0.041117 1.529213
0.305024 0.055698 1.533495
0.577558 0.086900 1.542660
1.160785 0.153675 1.562271
2.408900 0.296572 1.604240
5.079883 0.602375 1.694055
0.090276 0.070911 1.530726
0.105754 0.072683 1.531247
0.133562 0.075867 1.532182
0.193072 0.082680 1.534183
0.320423 0.097260 1.538465
0.592958 0.128463 1.547629
1.176185 0.195237 1.567241
2.424299 0.338135 1.609210
5.095283 0.643938 1.699025
0.123231 0.159856 1.541361
0.138710 0.161628 1.541882
0.166518 0.164812 1.542817
0.226027 0.171625 1.544818
0.353379 0.186206 1.549100
0.625913 0.217408 1.558265
1.209140 0.284182 1.577876
2.457255 0.427080 1.619845
5.128238 0.732883 1.709660
0.193756 0.350199 1.564121
0.209235 0.351972 1.564642
0.237043 0.355155 1.565577
0.296553 0.361969 1.567578
0.423904 0.376549 1.571860
0.696438 0.407752 1.581024
1.279666 0.474526 1.600636
2.527780 0.617424 1.642605
5.198763 0.923227 1.732420
0.344681 0.757538 1.612827
0.360160 0.759310 1.613348
0.387968 0.762493 1.614283
0.447478 0.769307 1.616284
0.574829 0.783887 1.620566
0.847363 0.815090 1.629730
1.430591 0.881864 1.649342
2.678705 1.024762 1.691311
5.349688 1.330565 1.781126
0.667663 1.629247 1.717059
0.683141 1.631019 1.717580
0.710949 1.634203 1.718515
0.770459 1.641016 1.720516
0.897811 1.655597 1.724798
1.170345 1.686800 1.733962
1.753572 1.753574 1.753574
3.001687 1.896472 1.795543
5.672670 2.202275 1.885357
1.358848 3.494718 1.940117
1.374327 3.496490 1.940637
1.402135 3.499674 1.941572
1.461644 3.506488 1.943573
1.588996 3.521068 1.947856
1.861530 3.552271 1.957020
2.444757 3.619045 1.976631
3.692872 3.761943 2.018601
6.363855 4.067746 2.108415
2.837995 7.486853 2.417463
2.853473 7.488626 2.417983
2.881281 7.491809 2.418919
2.940791 7.498623 2.420920
3.068142 7.513203 2.425202
3.340677 7.544406 2.434366
3.923904 7.611180 2.453978
5.172018 7.754078 2.495947
7.843001 8.059881 2.585761
0.162756 0.033598 3.293717
0.178235 0.035370 3.294238
0.206043 0.038554 3.295173
0.265553 0.045368 3.297174
0.392904 0.059948 3.301456
0.665438 0.091151 3.310621
1.248666 0.157925 3.330232
2.496780 0.300823 3.372201
5.167763 0.606626 3.462016
0.171328 0.056733 3.296484
0.186806 0.058505 3.297004
0.214615 0.061689 3.297939
0.274124 0.068502 3.299940
0.401476 0.083083 3.304223
0.674010 0.114285 3.313387
1.257237 0.181059 3.332998
2.505352 0.323957 3.374967
5.176335 0.629760 3.464782
0.186728 0.098296 3.301453
0.202206 0.100068 3.301974
0.230014 0.103252 3.302909
0.289524 0.110065 3.304910
0.416875 0.124645 3.309192
0.689410 0.155848 3.318356
1.272637 0.222622 3.337968
2.520751 0.365520 3.379937
5.191735 0.671323 3.469752
0.219683 0.187241 3.312089
0.235162 0.189013 3.312609
0.262970 0.192197 3.313544
0.322479 0.199010 3.315545
0.449831 0.213590 3.319828
0.722365 0.244793 3.328992
1.305592 0.311567 3.348603
2.553707 0.454465 3.390572
5.224690 0.760268 3.480387
0.290208 0.377584 3.334848
0.305687 0.379356 3.335369
0.333495 0.382540 3.336304
0.393005 0.389354 3.338305
0.520356 0.403934 3.342587
0.792890 0.435137 3.351752
1.376118 0.501911 3.371363
2.624232 0.644809 3.413332
5.295215 0.950612 3.503147
0.441133 0.784923 3.383554
0.456612 0.786695 3.384075
0.484420 0.789878 3.385010
0.543930 0.796692 3.387011
0.671281 0.811272 3.391293
0.943815 0.842475 3.400458
1.527043 0.909249 3.420069
2.775157 1.052147 3.462038
5.446140 1.357950 3.551853
0.764115 1.656632 3.487786
0.779593 1.658404 3.488307
0.807401 1.661588 3.489242
0.866911 1.668401 3.491243
0.994263 1.682982 3.495525
1.266797 1.714185 3.504689
1.850024 1.780959 3.524301
3.098139 1.923857 3.566270
5.769122 2.229660 3.656085
1.455300 3.522103 3.710844
1.470779 3.523875 3.711364
1.498587 3.527059 3.712299
1.558096 3.533873 3.714300
1.685448 3.548453 3.718583
1.957982 3.579656 3.727747
2.541209 3.646430 3.747359
3.789324 3.789328 3.789328
6.460307 4.095131 3.879142
2.934447 7.514238 4.188190
2.949925 7.516011 4.188711
2.977733 7.519194 4.189646
3.037243 7.526008 4.191647
3.164594 7.540588 4.195929
3.437129 7.571791 4.205093
4.020356 7.638565 4.224705
5.268470 7.781463 4.266674
7.939453 8.087266 4.356488
0.369165 0.092203 7.083099
0.384643 0.093975 7.083619
0.412451 0.097158 7.084555
0.471961 0.103972 7.086556
0.599313 0.118552 7.090838
0.871847 0.149755 7.100002
1.455074 0.216529 7.119614
2.703189 0.359427 7.161583
5.374172 0.665230 7.251397
0.377737 0.115337 7.085865
0.393215 0.117109 7.086386
0.421023 0.120293 7.087321
0.480533 0.127106 7.089322
0.607884 0.141687 7.093604
0.880419 0.172890 7.102768
1.463646 0.239664 7.122380
2.711760 0.382561 7.164349
5.382743 0.688365 7.254164
0.393136 0.156900 7.090835
0.408615 0.158672 7.091355
0.436423 0.161856 7.092290
0.495933 0.168669 7.094292
0.623284 0.183250 7.098574
0.895818 0.214452 7.107738
1.479045 0.281227 7.127350
2.727160 0.424124 7.169319
5.398143 0.729927 7.259133
0.426092 0.245845 7.101470
0.441570 0.247617 7.101991
0.469378 0.250801 7.102926
0.528888 0.257614 7.104927
0.656240 0.272195 7.109209
0.928774 0.303397 7.118373
1.512001 0.370172 7.137985
2.760116 0.513069 7.179954
5.431099 0.818872 7.269769
0.496617 0.436189 7.124230
0.512095 0.437961 7.124750
0.539904 0.441144 7.125685
0.599413 0.447958 7.127687
0.726765 0.462538 7.131969
0.999299 0.493741 7.141133
1.582526 0.560515 7.160745
2.830641 0.703413 7.202714
5.501624 1.009216 7.292528
0.647542 0.843527 7.172936
0.663020 0.845299 7.173457
0.690828 0.848483 7.174392
0.750338 0.855296 7.176393
0.877690 0.869877 7.180675
1.150224 0.901079 7.189839
1.733451 0.967853 7.209451
2.981566 1.110751 7.251420
5.652549 1.416554 7.341234
0.970524 1.715236 7.277168
0.986002 1.717008 7.277688
1.013810 1.720192 7.278623
1.073320 1.727006 7.280624
1.200671 1.741586 7.284907
1.473206 1.772789 7.294071
2.056433 1.839563 7.313683
3.304547 1.982461 7.355652
5.975530 2.288264 7.445466
1.661709 3.580707 7.500225
1.677187 3.582480 7.500746
1.704995 3.585663 7.501681
1.764505 3.592477 7.503682
1.891857 3.607057 7.507964
2.164391 3.638260 7.517129
2.747618 3.705034 7.536740
3.995732 3.847932 7.578709
6.666716 4.153735 7.668524
3.140855 7.572843 7.977572
3.156334 7.574615 7.978092
3.184142 7.577799 7.979027
3.243651 7.584612 7.981028
3.371003 7.599192 7.985311
3.643537 7.630395 7.994475
4.226764 7.697169 8.014087
5.474879 7.840067 8.056056
8.145862 8.145870 8.145870
