post_production/PixelLog_to_AgX_Punchy_65.cube
# PixelLog to AgX (Punchy) Rec.709 Display Transform 3D LUT
# Architecture: AgX Display Rendering Transform (Troy Sobotka / Blender 4.0+)
# Target Device: Google Pixel 11 Pro Primary Sensor (Tensor G6)
# Transform: Pixel-Log BT.2020 -> Scene-Linear -> BT.2020 to Rec.709 -> AgX Inset -> Log2 EV -> Sigmoid -> Outset
LUT_3D_SIZE 5
DOMAIN_MIN 0.0 0.0 0.0
DOMAIN_MAX 1.0 1.0 1.0
0.000000 0.000000 0.000000
0.390629 0.000000 0.000000
0.933219 0.000000 0.000000
1.000000 0.000000 0.191698
1.000000 0.000000 0.669061
0.000000 0.232600 0.000000
0.211533 0.194883 0.000000
0.856861 0.082083 0.000000
1.000000 0.000000 0.185524
1.000000 0.000000 0.667487
0.000000 0.662532 0.000000
0.000000 0.660370 0.000000
0.591745 0.571602 0.000000
1.000000 0.455962 0.000000
1.000000 0.000000 0.642647
0.000000 1.000000 0.000000
0.000000 1.000000 0.000000
0.000000 1.000000 0.000000
0.918109 0.903795 0.000000
1.000000 0.793529 0.296583
0.000000 1.000000 0.000000
0.000000 1.000000 0.000000
0.000000 1.000000 0.000000
0.000000 1.000000 0.000000
1.000000 1.000000 0.000000
0.000000 0.000000 0.291073
0.365673 0.000000 0.261632
0.901293 0.000000 0.253793
1.000000 0.000000 0.383131
1.000000 0.000000 0.726853
0.000000 0.225453 0.199018
0.188031 0.188032 0.188032
0.823089 0.075906 0.189824
1.000000 0.000000 0.379530
1.000000 0.000000 0.725545
0.000000 0.654362 0.024781
0.000000 0.650707 0.039358
0.576792 0.560622 0.022278
1.000000 0.439410 0.165331
1.000000 0.000000 0.694213
0.000000 1.000000 0.000000
0.000000 1.000000 0.000000
0.000000 1.000000 0.000000
0.906436 0.892744 0.000000
1.000000 0.787410 0.361604
0.000000 1.000000 0.000000
0.000000 1.000000 0.000000
0.000000 1.000000 0.000000
0.000000 1.000000 0.000000
1.000000 1.000000 0.113162
0.000000 0.000000 0.799980
0.320831 0.000000 0.767448
0.854189 0.000000 0.736571
1.000000 0.000000 0.748410
1.000000 0.000000 0.895204
0.000000 0.236024 0.712554
0.140754 0.199734 0.689309
0.751187 0.103761 0.652333
1.000000 0.000000 0.736338
1.000000 0.000000 0.894488
0.000000 0.611810 0.580261
0.000000 0.609461 0.583870
0.524408 0.524461 0.524464
1.000000 0.421017 0.538164
1.000000 0.000000 0.832005
0.000000 0.981216 0.424400
0.000000 0.980546 0.427751
0.000000 0.977685 0.441863
0.859974 0.848930 0.383909
1.000000 0.771335 0.545069
0.000000 1.000000 0.146582
0.000000 1.000000 0.152624
0.000000 1.000000 0.177610
0.000000 1.000000 0.273912
1.000000 1.000000 0.387336
0.000000 0.265145 1.000000
0.249463 0.225629 1.000000
0.711300 0.154788 1.000000
1.000000 0.000000 1.000000
1.000000 0.000000 1.000000
0.000000 0.384636 1.000000
0.142969 0.343363 1.000000
0.656328 0.275005 1.000000
1.000000 0.138425 1.000000
1.000000 0.000000 1.000000
0.000000 0.629299 1.000000
0.000000 0.627693 1.000000
0.485126 0.544023 0.954636
0.987546 0.459494 0.924540
1.000000 0.184524 1.000000
0.000000 0.939823 0.917814
0.000000 0.939480 0.918355
0.000000 0.937994 0.920683
0.814835 0.814967 0.814976
1.000000 0.755510 0.835053
0.000000 1.000000 0.837538
0.000000 1.000000 0.838052
0.000000 1.000000 0.840254
0.000000 1.000000 0.850006
0.984074 0.980178 0.747274
0.230546 0.625425 1.000000
0.355626 0.611053 1.000000
0.635316 0.576499 1.000000
0.971262 0.516766 1.000000
1.000000 0.338239 1.000000
0.173630 0.656601 1.000000
0.313794 0.640759 1.000000
0.613447 0.604650 1.000000
0.958837 0.546760 1.000000
1.000000 0.392655 1.000000
0.000000 0.777115 1.000000
0.090907 0.747167 1.000000
0.520892 0.698793 1.000000
0.916243 0.643284 1.000000
1.000000 0.545771 1.000000
0.000000 0.964222 1.000000
0.000000 0.964020 1.000000
0.000000 0.963145 1.000000
0.797225 0.834629 1.000000
1.000000 0.789664 1.000000
0.000000 1.000000 1.000000
0.000000 1.000000 1.000000
0.000000 1.000000 1.000000
0.000000 1.000000 1.000000
0.961547 0.961739 0.961751
