post_production/PixelLog_to_Rec709_Display.cube
# PixelLog to Rec.709 Display Transform LUT
# Target Device: Google Pixel 11 Pro Primary Sensor
# Color Science: Bespoke asinh Pixel-Log Curve
# Transform: Pixel-Log BT.2020 -> Scene-Linear -> Gamut Compress -> Filmic Knee -> BT.1886
TITLE "PixelLog_to_Rec709_Display"
LUT_3D_SIZE 33
DOMAIN_MIN 0.0 0.0 0.0
DOMAIN_MAX 1.0 1.0 1.0
0.000000 0.000000 0.000000
0.000000 0.000000 0.000000
0.000000 0.000000 0.000000
0.000000 0.000000 0.000000
0.000000 0.000000 0.000000
0.000000 0.000000 0.000000
0.000000 0.000000 0.000000
0.163566 0.000000 0.000000
0.188801 0.000000 0.000000
0.216249 0.000000 0.000000
0.246598 0.000000 0.000000
0.280590 0.000000 0.000000
0.319042 0.000000 0.000000
0.362868 0.000000 0.000000
0.413064 0.000000 0.000000
0.470687 0.000000 0.000000
0.536788 0.000000 0.000000
0.612307 0.000000 0.000000
0.697919 0.000000 0.000000
0.793298 0.000000 0.000000
0.897538 0.000000 0.000000
1.000000 0.000000 0.000000
1.000000 0.000000 0.000000
1.000000 0.000000 0.000000
1.000000 0.000000 0.000000
1.000000 0.000000 0.000000
1.000000 0.000000 0.000000
1.000000 0.000000 0.129732
1.000000 0.000000 0.213529
1.000000 0.000000 0.281576
1.000000 0.000000 0.344346
1.000000 0.000000 0.404292
1.000000 0.000000 0.462143
0.000000 0.000000 0.000000
0.000000 0.000000 0.000000
0.000000 0.000000 0.000000
0.000000 0.000000 0.000000
0.000000 0.000000 0.000000
0.000000 0.000000 0.000000
0.000000 0.000000 0.000000
0.162629 0.000000 0.000000
0.188282 0.000000 0.000000
0.216066 0.000000 0.000000
0.246691 0.000000 0.000000
0.280909 0.000000 0.000000
0.319543 0.000000 0.000000
0.363507 0.000000 0.000000
0.413799 0.000000 0.000000
0.471472 0.000000 0.000000
0.537577 0.000000 0.000000
0.613052 0.000000 0.000000
0.698574 0.000000 0.000000
0.793777 0.000000 0.000000
0.897846 0.000000 0.000000
1.000000 0.000000 0.000000
1.000000 0.000000 0.000000
1.000000 0.000000 0.000000
1.000000 0.000000 0.000000
1.000000 0.000000 0.000000
1.000000 0.000000 0.000000
1.000000 0.000000 0.129964
1.000000 0.000000 0.213709
1.000000 0.000000 0.281729
1.000000 0.000000 0.344475
1.000000 0.000000 0.404399
1.000000 0.000000 0.462230
0.000000 0.000000 0.000000
0.000000 0.000000 0.000000
0.000000 0.000000 0.000000
0.000000 0.000000 0.000000
0.000000 0.000000 0.000000
0.000000 0.000000 0.000000
0.136391 0.000000 0.000000
0.161368 0.000000 0.000000
0.187562 0.000000 0.000000
0.215776 0.000000 0.000000
0.246753 0.000000 0.000000
0.281257 0.000000 0.000000
0.320122 0.000000 0.000000
0.364262 0.000000 0.000000
0.414675 0.000000 0.000000
0.472415 0.000000 0.000000
0.538528 0.000000 0.000000
0.613953 0.000000 0.000000
0.699366 0.000000 0.000000
0.794355 0.000000 0.000000
0.898213 0.000000 0.000000
1.000000 0.000000 0.000000
1.000000 0.000000 0.000000
1.000000 0.000000 0.000000
1.000000 0.000000 0.000000
1.000000 0.000000 0.000000
1.000000 0.000000 0.000000
1.000000 0.000000 0.130253
1.000000 0.000000 0.213933
1.000000 0.000000 0.281919
1.000000 0.000000 0.344635
1.000000 0.000000 0.404531
1.000000 0.000000 0.462338
0.000000 0.000000 0.000000
0.000000 0.000000 0.000000
0.000000 0.000000 0.000000
0.000000 0.000000 0.000000
0.078089 0.000000 0.000000
0.107438 0.000000 0.000000
0.133705 0.000000 0.000000
0.159642 0.000000 0.000000
0.186547 0.000000 0.000000
0.215319 0.000000 0.000000
0.246747 0.000000 0.000000
0.281619 0.000000 0.000000
0.320777 0.000000 0.000000
0.365143 0.000000 0.000000
0.415714 0.000000 0.000000
0.473541 0.000000 0.000000
0.539670 0.000000 0.000000
0.615037 0.000000 0.000000
0.700322 0.000000 0.000000
0.795049 0.000000 0.000000
0.898650 0.000000 0.000000
1.000000 0.000000 0.000000
1.000000 0.000000 0.000000
1.000000 0.000000 0.000000
1.000000 0.000000 0.000000
1.000000 0.000000 0.000000
1.000000 0.000000 0.000000
1.000000 0.000000 0.130615
1.000000 0.000000 0.214213
1.000000 0.000000 0.282156
1.000000 0.000000 0.344835
1.000000 0.000000 0.404696
1.000000 0.000000 0.462472
0.000000 0.070244 0.000000
0.000000 0.069081 0.000000
0.000000 0.067577 0.000000
0.000000 0.065598 0.000000
0.067378 0.062941 0.000000
0.101558 0.059277 0.000000
0.129967 0.054005 0.000000
0.157236 0.045810 0.000000
0.185093 0.030077 0.000000
0.214599 0.000000 0.000000
0.246613 0.000000 0.000000
0.281959 0.000000 0.000000
0.321497 0.000000 0.000000
0.366154 0.000000 0.000000
0.416930 0.000000 0.000000
0.474875 0.000000 0.000000
0.541032 0.000000 0.000000
0.616335 0.000000 0.000000
0.701466 0.000000 0.000000
0.795875 0.000000 0.000000
0.899165 0.000000 0.000000
1.000000 0.000000 0.000000
1.000000 0.000000 0.000000
1.000000 0.000000 0.000000
1.000000 0.000000 0.000000
1.000000 0.000000 0.000000
1.000000 0.000000 0.000000
1.000000 0.000000 0.131069
1.000000 0.000000 0.214564
1.000000 0.000000 0.282453
1.000000 0.000000 0.345084
1.000000 0.000000 0.404903
1.000000 0.000000 0.462641
0.000000 0.094773 0.000000
0.000000 0.094086 0.000000
0.000000 0.093210 0.000000
0.000000 0.092078 0.000000
0.047515 0.090601 0.000000
0.092800 0.088645 0.000000
0.124625 0.086011 0.000000
0.153812 0.082387 0.000000
0.182978 0.077237 0.000000
0.213465 0.069539 0.000000
0.246250 0.056815 0.000000
0.282215 0.026166 0.000000
0.322245 0.000000 0.000000
0.367282 0.000000 0.000000
0.418328 0.000000 0.000000
0.476433 0.000000 0.000000
0.542636 0.000000 0.000000
0.617873 0.000000 0.000000
0.702824 0.000000 0.000000
0.796849 0.000000 0.000000
0.899760 0.000000 0.000000
1.000000 0.000000 0.000000
1.000000 0.000000 0.000000
1.000000 0.000000 0.000000
1.000000 0.000000 0.000000
1.000000 0.000000 0.000000
1.000000 0.000000 0.000000
1.000000 0.000000 0.131641
1.000000 0.000000 0.215004
1.000000 0.000000 0.282824
1.000000 0.000000 0.345396
1.000000 0.000000 0.405161
1.000000 0.000000 0.462851
0.000000 0.117887 0.000000
0.000000 0.117446 0.000000
0.000000 0.116885 0.000000
0.000000 0.116164 0.000000
0.000000 0.115228 0.000000
0.078608 0.114000 0.000000
0.116706 0.112370 0.000000
0.148826 0.110173 0.000000
0.179852 0.107160 0.000000
0.211679 0.102930 0.000000
0.245495 0.096794 0.000000
0.282275 0.087426 0.000000
0.322952 0.071608 0.000000
0.368487 0.032362 0.000000
0.419891 0.000000 0.000000
0.478215 0.000000 0.000000
0.544495 0.000000 0.000000
0.619666 0.000000 0.000000
0.704387 0.000000 0.000000
0.797975 0.000000 0.000000
0.900431 0.000000 0.000000
1.000000 0.000000 0.000000
1.000000 0.000000 0.000000
1.000000 0.000000 0.000000
1.000000 0.000000 0.000000
1.000000 0.000000 0.000000
1.000000 0.000000 0.000000
1.000000 0.000000 0.132363
1.000000 0.000000 0.215558
1.000000 0.000000 0.283291
1.000000 0.000000 0.345788
1.000000 0.000000 0.405485
1.000000 0.000000 0.463115
0.000000 0.141605 0.000000
0.000000 0.141322 0.000000
0.000000 0.140961 0.000000
0.000000 0.140497 0.000000
0.000000 0.139894 0.000000
0.049410 0.139103 0.000000
0.104261 0.138052 0.000000
0.141345 0.136640 0.000000
0.175147 0.134715 0.000000
0.208861 0.132048 0.000000
0.244082 0.128278 0.000000
0.281954 0.122806 0.000000
0.323489 0.114572 0.000000
0.369684 0.101405 0.000000
0.421567 0.077256 0.000000
0.480192 0.000000 0.000000
0.546596 0.000000 0.000000
0.621712 0.000000 0.000000
0.706061 0.000000 0.000000
0.799244 0.000000 0.000000
0.901159 0.000000 0.000000
1.000000 0.000000 0.000000
1.000000 0.000000 0.000000
1.000000 0.000000 0.000000
1.000000 0.000000 0.000000
1.000000 0.000000 0.000000
1.000000 0.000000 0.000000
1.000000 0.000000 0.133278
1.000000 0.000000 0.216254
1.000000 0.000000 0.283877
1.000000 0.000000 0.346279
1.000000 0.000000 0.405891
1.000000 0.000000 0.463446
0.000000 0.167040 0.000000
0.000000 0.166868 0.000000
0.000000 0.166648 0.000000
0.000000 0.166363 0.000000
0.000000 0.165989 0.000000
0.000000 0.165494 0.000000
0.082161 0.164831 0.000000
0.129604 0.163933 0.000000
0.167905 0.162700 0.000000
0.204397 0.160982 0.000000
0.241587 0.158550 0.000000
0.280947 0.155048 0.000000
0.323634 0.149897 0.000000
0.370713 0.142104 0.000000
0.423242 0.129799 0.000000
0.482287 0.108655 0.000000
0.548887 0.059994 0.000000
0.623975 0.000000 0.000000
0.707903 0.000000 0.000000
0.800620 0.000000 0.000000
0.901899 0.000000 0.000000
1.000000 0.000000 0.000000
1.000000 0.000000 0.000000
1.000000 0.000000 0.000000
1.000000 0.000000 0.000000
1.000000 0.000000 0.000000
1.000000 0.000000 0.000000
1.000000 0.000000 0.134437
1.000000 0.000000 0.217132
1.000000 0.000000 0.284613
1.000000 0.000000 0.346895
1.000000 0.000000 0.406401
1.000000 0.000000 0.463861
0.000000 0.195051 0.000000
0.000000 0.194960 0.000000
0.000000 0.194841 0.000000
0.000000 0.194685 0.000000
0.000000 0.194475 0.000000
0.000000 0.194193 0.000000
0.000000 0.193805 0.000000
0.109561 0.193268 0.000000
0.156379 0.192512 0.000000
0.197259 0.191436 0.000000
0.237321 0.189885 0.000000
0.278763 0.187618 0.000000
0.323026 0.184261 0.000000
0.371303 0.179215 0.000000
0.424713 0.171477 0.000000
0.484345 0.159243 0.000000
0.551250 0.138727 0.000000
0.626363 0.098178 0.000000
0.709828 0.000000 0.000000
0.802025 0.000000 0.000000
0.902569 0.000000 0.000000
1.000000 0.000000 0.000000
1.000000 0.000000 0.000000
1.000000 0.000000 0.000000
1.000000 0.000000 0.000000
1.000000 0.000000 0.000000
1.000000 0.000000 0.000000
1.000000 0.000000 0.135911
1.000000 0.000000 0.218240
1.000000 0.000000 0.285538
1.000000 0.000000 0.347669
1.000000 0.000000 0.407040
1.000000 0.000000 0.464381
0.000000 0.226410 0.000000
0.000000 0.226376 0.000000
0.000000 0.226331 0.000000
0.000000 0.226266 0.000000
0.000000 0.226175 0.000000
0.000000 0.226044 0.000000
0.000000 0.225853 0.000000
0.065008 0.225571 0.000000
0.136865 0.225153 0.000000
0.185620 0.224527 0.000000
0.230144 0.223584 0.000000
0.274608 0.222154 0.000000
0.321078 0.219976 0.000000
0.371008 0.216639 0.000000
0.425631 0.211495 0.000000
0.486093 0.203481 0.000000
0.553464 0.190748 0.000000
0.628549 0.169897 0.000000
0.711678 0.132842 0.000000
0.803313 0.000000 0.000000
0.903028 0.000000 0.000000
1.000000 0.000000 0.000000
1.000000 0.000000 0.000000
1.000000 0.000000 0.000000
1.000000 0.000000 0.000000
1.000000 0.000000 0.000000
1.000000 0.000000 0.000000
1.000000 0.000000 0.137787
1.000000 0.000000 0.219640
1.000000 0.000000 0.286703
1.000000 0.000000 0.348641
1.000000 0.000000 0.407842
1.000000 0.000000 0.465034
0.000000 0.261851 0.000000
0.000000 0.261857 0.000000
0.000000 0.261860 0.000000
0.000000 0.261858 0.000000
0.000000 0.261847 0.000000
0.000000 0.261819 0.000000
0.000000 0.261762 0.000000
0.000000 0.261656 0.000000
0.097870 0.261469 0.000000
0.165799 0.261152 0.000000
0.218077 0.260625 0.000000
0.267190 0.259767 0.000000
0.316861 0.258385 0.000000
0.369118 0.256182 0.000000
0.425438 0.252695 0.000000
0.487077 0.247201 0.000000
0.555159 0.238537 0.000000
0.630233 0.225203 0.000000
0.713178 0.203870 0.000000
0.804239 0.167343 0.000000
0.903046 0.081645 0.000000
1.000000 0.000000 0.000000
1.000000 0.000000 0.000000
1.000000 0.000000 0.000000
1.000000 0.000000 0.000000
1.000000 0.000000 0.000000
1.000000 0.000000 0.000000
1.000000 0.000000 0.140179
1.000000 0.000000 0.221410
1.000000 0.000000 0.288168
1.000000 0.000000 0.349861
1.000000 0.000000 0.408848
1.000000 0.000000 0.465852
0.000000 0.302060 0.000000
0.000000 0.302088 0.000000
0.000000 0.302120 0.000000
0.000000 0.302155 0.000000
0.000000 0.302191 0.000000
0.000000 0.302225 0.000000
0.000000 0.302248 0.000000
0.000000 0.302249 0.000000
0.000000 0.302205 0.000000
0.127799 0.302082 0.000000
0.197291 0.301821 0.000000
0.254315 0.301332 0.000000
0.308886 0.300469 0.000000
0.364528 0.299007 0.000000
0.423265 0.296600 0.000000
0.486589 0.292715 0.000000
0.555472 0.286683 0.000000
0.631010 0.277315 0.000000
0.713896 0.262798 0.000000
0.804416 0.240057 0.000000
0.902271 0.202844 0.000000
1.000000 0.130022 0.000000
1.000000 0.000000 0.000000
1.000000 0.000000 0.000000
1.000000 0.000000 0.000000
1.000000 0.000000 0.000000
1.000000 0.000000 0.000000
1.000000 0.000000 0.143232
1.000000 0.000000 0.223649
1.000000 0.000000 0.290013
1.000000 0.000000 0.351393
1.000000 0.000000 0.410109
1.000000 0.000000 0.466877
0.000000 0.347623 0.000000
0.000000 0.347659 0.000000
0.000000 0.347700 0.000000
0.000000 0.347748 0.000000
0.000000 0.347802 0.000000
0.000000 0.347859 0.000000
0.000000 0.347916 0.000000
0.000000 0.347964 0.000000
0.000000 0.347986 0.000000
0.000000 0.347958 0.000000
0.158228 0.347835 0.000000
0.231888 0.347547 0.000000
0.294689 0.346980 0.000000
0.355507 0.345959 0.000000
0.417732 0.344218 0.000000
0.483340 0.341391 0.000000
0.553776 0.336912 0.000000
0.630135 0.329942 0.000000
0.713182 0.319254 0.000000
0.803268 0.303008 0.000000
0.900185 0.278284 0.000000
1.000000 0.239683 0.000000
1.000000 0.172411 0.000000
1.000000 0.000000 0.000000
1.000000 0.000000 0.000000
1.000000 0.000000 0.000000
1.000000 0.000000 0.000000
1.000000 0.000000 0.147130
1.000000 0.000000 0.226486
1.000000 0.000000 0.292336
1.000000 0.000000 0.353316
1.000000 0.000000 0.411690
1.000000 0.000000 0.468162
0.000000 0.398938 0.000000
0.000000 0.398967 0.000000
0.000000 0.399002 0.000000
0.000000 0.399042 0.000000
0.000000 0.399087 0.000000
0.000000 0.399135 0.000000
0.000000 0.399183 0.000000
0.000000 0.399223 0.000000
0.000000 0.399244 0.000000
0.000000 0.399219 0.000000
0.000000 0.399100 0.000000
0.190601 0.398847 0.000000
0.270035 0.398372 0.000000
0.339373 0.397541 0.000000
0.406918 0.396148 0.000000
0.476078 0.393888 0.000000
0.548839 0.390313 0.000000
0.626547 0.384776 0.000000
0.710108 0.376364 0.000000
0.799976 0.363790 0.000000
0.896058 0.345241 0.000000
0.997577 0.318040 0.000000
1.000000 0.277696 0.000000
1.000000 0.213857 0.000000
1.000000 0.029134 0.000000
1.000000 0.000000 0.000000
1.000000 0.000000 0.000000
1.000000 0.000000 0.152101
1.000000 0.000000 0.230079
1.000000 0.000000 0.295259
1.000000 0.000000 0.355728
1.000000 0.000000 0.413671
1.000000 0.000000 0.469770
0.000000 0.455927 0.000000
0.000000 0.455935 0.000000
0.000000 0.455944 0.000000
0.000000 0.455952 0.000000
0.000000 0.455958 0.000000
0.000000 0.455961 0.000000
0.000000 0.455954 0.000000
0.000000 0.455931 0.000000
0.000000 0.455879 0.000000
0.000000 0.455779 0.000000
0.000000 0.455600 0.000000
0.082731 0.455293 0.000000
0.225965 0.454784 0.000000
0.311809 0.453958 0.000000
0.388082 0.452644 0.000000
0.462675 0.450590 0.000000
0.538945 0.447431 0.000000
0.618798 0.442647 0.000000
0.703417 0.435519 0.000000
0.793434 0.425070 0.000000
0.888910 0.410005 0.000000
0.989248 0.388614 0.000000
1.000000 0.358590 0.000000
1.000000 0.316478 0.000000
1.000000 0.255552 0.000000
1.000000 0.150643 0.000000
1.000000 0.000000 0.000000
1.000000 0.000000 0.158423
1.000000 0.000000 0.234629
1.000000 0.000000 0.298937
1.000000 0.000000 0.358752
1.000000 0.000000 0.416149
1.000000 0.000000 0.471780
0.000000 0.518161 0.000000
0.000000 0.518144 0.000000
0.000000 0.518121 0.000000
0.000000 0.518090 0.000000
0.000000 0.518049 0.000000
0.000000 0.517994 0.000000
0.000000 0.517916 0.000000
0.000000 0.517808 0.000000
0.000000 0.517656 0.000000
0.000000 0.517437 0.000000
0.000000 0.517122 0.000000
0.000000 0.516663 0.000000
0.124796 0.515992 0.000000
0.263756 0.515007 0.000000
0.356612 0.513559 0.000000
0.440080 0.511431 0.000000
0.521778 0.508316 0.000000
0.604989 0.503784 0.000000
0.691487 0.497248 0.000000
0.782223 0.487930 0.000000
0.877489 0.474831 0.000000
0.976913 0.456710 0.000000
1.000000 0.432074 0.000000
1.000000 0.399126 0.000000
1.000000 0.355569 0.000000
1.000000 0.297784 0.000000
1.000000 0.216774 0.000000
1.000000 0.000000 0.166423
1.000000 0.000000 0.240380
1.000000 0.000000 0.303559
1.000000 0.000000 0.362539
1.000000 0.000000 0.419247
1.000000 0.000000 0.474292
0.000000 0.584786 0.000000
0.000000 0.584737 0.000000
0.000000 0.584675 0.000000
0.000000 0.584597 0.000000
0.000000 0.584496 0.000000
0.000000 0.584368 0.000000
0.000000 0.584201 0.000000
0.000000 0.583984 0.000000
0.000000 0.583698 0.000000
0.000000 0.583321 0.000000
0.000000 0.582818 0.000000
0.000000 0.582141 0.000000
0.000000 0.581221 0.000000
0.163094 0.579963 0.000000
0.303634 0.578231 0.000000
0.403642 0.575831 0.000000
0.494207 0.572496 0.000000
0.582711 0.567862 0.000000
0.672322 0.561435 0.000000
0.764625 0.552579 0.000000
0.860291 0.540488 0.000000
0.959248 0.524201 0.000000
1.000000 0.502621 0.000000
1.000000 0.474584 0.000000
1.000000 0.438932 0.000000
1.000000 0.394593 0.000000
1.000000 0.340564 0.047425
1.000000 0.275674 0.176473
1.000000 0.197472 0.247631
1.000000 0.093092 0.309357
1.000000 0.000000 0.367273
1.000000 0.087253 0.423112
1.000000 0.205056 0.477424
0.000000 0.654231 0.000000
0.000000 0.654148 0.000000
0.000000 0.654044 0.000000
0.000000 0.653915 0.000000
0.000000 0.653751 0.000000
0.000000 0.653544 0.000000
0.000000 0.653281 0.000000
0.000000 0.652945 0.000000
0.000000 0.652516 0.000000
0.000000 0.651964 0.000000
0.000000 0.651251 0.000000
0.000000 0.650325 0.000000
0.000000 0.649116 0.000000
0.000000 0.647529 0.000000
0.201164 0.645434 0.000000
0.344940 0.642653 0.000000
0.451758 0.638947 0.000000
0.548930 0.633997 0.000000
0.643572 0.627382 0.000000
0.738686 0.618567 0.000000
0.835630 0.606888 0.000000
0.934774 0.591568 0.000000
1.000000 0.571749 0.000000
1.000000 0.546573 0.000000
1.000000 0.515307 0.000000
1.000000 0.477519 0.000000
1.000000 0.433331 0.087774
1.000000 0.383826 0.188973
1.000000 0.331854 0.256726
1.000000 0.283819 0.316604
1.000000 0.252391 0.373174
1.000000 0.253512 0.427924
1.000000 0.289648 0.481320
0.000000 0.724383 0.000000
0.000000 0.724269 0.000000
0.000000 0.724127 0.000000
0.000000 0.723950 0.000000
0.000000 0.723727 0.000000
0.000000 0.723447 0.000000
0.000000 0.723094 0.000000
0.000000 0.722648 0.000000
0.000000 0.722083 0.000000
0.000000 0.721365 0.000000
0.000000 0.720453 0.000000
0.000000 0.719289 0.000000
0.000000 0.717800 0.000000
0.000000 0.715890 0.000000
0.000000 0.713429 0.000000
0.239863 0.710252 0.000000
0.386807 0.706137 0.000000
0.499614 0.700799 0.000000
0.602524 0.693871 0.000000
0.702312 0.684894 0.000000
0.801764 0.673311 0.000000
0.901986 0.658477 0.000000
1.000000 0.639695 0.000000
1.000000 0.616287 0.000000
1.000000 0.587711 0.000000
1.000000 0.553734 0.000000
1.000000 0.514676 0.119863
1.000000 0.471734 0.204324
1.000000 0.427491 0.268051
1.000000 0.386614 0.325623
1.000000 0.356423 0.380505
1.000000 0.345632 0.433895
1.000000 0.359422 0.486155
0.000000 0.792819 0.000000
0.000000 0.792680 0.000000
0.000000 0.792507 0.000000
0.000000 0.792292 0.000000
0.000000 0.792022 0.000000
0.000000 0.791684 0.000000
0.000000 0.791259 0.000000
0.000000 0.790725 0.000000
0.000000 0.790051 0.000000
0.000000 0.789202 0.000000
0.000000 0.788130 0.000000
0.000000 0.786775 0.000000
0.000000 0.785060 0.000000
0.000000 0.782887 0.000000
0.000000 0.780129 0.000000
0.000000 0.776625 0.000000
0.279293 0.772169 0.000000
0.428317 0.766499 0.000000
0.545873 0.759290 0.000000
0.653340 0.750139 0.000000
0.757046 0.738571 0.000000
0.859517 0.724039 0.000000
0.961606 0.705960 0.000000
1.000000 0.683773 0.000000
1.000000 0.657039 0.000000
1.000000 0.625587 0.000000
1.000000 0.589715 0.151384
1.000000 0.550447 0.222900
1.000000 0.509861 0.282016
1.000000 0.471454 0.336769
1.000000 0.440345 0.389564
1.000000 0.422681 0.441274
1.000000 0.423452 0.492131
0.000000 0.857135 0.000000
0.000000 0.856981 0.000000
0.000000 0.856789 0.000000
0.000000 0.856550 0.000000
0.000000 0.856251 0.000000
0.000000 0.855876 0.000000
0.000000 0.855406 0.000000
0.000000 0.854816 0.000000
0.000000 0.854075 0.000000
0.000000 0.853143 0.000000
0.000000 0.851971 0.000000
0.000000 0.850498 0.000000
0.000000 0.848644 0.000000
0.000000 0.846310 0.000000
0.000000 0.843373 0.000000
0.000000 0.839677 0.000000
0.000000 0.835026 0.000000
0.319298 0.829180 0.000000
0.468682 0.821842 0.000000
0.589430 0.812656 0.000000
0.700055 0.801205 0.000000
0.806328 0.787016 0.000000
0.910470 0.769591 0.000000
1.000000 0.748446 0.000000
1.000000 0.723202 0.000000
1.000000 0.693698 0.098019
1.000000 0.660158 0.184309
1.000000 0.623393 0.245006
1.000000 0.585040 0.299019
1.000000 0.547801 0.350420
1.000000 0.515553 0.400681
1.000000 0.493045 0.450339
1.000000 0.484746 0.499482
0.000000 0.915310 0.000000
0.000000 0.915149 0.000000
0.000000 0.914951 0.000000
0.000000 0.914703 0.000000
0.000000 0.914394 0.000000
0.000000 0.914006 0.000000
0.000000 0.913521 0.000000
0.000000 0.912912 0.000000
0.000000 0.912148 0.000000
0.000000 0.911189 0.000000
0.000000 0.909986 0.000000
0.000000 0.908477 0.000000
0.000000 0.906584 0.000000
0.000000 0.904211 0.000000
0.000000 0.901237 0.000000
0.000000 0.897513 0.000000
0.000000 0.892856 0.000000
0.000000 0.887042 0.000000
0.359679 0.879800 0.000000
0.507380 0.870808 0.000000
0.629569 0.859695 0.000000
0.741847 0.846043 0.000000
0.849303 0.829411 0.000000
0.953821 0.809374 0.000000
1.000000 0.785584 0.061622
1.000000 0.757868 0.160322
1.000000 0.726364 0.219492
1.000000 0.691682 0.270848
1.000000 0.655095 0.319404
1.000000 0.618716 0.366946
1.000000 0.585592 0.414200
1.000000 0.559541 0.461396
1.000000 0.544496 0.508469
0.000000 0.965946 0.000000
0.000000 0.965790 0.000000
0.000000 0.965596 0.000000
0.000000 0.965354 0.000000
0.000000 0.965052 0.000000
0.000000 0.964673 0.000000
0.000000 0.964199 0.000000
0.000000 0.963606 0.000000
0.000000 0.962861 0.000000
0.000000 0.961927 0.000000
0.000000 0.960757 0.000000
0.000000 0.959290 0.000000
0.000000 0.957454 0.000000
0.000000 0.955155 0.000000
0.000000 0.952281 0.000000
0.000000 0.948691 0.000000
0.000000 0.944216 0.000000
0.000000 0.938647 0.000000
0.152104 0.931739 0.000000
0.400301 0.923197 0.000000
0.544203 0.912687 0.000000
0.666019 0.899834 0.000000
0.778418 0.884240 0.000000
0.885713 0.865515 0.097137
0.989407 0.843328 0.163190
1.000000 0.817487 0.212592
1.000000 0.788041 0.257317
1.000000 0.755421 0.300498
1.000000 0.720593 0.343421
1.000000 0.685209 0.386669
1.000000 0.651692 0.430455
1.000000 0.623166 0.474754
1.000000 0.603064 0.519369
0.000000 1.000000 0.000000
0.000000 1.000000 0.000000
0.000000 1.000000 0.000000
0.000000 1.000000 0.000000
0.000000 1.000000 0.000000
0.000000 1.000000 0.000000
0.000000 1.000000 0.000000
0.000000 1.000000 0.000000
0.000000 1.000000 0.000000
0.000000 1.000000 0.000000
0.000000 1.000000 0.000000
0.000000 1.000000 0.000000
0.000000 1.000000 0.000000
0.000000 0.998334 0.000000
0.000000 0.995670 0.000000
0.000000 0.992346 0.000000
0.000000 0.988207 0.000000
0.000000 0.983065 0.000000
0.000000 0.976694 0.000000
0.239522 0.968830 0.000000
0.441101 0.959168 0.063176
0.579225 0.947369 0.119927
0.698888 0.933069 0.159417
0.809920 0.915904 0.194716
0.915777 0.895551 0.228813
1.000000 0.871790 0.262975
1.000000 0.844590 0.297871
1.000000 0.814223 0.333875
1.000000 0.781393 0.371176
1.000000 0.747370 0.409818
1.000000 0.714075 0.449726
1.000000 0.684070 0.490707
1.000000 0.660321 0.532458
0.000000 1.000000 0.098579
0.000000 1.000000 0.099157
0.000000 1.000000 0.099868
0.000000 1.000000 0.100743
0.000000 1.000000 0.101822
0.000000 1.000000 0.103152
0.000000 1.000000 0.104784
0.000000 1.000000 0.106783
0.000000 1.000000 0.109219
0.000000 1.000000 0.112171
0.000000 1.000000 0.115730
0.000000 1.000000 0.119989
0.000000 1.000000 0.125051
0.000000 1.000000 0.131022
0.000000 1.000000 0.138010
0.000000 1.000000 0.146126
0.000000 1.000000 0.155481
0.000000 1.000000 0.166185
0.000000 1.000000 0.178350
0.000000 1.000000 0.192087
0.310355 0.998544 0.207506
0.482061 0.987995 0.224719
0.612699 0.975196 0.243829
0.728551 0.959806 0.264938
0.836807 0.941506 0.288131
0.940030 0.920051 0.313477
1.000000 0.895338 0.341012
1.000000 0.867500 0.370737
1.000000 0.837016 0.402600
1.000000 0.804828 0.436485
1.000000 0.772438 0.472205
1.000000 0.741921 0.509491
1.000000 0.715807 0.547986
0.000000 1.000000 0.240976
0.000000 1.000000 0.241137
0.000000 1.000000 0.241338
0.000000 1.000000 0.241588
0.000000 1.000000 0.241899
0.000000 1.000000 0.242289
0.000000 1.000000 0.242775
0.000000 1.000000 0.243383
0.000000 1.000000 0.244144
0.000000 1.000000 0.245092
0.000000 1.000000 0.246276
0.000000 1.000000 0.247749
0.000000 1.000000 0.249581
0.000000 1.000000 0.251851
0.000000 1.000000 0.254657
0.000000 1.000000 0.258113
0.000000 1.000000 0.262352
0.000000 1.000000 0.267524
