post_production/PixelLog_to_Rec709_Display_65.cube
# PixelLog to Rec.709 Display Transform 3D LUT
# Target Device: Google Pixel 11 Pro Primary Sensor (Tensor G6)
# Transform: Pixel-Log BT.2020 -> Scene-Linear -> BT.2020 to Rec.709 -> Rational Tone Map -> Rec.709 OETF
# Middle Grey (0.40) -> 42.0 IRE | Diffuse White (1.0) -> 90.0 IRE | Highlight Ceiling -> 99.8 IRE
LUT_3D_SIZE 5
DOMAIN_MIN 0.0 0.0 0.0
DOMAIN_MAX 1.0 1.0 1.0
0.000000 0.000000 0.000000
0.221959 0.000000 0.000000
0.725641 0.000000 0.000000
1.000000 0.000000 0.000000
1.000000 0.000000 0.219198
0.000000 0.176321 0.000000
0.175947 0.166037 0.000000
0.739277 0.068243 0.000000
1.000000 0.000000 0.000000
1.000000 0.000000 0.223212
0.000000 0.667954 0.000000
0.000000 0.664120 0.000000
0.659687 0.638077 0.000000
1.000000 0.438420 0.000000
1.000000 0.000000 0.240802
0.000000 1.000000 0.000000
0.000000 1.000000 0.000000
0.000000 1.000000 0.000000
1.000000 0.987454 0.000000
1.000000 0.648307 0.317547
0.000000 1.000000 0.422780
0.000000 1.000000 0.424050
0.000000 1.000000 0.429442
0.295083 1.000000 0.452449
1.000000 1.000000 0.533045
0.000000 0.000000 0.000000
0.217220 0.000000 0.158961
0.726570 0.000000 0.181539
1.000000 0.000000 0.167143
1.000000 0.000000 0.280938
0.000000 0.177131 0.161483
0.166386 0.166386 0.166386
0.738700 0.066170 0.177100
1.000000 0.000000 0.151489
1.000000 0.000000 0.282920
0.000000 0.668357 0.118546
0.000000 0.664323 0.116193
0.655255 0.637643 0.105521
1.000000 0.437505 0.089702
1.000000 0.000000 0.292615
0.000000 1.000000 0.000000
0.000000 1.000000 0.000000
0.000000 1.000000 0.000000
1.000000 0.986380 0.101076
1.000000 0.648107 0.346771
0.000000 1.000000 0.435143
0.000000 1.000000 0.436325
0.000000 1.000000 0.441349
0.294686 1.000000 0.462885
1.000000 1.000000 0.539430
0.000000 0.000000 0.507357
0.191487 0.000000 0.529092
0.728860 0.000000 0.598744
1.000000 0.000000 0.640304
1.000000 0.000000 0.463422
0.000000 0.179846 0.556056
0.114126 0.167159 0.572156
0.734782 0.056647 0.621773
1.000000 0.000000 0.628863
1.000000 0.000000 0.461321
0.000000 0.669590 0.634609
0.000000 0.664743 0.636078
0.635503 0.635503 0.635503
1.000000 0.433588 0.575301
1.000000 0.000000 0.454355
0.000000 1.000000 0.448103
0.000000 1.000000 0.446566
0.000000 1.000000 0.440545
1.000000 0.981787 0.423894
1.000000 0.647252 0.451639
0.000000 1.000000 0.484664
0.000000 1.000000 0.485524
0.000000 1.000000 0.489196
0.292981 1.000000 0.505249
1.000000 1.000000 0.566039
0.000000 0.000000 1.000000
0.000000 0.000000 1.000000
0.707937 0.000000 1.000000
1.000000 0.000000 1.000000
1.000000 0.000000 0.894186
0.000000 0.177935 1.000000
0.000000 0.157070 1.000000
0.690090 0.009088 1.000000
1.000000 0.000000 1.000000
1.000000 0.000000 0.886086
0.000000 0.666582 1.000000
0.000000 0.658989 1.000000
0.532615 0.621377 1.000000
1.000000 0.416463 1.000000
1.000000 0.000000 0.854204
0.000000 1.000000 1.000000
0.000000 1.000000 1.000000
0.000000 1.000000 1.000000
0.961572 0.961572 0.961572
1.000000 0.643524 0.755839
0.000000 1.000000 0.661440
0.000000 1.000000 0.661420
0.000000 1.000000 0.661369
0.285345 1.000000 0.661780
1.000000 1.000000 0.672339
0.000000 0.000000 1.000000
0.000000 0.000000 1.000000
0.125600 0.000000 1.000000
1.000000 0.000000 1.000000
1.000000 0.000000 1.000000
0.000000 0.038176 1.000000
0.000000 0.002233 1.000000
0.000000 0.000000 1.000000
1.000000 0.000000 1.000000
1.000000 0.000000 1.000000
0.000000 0.581596 1.000000
0.000000 0.571846 1.000000
0.000000 0.530414 1.000000
1.000000 0.358603 1.000000
1.000000 0.000000 1.000000
0.000000 1.000000 1.000000
0.000000 1.000000 1.000000
0.000000 0.987576 1.000000
0.788693 0.883992 1.000000
1.000000 0.629915 1.000000
0.000000 1.000000 1.000000
0.000000 1.000000 1.000000
0.000000 1.000000 1.000000
0.254007 1.000000 1.000000
0.997970 0.997970 0.997970
