post_production/PixelLog_to_AgX_Rec709_65.cube
# PixelLog to AgX (Base) Rec.709 Display Transform 3D LUT
# Architecture: AgX Display Rendering Transform (Troy Sobotka / Blender 4.0+)
# Target Device: Google Pixel 11 Pro Primary Sensor (Tensor G6)
# Transform: Pixel-Log BT.2020 -> Scene-Linear -> BT.2020 to Rec.709 -> AgX Inset -> Log2 EV -> Sigmoid -> Outset
LUT_3D_SIZE 5
DOMAIN_MIN 0.0 0.0 0.0
DOMAIN_MAX 1.0 1.0 1.0
0.000000 0.000000 0.000000
0.426339 0.000000 0.000000
0.812676 0.000000 0.000000
1.000000 0.000000 0.312797
1.000000 0.000000 0.655175
0.000000 0.325116 0.000000
0.313778 0.300026 0.000000
0.777893 0.230534 0.000000
1.000000 0.000000 0.307717
1.000000 0.000000 0.654163
0.000000 0.705954 0.000000
0.000000 0.704247 0.000000
0.676795 0.664165 0.000000
0.977815 0.582297 0.228409
1.000000 0.021160 0.638367
0.000000 0.984742 0.000000
0.000000 0.984515 0.000000
0.000000 0.983526 0.000000
0.926518 0.918580 0.045601
1.000000 0.843603 0.546792
0.000000 1.000000 0.000000
0.000000 1.000000 0.000000
0.000000 1.000000 0.000000
0.000000 1.000000 0.000000
1.000000 1.000000 0.383780
0.000000 0.000000 0.329055
0.401724 0.000000 0.320355
0.780776 0.000000 0.343533
1.000000 0.000000 0.458574
1.000000 0.000000 0.691869
0.000000 0.315522 0.293945
0.289973 0.290003 0.290005
0.744476 0.221518 0.314733
1.000000 0.000000 0.455933
1.000000 0.000000 0.691043
0.000000 0.683763 0.235504
0.000000 0.681059 0.247580
0.647255 0.637153 0.261017
0.963814 0.572714 0.387821
1.000000 0.058151 0.672642
0.000000 0.976900 0.012445
0.000000 0.974269 0.040434
0.000000 0.965417 0.132037
0.904983 0.897406 0.297176
1.000000 0.840599 0.588639
0.000000 1.000000 0.000000
0.000000 1.000000 0.000000
0.000000 1.000000 0.000000
0.000000 1.000000 0.000000
1.000000 1.000000 0.463498
0.000000 0.066234 0.698451
0.379896 0.021258 0.682490
0.754803 0.000000 0.682623
1.000000 0.000000 0.702883
1.000000 0.000000 0.795382
0.000000 0.347778 0.673489
0.278145 0.324167 0.659385
0.711607 0.271779 0.650780
0.996700 0.000000 0.694268
1.000000 0.000000 0.794949
0.000000 0.662080 0.642364
0.000000 0.660358 0.644371
0.619898 0.619994 0.620000
0.940867 0.567791 0.641127
1.000000 0.169274 0.768042
0.000000 0.928385 0.598254
0.000000 0.927983 0.600372
0.000000 0.926261 0.609259
0.879396 0.873307 0.600032
1.000000 0.833324 0.702631
0.000000 1.000000 0.439668
0.000000 1.000000 0.443928
0.000000 1.000000 0.461419
0.000000 1.000000 0.527129
0.998974 0.996459 0.639630
0.122348 0.394654 0.933682
0.394705 0.377780 0.922299
0.706208 0.341861 0.911518
0.959492 0.187629 0.917634
1.000000 0.000000 0.958634
0.000000 0.497131 0.936673
0.332650 0.473408 0.916627
0.686698 0.443460 0.903265
0.944249 0.351226 0.903650
1.000000 0.000000 0.958540
0.000000 0.688971 0.919879
0.000000 0.687783 0.920223
0.612580 0.648846 0.887950
0.916268 0.609432 0.881428
1.000000 0.396919 0.912525
0.000000 0.910587 0.898338
0.000000 0.910363 0.898607
0.000000 0.909391 0.899764
0.859216 0.859378 0.859388
1.000000 0.829425 0.873831
0.000000 1.000000 0.874399
0.000000 1.000000 0.874692
0.000000 1.000000 0.875945
0.000000 1.000000 0.881486
0.980874 0.978889 0.851908
0.450668 0.698742 1.000000
0.536807 0.694070 1.000000
0.717087 0.682313 1.000000
0.915299 0.654934 1.000000
1.000000 0.522227 1.000000
0.414894 0.719485 1.000000
0.512959 0.714389 1.000000
0.707575 0.702454 1.000000
0.912214 0.677126 1.000000
1.000000 0.565471 1.000000
0.141349 0.793366 1.000000
0.370861 0.782738 1.000000
0.663035 0.767710 1.000000
0.900841 0.747045 0.994426
1.000000 0.682590 0.996463
0.000000 0.928318 1.000000
0.000000 0.928177 1.000000
0.000000 0.927565 1.000000
0.857892 0.878696 0.984554
0.993741 0.858042 0.981454
0.000000 1.000000 1.000000
0.000000 1.000000 1.000000
0.000000 1.000000 1.000000
0.000000 1.000000 1.000000
0.971326 0.971528 0.971540
