post_production/PixelLog_to_DWG_Intermediate_33.cube
# PixelLog to DaVinci Wide Gamut / DaVinci Intermediate 3D LUT
# For DaVinci Resolve Free & Studio (enables built-in CST and DWG grading)
# Input: Pixel-Log BT.2020 [0, 1] -> Inverse -> BT.2020 to DWG -> DaVinci Intermediate Log
LUT_3D_SIZE 33
DOMAIN_MIN 0.0 0.0 0.0
DOMAIN_MAX 1.0 1.0 1.0
0.000000 0.000000 0.000000
0.000000 0.000000 0.000000
0.000000 0.000000 0.000000
0.000000 0.000000 0.000000
0.048932 0.000000 0.000000
0.098576 0.000000 0.000000
0.138096 0.000000 0.000000
0.171936 0.000000 0.000000
0.202190 0.000000 0.000000
0.230010 0.000000 0.000000
0.256097 0.000000 0.000000
0.280905 0.000000 0.000000
0.304748 0.000000 0.000000
0.327849 0.000000 0.000000
0.350370 0.000000 0.000230
0.372433 0.000000 0.040231
0.394131 0.000000 0.076824
0.415536 0.000000 0.108856
0.436706 0.005411 0.137900
0.457685 0.044636 0.164866
0.478508 0.079883 0.190328
0.499204 0.111055 0.214667
0.519797 0.139512 0.238151
0.540304 0.166058 0.260971
0.560742 0.191209 0.283272
0.581123 0.215313 0.305159
0.601457 0.238615 0.326717
0.621752 0.261294 0.348010
0.642015 0.283482 0.369088
0.662251 0.305281 0.389992
0.682466 0.326767 0.410755
0.702663 0.348002 0.431402
0.722845 0.369033 0.451954
0.000000 0.000000 0.000000
0.000000 0.000000 0.000000
0.000000 0.000000 0.000000
0.000000 0.000000 0.000000
0.050194 0.000000 0.000000
0.099367 0.000000 0.000000
0.138641 0.000000 0.000000
0.172332 0.000000 0.000000
0.202488 0.000000 0.000000
0.230239 0.000000 0.000000
0.256275 0.000000 0.000000
0.281046 0.000000 0.000000
0.304861 0.000000 0.000000
0.327940 0.000000 0.000000
0.350443 0.000000 0.006921
0.372492 0.000000 0.045998
0.394179 0.000000 0.080936
0.415576 0.021966 0.111908
0.436738 0.052417 0.140227
0.457711 0.080476 0.166674
0.478530 0.106735 0.191751
0.499222 0.131672 0.215799
0.519811 0.155614 0.239059
0.540317 0.178791 0.261704
0.560752 0.201371 0.283865
0.581132 0.223481 0.305642
0.601464 0.245218 0.327111
0.621757 0.266654 0.348332
0.642019 0.287848 0.369352
0.662255 0.308847 0.390209
0.682469 0.329686 0.410933
0.702666 0.350396 0.431548
0.722848 0.370999 0.452074
0.000000 0.000000 0.000000
0.000000 0.000000 0.000000
0.000000 0.000000 0.000000
0.000000 0.000000 0.000000
0.051442 0.000000 0.000000
0.100152 0.000000 0.000000
0.139183 0.000000 0.000000
0.172727 0.000000 0.000000
0.202785 0.000000 0.000000
0.230468 0.000000 0.000000
0.256454 0.000000 0.000000
0.281188 0.000000 0.000000
0.304974 0.000000 0.000000
0.328031 0.000000 0.000000
0.350516 0.002321 0.013611
0.372552 0.021343 0.051466
0.394228 0.043123 0.084894
0.415616 0.064739 0.114875
0.436771 0.086078 0.142504
0.457738 0.107194 0.168451
0.478551 0.128130 0.193156
0.499240 0.148917 0.216920
0.519826 0.169585 0.239959
0.540329 0.190154 0.262431
0.560763 0.210642 0.284455
0.581140 0.231064 0.306123
0.601471 0.251432 0.327503
0.621763 0.271755 0.348653
0.642024 0.292041 0.369615
0.662259 0.312296 0.390425
0.682473 0.332527 0.411111
0.702668 0.352737 0.431695
0.722850 0.372930 0.452195
0.000000 0.000000 0.000000
0.000000 0.000000 0.000000
0.000000 0.000000 0.000000
0.000000 0.000000 0.000000
0.052676 0.000000 0.000000
0.100932 0.000000 0.000000
0.139723 0.000000 0.000000
0.173120 0.000000 0.000000
0.203081 0.000000 0.000000
0.230696 0.000000 0.000000
0.256632 0.004231 0.000000
0.281329 0.013120 0.000000
0.305087 0.023871 0.000000
0.328121 0.036475 0.000000
0.350590 0.050006 0.020311
0.372611 0.064349 0.056672
0.394276 0.079442 0.088714
0.415655 0.095216 0.117765
0.436803 0.111603 0.144736
0.457764 0.128532 0.170202
0.478573 0.145938 0.194544
0.499258 0.163759 0.218030
0.519841 0.181939 0.240852
0.540341 0.200427 0.263154
0.560773 0.219176 0.285043
0.581148 0.238148 0.306602
0.601477 0.257309 0.327895
0.621769 0.276627 0.348974
0.642029 0.296079 0.369878
0.662263 0.315641 0.390641
0.682476 0.335297 0.411288
0.702671 0.355030 0.431841
0.722852 0.374828 0.452316
0.000000 0.023336 0.000000
0.000000 0.025420 0.000000
0.000000 0.027503 0.000000
0.000000 0.029567 0.000000
0.054048 0.031842 0.000000
0.101804 0.034531 0.000000
0.140328 0.037693 0.000000
0.173561 0.041396 0.000000
0.203414 0.045708 0.000000
0.230952 0.050699 0.000000
0.256833 0.056437 0.000000
0.281488 0.062985 0.000000
0.305214 0.070398 0.000000
0.328223 0.078721 0.000000
0.350672 0.087984 0.027849
0.372678 0.098200 0.062239
0.394331 0.109368 0.092854
0.415700 0.121467 0.120925
0.436840 0.134463 0.147193
0.457794 0.148306 0.172138
0.478598 0.162939 0.196085
0.499278 0.178296 0.219266
0.519858 0.194308 0.241849
0.540355 0.210906 0.263962
0.560784 0.228022 0.285700
0.581157 0.245591 0.307138
0.601485 0.263554 0.328334
0.621775 0.281855 0.349333
0.642034 0.300446 0.370174
0.662267 0.319283 0.390884
0.682479 0.338330 0.411488
0.702674 0.357553 0.432005
0.722854 0.376924 0.452451
0.000000 0.077679 0.000000
0.000000 0.078966 0.000000
0.000000 0.080238 0.000000
0.000000 0.081496 0.000000
0.055685 0.082894 0.000000
0.102848 0.084561 0.000000
0.141054 0.086543 0.000000
0.174093 0.088891 0.000000
0.203814 0.091663 0.000000
0.231261 0.094921 0.000000
0.257075 0.098733 0.000000
0.281680 0.103166 0.000000
0.305367 0.108292 0.000000
0.328347 0.114176 0.003227
0.350772 0.120882 0.036561
0.372759 0.128462 0.068603
0.394397 0.136958 0.097654
0.415754 0.146399 0.124625
0.436884 0.156794 0.150090
0.457831 0.168137 0.174433
0.478628 0.180407 0.197918
0.499303 0.193565 0.220741
0.519878 0.207560 0.243042
0.540371 0.222333 0.264931
0.560798 0.237818 0.286490
0.581169 0.253945 0.307783
0.601494 0.270645 0.328862
0.621783 0.287850 0.349767
0.642040 0.305497 0.370530
0.662272 0.323527 0.391177
0.682484 0.341886 0.411729
0.702678 0.360526 0.432204
0.722857 0.379405 0.452615
0.000000 0.119604 0.000000
0.000000 0.120471 0.000000
0.000000 0.121332 0.000000
0.000000 0.122186 0.000000
0.057630 0.123140 0.000000
0.104098 0.124282 0.000000
0.141926 0.125647 0.000000
0.174732 0.127275 0.000000
0.204297 0.129210 0.000000
0.231633 0.131505 0.000000
0.257367 0.134216 0.000000
0.281911 0.137405 0.000000
0.305552 0.141137 0.000000
0.328495 0.145482 0.014256
0.350892 0.150509 0.046221
0.372857 0.156287 0.075821
0.394477 0.162877 0.103182
0.415819 0.170336 0.128934
0.436937 0.178706 0.153492
0.457874 0.188017 0.177143
0.478664 0.198282 0.200095
0.499332 0.209498 0.222498
0.519902 0.221643 0.244468
0.540391 0.234683 0.266091
0.560814 0.248568 0.287437
0.581182 0.263239 0.308558
0.601506 0.278631 0.329497
0.621792 0.294675 0.350288
0.642048 0.311301 0.370958
0.662279 0.328442 0.391530
0.682489 0.346032 0.412020
0.702682 0.364013 0.432443
0.722861 0.382330 0.452812
0.000000 0.154871 0.000000
0.000000 0.155493 0.000000
0.000000 0.156112 0.000000
0.001286 0.156728 0.000000
0.059937 0.157417 0.000000
0.105590 0.158244 0.000000
0.142972 0.159235 0.000000
0.175499 0.160423 0.000000
0.204878 0.161841 0.000000
0.232082 0.163532 0.000000
0.257719 0.165541 0.000000
0.282190 0.167921 0.000000
0.305775 0.170730 0.000000
0.328675 0.174030 0.027595
0.351038 0.177890 0.056835
0.372975 0.182376 0.083940
0.394573 0.187561 0.109505
0.415898 0.193509 0.133921
0.437002 0.200283 0.157465
0.457927 0.207936 0.180332
0.478707 0.216508 0.202669
0.499368 0.226026 0.224585
0.519932 0.236498 0.246167
0.540416 0.247917 0.267478
0.560834 0.260260 0.288572
0.581199 0.273487 0.309488
0.601519 0.287548 0.330261
0.621803 0.302381 0.350916
0.642057 0.317920 0.371475
0.662286 0.334096 0.391955
0.682495 0.350840 0.412370
0.702687 0.368083 0.432732
0.722865 0.385763 0.453051
0.000000 0.186057 0.000000
0.000000 0.186520 0.000000
0.000000 0.186982 0.000000
0.005040 0.187442 0.000000
0.062661 0.187958 0.000000
0.107367 0.188578 0.000000
0.144223 0.189323 0.000000
0.176420 0.190218 0.000000
0.205576 0.191289 0.000000
0.232623 0.192571 0.000000
0.258143 0.194102 0.000000
0.282527 0.195923 0.000000
0.306045 0.198085 0.015832
0.328892 0.200642 0.042586
0.351214 0.203655 0.068394
0.373118 0.207188 0.092994
0.394689 0.211308 0.116678
0.415993 0.216087 0.139655
0.437080 0.221592 0.162078
0.457991 0.227889 0.184064
0.478760 0.235035 0.205700
0.499411 0.243080 0.227056
0.519967 0.252056 0.248185
0.540445 0.261984 0.269131
0.560858 0.272866 0.289928
0.581219 0.284686 0.310602
0.601536 0.297416 0.331177
0.621817 0.311008 0.351670
0.642068 0.325409 0.372096
0.662296 0.340555 0.392467
0.682503 0.356376 0.412793
0.702694 0.372805 0.433081
0.722870 0.389771 0.453338
0.000000 0.214522 0.000000
0.000000 0.214876 0.000000
0.000000 0.215230 0.000000
0.009580 0.215582 0.000000
0.065865 0.215977 0.000000
0.109477 0.216454 0.000000
0.145716 0.217027 0.000000
0.177524 0.217716 0.000000
0.206415 0.218543 0.000000
0.233273 0.219535 0.000000
0.258654 0.220723 0.000000
0.282933 0.222142 0.012280
0.306370 0.223833 0.035062
0.329154 0.225842 0.058268
0.351426 0.228223 0.080872
0.373291 0.231033 0.103000
0.394830 0.234335 0.124751
0.416108 0.238195 0.146199
0.437174 0.242683 0.167402
0.458069 0.247869 0.188409
0.478823 0.253819 0.209254
0.499463 0.260595 0.229969
0.520010 0.268249 0.250577
0.540480 0.276823 0.271097
0.560888 0.286342 0.291545
0.581243 0.296816 0.311934
0.601556 0.308237 0.332275
0.621833 0.320582 0.352575
0.642082 0.333811 0.372843
0.662307 0.347873 0.393083
0.682512 0.362707 0.413301
0.702701 0.378248 0.433501
0.722877 0.394425 0.453685
0.000000 0.241075 0.000000
0.000000 0.241350 0.000000
0.000000 0.241625 0.000000
0.015071 0.241900 0.000000
0.069614 0.242209 0.000000
0.111974 0.242580 0.000000
0.147495 0.243028 0.000000
0.178843 0.243567 0.000000
0.207420 0.244216 0.000000
0.234053 0.244995 0.001044
0.259269 0.245929 0.016812
0.283422 0.247049 0.035560
0.306762 0.248387 0.055010
0.329470 0.249984 0.074572
0.351682 0.251883 0.094227
0.373499 0.254135 0.113959
0.395000 0.256797 0.133756
0.416247 0.259929 0.153607
0.437288 0.263598 0.173503
0.458162 0.267871 0.193436
0.478900 0.272819 0.213399
0.499527 0.278510 0.233388
0.520062 0.285008 0.253399
0.540523 0.292367 0.273426
0.560923 0.300635 0.293469
0.581272 0.309840 0.313523
0.601580 0.319999 0.333587
0.621853 0.331110 0.353660
0.642098 0.343154 0.373739
0.662320 0.356097 0.393824
0.682523 0.369890 0.413913
0.702710 0.384477 0.434007
0.722884 0.399793 0.454103
0.000000 0.266230 0.000000
0.000000 0.266448 0.000000
0.000000 0.266665 0.000000
0.021712 0.266882 0.000000
0.073978 0.267125 0.000000
0.114917 0.267419 0.000000
0.149607 0.267773 0.000000
0.180417 0.268200 0.005777
0.208624 0.268714 0.016555
0.234990 0.269333 0.029569
0.260007 0.270076 0.043988
0.284010 0.270968 0.059150
0.307234 0.272036 0.074987
0.329851 0.273315 0.091428
0.351991 0.274841 0.108406
0.373750 0.276657 0.125855
0.395205 0.278813 0.143714
0.416415 0.281364 0.161926
0.437426 0.284369 0.180440
0.458275 0.287893 0.199213
0.478993 0.292004 0.218205
0.499603 0.296771 0.237382
0.520125 0.302264 0.256714
0.540575 0.308548 0.276177
0.560966 0.315681 0.295749
0.581307 0.323711 0.315413
0.601609 0.332672 0.335153
0.621877 0.342585 0.354956
0.642118 0.353452 0.374813
0.662337 0.365258 0.394713
0.682537 0.377973 0.414649
0.702722 0.391552 0.434615
0.722894 0.405941 0.454607
0.000000 0.290338 0.000000
0.000000 0.290511 0.003951
0.000000 0.290684 0.008421
0.029719 0.290857 0.012897
0.079027 0.291051 0.017933
0.118371 0.291285 0.024025
0.152106 0.291568 0.031320
0.182290 0.291909 0.039576
0.210061 0.292320 0.048771
0.236112 0.292815 0.058920
0.260894 0.293411 0.070020
0.284717 0.294127 0.082054
0.307802 0.294986 0.094986
0.330310 0.296016 0.108771
0.352363 0.297249 0.123349
0.374053 0.298721 0.138657
0.395453 0.300475 0.154625
0.416617 0.302557 0.171183
0.437592 0.305023 0.188265
0.458411 0.307930 0.205803
0.479105 0.311342 0.223740
0.499695 0.315328 0.242018
0.520201 0.319956 0.260590
0.540638 0.325296 0.279411
0.561017 0.331413 0.298444
0.581350 0.338368 0.317655
0.601644 0.346212 0.337017
0.621906 0.354981 0.356504
0.642142 0.364699 0.376097
0.662357 0.375372 0.395778
0.682553 0.386989 0.415532
0.702735 0.399521 0.435347
0.722905 0.412929 0.455213
0.000000 0.313643 0.040409
0.000000 0.313782 0.044290
0.000000 0.313921 0.048033
0.038821 0.314060 0.051652
0.084827 0.314216 0.055583
0.122404 0.314404 0.060150
0.155052 0.314631 0.065422
0.184512 0.314906 0.071466
0.211774 0.315236 0.078343
0.237453 0.315635 0.086104
0.261956 0.316115 0.094788
0.285566 0.316693 0.104419
0.308485 0.317388 0.115005
0.330862 0.318222 0.126537
0.352812 0.319223 0.138988
0.374419 0.320420 0.152318
0.395751 0.321850 0.166474
0.416862 0.323555 0.181395
0.437792 0.325581 0.197014
0.458576 0.327980 0.213262
0.479240 0.330811 0.230068
0.499807 0.334136 0.247367
0.520293 0.338024 0.265095
0.540713 0.342543 0.283195
0.561080 0.347762 0.301614
0.581401 0.353748 0.320305
0.601687 0.360563 0.339228
0.621941 0.368259 0.358346
0.642171 0.376876 0.377630
0.662381 0.386439 0.397052
0.682573 0.396956 0.416590
0.702751 0.408421 0.436225
0.722918 0.420807 0.455941
0.000000 0.336324 0.077667
0.000000 0.336437 0.080409
0.000000 0.336549 0.083083
0.048876 0.336661 0.085694
0.091443 0.336787 0.088557
0.127083 0.336939 0.091919
0.158509 0.337122 0.095848
0.187139 0.337344 0.100413
0.213809 0.337612 0.105684
0.239053 0.337935 0.111726
0.263227 0.338324 0.118600
0.286584 0.338792 0.126359
0.309305 0.339356 0.135040
0.331527 0.340035 0.144669
0.353352 0.340849 0.155253
0.374859 0.341826 0.166782
0.396111 0.342996 0.179231
0.417157 0.344394 0.192558
0.438034 0.346060 0.206712
0.458775 0.348040 0.221632
0.479404 0.350388 0.237249
0.499942 0.353158 0.253495
0.520404 0.356416 0.270300
0.540805 0.360226 0.287598
0.561155 0.364658 0.305325
0.581464 0.369781 0.323423
0.601738 0.375664 0.341841
0.621984 0.382367 0.360532
0.642206 0.389945 0.379454
0.662410 0.398439 0.398572
0.682597 0.407877 0.417855
0.702771 0.418270 0.437277
0.722935 0.429612 0.456815
0.000000 0.358514 0.110116
0.000000 0.358605 0.112141
0.008363 0.358696 0.114128
0.059883 0.358787 0.116080
0.098928 0.358889 0.118236
0.132480 0.359013 0.120785
0.162544 0.359162 0.123789
0.190231 0.359342 0.127311
0.216220 0.359559 0.131420
0.240956 0.359822 0.136186
0.264744 0.360138 0.141677
0.287802 0.360520 0.147958
0.310289 0.360979 0.155089
0.332325 0.361532 0.163116
0.354001 0.362197 0.172075
0.375390 0.362997 0.181985
0.396545 0.363955 0.192849
0.417513 0.365103 0.204653
0.438326 0.366474 0.217365
0.459015 0.368110 0.230942
0.479602 0.370055 0.245329
0.500104 0.372361 0.260461
0.520538 0.375084 0.276271
0.540916 0.378287 0.292689
0.561247 0.382035 0.309646
0.581539 0.386398 0.327076
0.601800 0.391445 0.344919
0.622035 0.397244 0.363117
0.642249 0.403858 0.381620
0.662445 0.411341 0.400383
0.682626 0.419737 0.419366
0.702795 0.429074 0.438536
0.722954 0.439366 0.457862
0.000000 0.380314 0.139442
0.000000 0.380388 0.140980
0.025553 0.380462 0.142496
0.071826 0.380536 0.143993
0.107326 0.380619 0.145652
0.138660 0.380720 0.147624
0.167228 0.380841 0.149962
0.193854 0.380988 0.152722
0.219064 0.381165 0.155967
0.243213 0.381379 0.159762
0.266550 0.381637 0.164179
0.289256 0.381949 0.169285
0.311466 0.382324 0.175148
0.333282 0.382776 0.181831
0.354782 0.383321 0.189387
0.376027 0.383975 0.197859
0.397068 0.384762 0.207274
0.417941 0.385706 0.217643
0.438679 0.386836 0.228962
0.459305 0.388187 0.241207
0.479840 0.389798 0.254342
0.500301 0.391715 0.268316
0.520700 0.393987 0.283069
0.541049 0.396672 0.298536
0.561357 0.399831 0.314647
0.581630 0.403530 0.331332
0.601875 0.407837 0.348525
0.622097 0.412823 0.366161
0.642300 0.418554 0.384181
0.662487 0.425096 0.402532
0.682661 0.432503 0.421165
0.702824 0.440819 0.440038
0.722978 0.450074 0.459115
0.000000 0.401801 0.166609
0.000000 0.401862 0.167801
0.044827 0.401922 0.168979
0.084673 0.401983 0.170146
0.116665 0.402051 0.171444
0.145681 0.402133 0.172992
0.172628 0.402232 0.174836
0.198076 0.402352 0.177023
0.222404 0.402496 0.179610
0.245880 0.402671 0.182656
0.268694 0.402882 0.186226
0.290989 0.403137 0.190390
0.312873 0.403445 0.195216
0.334428 0.403815 0.200774
0.355718 0.404261 0.207127
0.376794 0.404799 0.214334
0.397696 0.405445 0.222441
0.418457 0.406222 0.231483
0.439103 0.407154 0.241476
0.459654 0.408270 0.252423
0.480128 0.409604 0.264307
0.500538 0.411196 0.277097
0.520896 0.413089 0.290747
0.541211 0.415335 0.305201
0.561490 0.417989 0.320395
0.581740 0.421113 0.336261
0.601966 0.424771 0.352729
0.622172 0.429034 0.369730
0.642362 0.433970 0.387198
0.662538 0.439647 0.405074
0.682703 0.446130 0.423301
0.702859 0.453475 0.441828
0.723007 0.461726 0.460611
0.000000 0.423037 0.192219
0.014510 0.423087 0.193155
0.064255 0.423136 0.194083
0.098376 0.423185 0.195004
0.126958 0.423241 0.196032
0.153594 0.423308 0.197261
0.178812 0.423389 0.198729
0.202967 0.423487 0.200477
0.226309 0.423606 0.202554
0.249018 0.423749 0.205013
0.271231 0.423922 0.207913
0.293048 0.424131 0.211316
0.314550 0.424383 0.215292
0.335797 0.424687 0.219909
0.356839 0.425054 0.225237
0.377713 0.425496 0.231341
0.398452 0.426027 0.238283
0.419078 0.426667 0.246111
0.439614 0.427435 0.254866
0.460075 0.428358 0.264568
0.480475 0.429462 0.275226
0.500824 0.430783 0.286827
0.521132 0.432359 0.299345
0.541406 0.434234 0.312739
0.561651 0.436458 0.326955
0.581873 0.439087 0.341931
0.602076 0.442182 0.357599
0.622263 0.445808 0.373891
0.642437 0.450035 0.390736
0.662600 0.454930 0.408069
0.682754 0.460563 0.425827
0.702901 0.466999 0.443953
0.723042 0.474293 0.462393
0.000000 0.444069 0.216669
0.043616 0.444110 0.217413
0.083797 0.444150 0.218152
0.112880 0.444191 0.218886
0.138202 0.444236 0.219706
0.162436 0.444291 0.220690
0.185838 0.444358 0.221868
0.208596 0.444439 0.223275
0.230846 0.444536 0.224952
0.252694 0.444653 0.226946
0.274219 0.444795 0.229309
0.295486 0.444967 0.232097
0.316544 0.445174 0.235374
0.337431 0.445424 0.239207
0.358179 0.445725 0.243664
0.378815 0.446088 0.248816
0.399358 0.446526 0.254729
0.419825 0.447053 0.261465
0.440229 0.447688 0.269078
0.460582 0.448450 0.277608
0.480893 0.449364 0.287082
0.501169 0.450459 0.297512
0.521417 0.451769 0.308889
0.541641 0.453332 0.321192
0.561845 0.455192 0.334381
0.582033 0.457399 0.348405
0.602208 0.460007 0.363205
0.622372 0.463079 0.378714
0.642527 0.466679 0.394863
0.662675 0.470876 0.411582
0.682816 0.475738 0.428805
0.702952 0.481336 0.446467
0.723084 0.487732 0.464509
0.024730 0.464936 0.240239
0.071232 0.464969 0.240834
0.103437 0.465002 0.241427
0.128119 0.465036 0.242016
0.150375 0.465073 0.242676
0.172227 0.465118 0.243468
0.193756 0.465173 0.244419
0.215026 0.465239 0.245557
0.236086 0.465319 0.246918
0.256975 0.465416 0.248541
0.277725 0.465532 0.250471
0.298362 0.465673 0.252759
0.318906 0.465844 0.255462
0.339373 0.466049 0.258641
0.359778 0.466297 0.262363
0.380132 0.466596 0.266696
0.400444 0.466957 0.271711
0.420720 0.467392 0.277474
0.440968 0.467915 0.284050
0.461192 0.468545 0.291493
0.481397 0.469302 0.299846
0.501585 0.470210 0.309140
0.521760 0.471297 0.319388
0.541925 0.472598 0.330587
0.562080 0.474151 0.342716
0.582227 0.475998 0.355741
0.602369 0.478191 0.369611
0.622505 0.480783 0.384269
0.642637 0.483836 0.399648
0.662765 0.487414 0.415681
0.682891 0.491587 0.432298
0.703014 0.496422 0.449429
0.723136 0.501990 0.467012
0.062642 0.485668 0.263126
0.097170 0.485695 0.263606
0.123156 0.485723 0.264084
0.144025 0.485750 0.264560
0.163440 0.485781 0.265093
0.182972 0.485818 0.265735
0.202602 0.485863 0.266506
0.222314 0.485917 0.267430
0.242095 0.485983 0.268538
0.261931 0.486062 0.269863
0.281815 0.486158 0.271443
0.301738 0.486274 0.273323
0.321694 0.486414 0.275553
0.341676 0.486584 0.278189
0.361681 0.486788 0.281292
0.381704 0.487035 0.284927
0.401742 0.487332 0.289163
0.421793 0.487691 0.294070
0.441855 0.488123 0.299715
0.461925 0.488643 0.306164
0.482003 0.489269 0.313471
0.502086 0.490022 0.321684
0.522174 0.490924 0.330834
0.542267 0.492006 0.340937
0.562363 0.493300 0.351992
0.582461 0.494843 0.363982
0.602562 0.496681 0.376873
0.622665 0.498862 0.390619
0.642769 0.501441 0.405161
0.662875 0.504478 0.420435
0.682981 0.508039 0.436373
0.703089 0.512191 0.452906
0.723197 0.517005 0.469963
0.095520 0.506290 0.285479
0.121868 0.506312 0.285868
0.142942 0.506335 0.286255
0.160529 0.506357 0.286641
0.177349 0.506382 0.287074
0.194660 0.506413 0.287596
0.212399 0.506450 0.288223
0.230507 0.506495 0.288977
0.248934 0.506549 0.289881
0.267631 0.506614 0.290965
0.286560 0.506693 0.292261
0.305683 0.506789 0.293807
0.324970 0.506904 0.295648
0.344396 0.507044 0.297833
0.363936 0.507212 0.300416
0.383574 0.507415 0.303458
0.403292 0.507661 0.307024
0.423077 0.507957 0.311183
0.442918 0.508314 0.316004
0.462805 0.508744 0.321555
0.482731 0.509262 0.327902
0.502689 0.509885 0.335102
0.522673 0.510634 0.343202
0.542679 0.511532 0.352236
0.562704 0.512609 0.362222
0.582743 0.513896 0.373162
0.602795 0.515433 0.385039
0.622858 0.517263 0.397822
0.642929 0.519434 0.411466
0.663007 0.522002 0.425914
0.683091 0.525026 0.441102
0.703179 0.528573 0.456963
0.723272 0.532709 0.473426
0.125135 0.526821 0.307409
0.145626 0.526840 0.307725
0.162784 0.526858 0.308040
0.177562 0.526877 0.308354
0.192043 0.526898 0.308707
0.207261 0.526923 0.309132
0.223149 0.526953 0.309644
0.239636 0.526990 0.310260
0.256655 0.527035 0.311000
0.274139 0.527089 0.311888
0.292028 0.527154 0.312953
0.310265 0.527233 0.314226
0.328802 0.527328 0.315746
0.347594 0.527443 0.317556
0.366602 0.527581 0.319704
0.385792 0.527749 0.322245
0.405136 0.527952 0.325239
0.424609 0.528196 0.328750
0.444189 0.528491 0.332847
0.463860 0.528846 0.337599
0.483605 0.529275 0.343075
0.503413 0.529791 0.349341
0.523273 0.530411 0.356454
0.543176 0.531157 0.364463
0.563115 0.532052 0.373403
0.583084 0.533125 0.383295
0.603077 0.534407 0.394140
0.623091 0.535939 0.405925
0.643121 0.537761 0.418621
0.663166 0.539925 0.432181
0.683222 0.542483 0.446552
0.703288 0.545498 0.461670
0.723362 0.549032 0.477468
0.152506 0.547279 0.329000
0.168661 0.547294 0.329258
0.182672 0.547309 0.329515
0.195058 0.547325 0.329772
0.207455 0.547342 0.330060
0.220733 0.547363 0.330408
0.234842 0.547388 0.330826
0.249719 0.547418 0.331331
0.265298 0.547455 0.331937
0.281509 0.547499 0.332667
0.298284 0.547553 0.333542
0.315555 0.547618 0.334591
0.333259 0.547696 0.335846
0.351338 0.547791 0.337345
0.369739 0.547906 0.339129
0.388415 0.548044 0.341248
0.407325 0.548211 0.343755
0.426432 0.548413 0.346711
0.445707 0.548657 0.350178
0.465121 0.548951 0.354225
0.484653 0.549305 0.358922
0.504282 0.549732 0.364337
0.523994 0.550246 0.370537
0.543774 0.550865 0.377580
0.563610 0.551608 0.385515
0.583494 0.552500 0.394380
0.603417 0.553569 0.404194
0.623372 0.554848 0.414963
0.643354 0.556375 0.426674
0.663359 0.558192 0.439297
0.683382 0.560349 0.452790
0.703420 0.562900 0.467098
0.723471 0.565906 0.482158
0.178264 0.567676 0.350320
0.191130 0.567688 0.350531
0.202599 0.567701 0.350741
0.212958 0.567714 0.350951
0.223517 0.567728 0.351187
0.235022 0.567745 0.351472
0.247448 0.567766 0.351815
0.260753 0.567791 0.352229
0.274887 0.567821 0.352727
0.289787 0.567858 0.353326
0.305388 0.567902 0.354047
0.321618 0.567955 0.354912
0.338410 0.568020 0.355949
0.355696 0.568098 0.357189
0.373413 0.568193 0.358670
0.391502 0.568307 0.360435
0.409913 0.568445 0.362530
0.428597 0.568612 0.365010
0.447514 0.568813 0.367934
0.466627 0.569056 0.371366
0.485906 0.569349 0.375373
0.505325 0.569703 0.380025
0.524860 0.570129 0.385391
0.544492 0.570641 0.391537
0.564206 0.571258 0.398523
0.583988 0.572000 0.406398
0.603826 0.572889 0.415201
0.623711 0.573956 0.424953
0.643635 0.575231 0.435659
0.663591 0.576754 0.447309
0.683574 0.578566 0.459873
0.703579 0.580718 0.473311
0.723603 0.583263 0.487567
0.202827 0.588023 0.371420
0.213152 0.588033 0.371593
0.222557 0.588043 0.371765
0.231205 0.588054 0.371938
0.240159 0.588066 0.372131
0.250065 0.588080 0.372365
0.260924 0.588097 0.372646
0.272723 0.588117 0.372986
0.285431 0.588142 0.373396
0.299004 0.588173 0.373889
0.313387 0.588209 0.374483
0.328516 0.588253 0.375196
0.344322 0.588307 0.376053
0.360737 0.588371 0.377079
0.377692 0.588450 0.378308
0.395120 0.588544 0.379775
0.412961 0.588658 0.381523
0.431157 0.588796 0.383600
0.449659 0.588962 0.386058
0.468420 0.589163 0.388956
