post_production/PixelLog_to_AgX_Punchy_65.cube
# PixelLog to AgX (Punchy) Rec.709 Display Transform 3D LUT
# Architecture: AgX Display Rendering Transform (Troy Sobotka / Blender 4.0+)
# Target Device: Google Pixel 11 Pro Primary Sensor (Tensor G6)
# Transform: Pixel-Log BT.2020 -> Scene-Linear -> BT.2020 to Rec.709 -> AgX Inset -> Log2 EV -> Sigmoid -> Outset
LUT_3D_SIZE 65
DOMAIN_MIN 0.0 0.0 0.0
DOMAIN_MAX 1.0 1.0 1.0
0.000000 0.000000 0.000000
0.000000 0.000000 0.000000
0.000000 0.000000 0.000000
0.000000 0.000000 0.000000
0.000000 0.000000 0.000000
0.021617 0.000000 0.000000
0.052534 0.000000 0.000000
0.085188 0.000000 0.000000
0.118638 0.000000 0.000000
0.152372 0.000000 0.000000
0.186223 0.000000 0.000000
0.220137 0.000000 0.000000
0.254105 0.000000 0.000000
0.288132 0.000000 0.000000
0.322225 0.000000 0.000000
0.356390 0.000000 0.000000
0.390629 0.000000 0.000000
0.424939 0.000000 0.000000
0.459314 0.000000 0.000000
0.493740 0.000000 0.000000
0.528202 0.000000 0.000000
0.562676 0.000000 0.000000
0.597139 0.000000 0.000000
0.631562 0.000000 0.000000
0.665911 0.000000 0.000000
0.700150 0.000000 0.000000
0.734242 0.000000 0.000000
0.768144 0.000000 0.000000
0.801813 0.000000 0.000000
0.835203 0.000000 0.000000
0.868267 0.000000 0.000000
0.900955 0.000000 0.000000
0.933219 0.000000 0.000000
0.964895 0.000000 0.000000
0.995913 0.000000 0.000000
1.000000 0.000000 0.000000
1.000000 0.000000 0.000000
1.000000 0.000000 0.000000
1.000000 0.000000 0.000000
1.000000 0.000000 0.000000
1.000000 0.000000 0.004486
1.000000 0.000000 0.024285
1.000000 0.000000 0.045858
1.000000 0.000000 0.068383
1.000000 0.000000 0.091652
1.000000 0.000000 0.115641
1.000000 0.000000 0.140327
1.000000 0.000000 0.165687
1.000000 0.000000 0.191698
1.000000 0.000000 0.218336
1.000000 0.000000 0.245575
1.000000 0.000000 0.273387
1.000000 0.000000 0.301740
1.000000 0.000000 0.330602
1.000000 0.000000 0.359935
1.000000 0.000000 0.389701
1.000000 0.000000 0.419857
1.000000 0.000000 0.450357
1.000000 0.000000 0.481152
1.000000 0.000000 0.512192
1.000000 0.000000 0.543422
1.000000 0.000000 0.574785
1.000000 0.000000 0.606221
1.000000 0.000000 0.637668
1.000000 0.000000 0.669061
0.000000 0.000000 0.000000
0.000000 0.000000 0.000000
0.000000 0.000000 0.000000
0.000000 0.000000 0.000000
0.000000 0.000000 0.000000
0.013273 0.000000 0.000000
0.043211 0.000000 0.000000
0.076300 0.000000 0.000000
0.110439 0.000000 0.000000
0.144882 0.000000 0.000000
0.179401 0.000000 0.000000
0.213929 0.000000 0.000000
0.248456 0.000000 0.000000
0.282990 0.000000 0.000000
0.317543 0.000000 0.000000
0.352126 0.000000 0.000000
0.386745 0.000000 0.000000
0.421403 0.000000 0.000000
0.456094 0.000000 0.000000
0.490810 0.000000 0.000000
0.525536 0.000000 0.000000
0.560253 0.000000 0.000000
0.594938 0.000000 0.000000
0.629564 0.000000 0.000000
0.664099 0.000000 0.000000
0.698510 0.000000 0.000000
0.732758 0.000000 0.000000
0.766803 0.000000 0.000000
0.800603 0.000000 0.000000
0.834113 0.000000 0.000000
0.867286 0.000000 0.000000
0.900075 0.000000 0.000000
0.932429 0.000000 0.000000
0.964198 0.000000 0.000000
0.995292 0.000000 0.000000
1.000000 0.000000 0.000000
1.000000 0.000000 0.000000
1.000000 0.000000 0.000000
1.000000 0.000000 0.000000
1.000000 0.000000 0.000000
1.000000 0.000000 0.004050
1.000000 0.000000 0.023872
1.000000 0.000000 0.045459
1.000000 0.000000 0.068008
1.000000 0.000000 0.091302
1.000000 0.000000 0.115313
1.000000 0.000000 0.140021
1.000000 0.000000 0.165402
1.000000 0.000000 0.191432
1.000000 0.000000 0.218089
1.000000 0.000000 0.245346
1.000000 0.000000 0.273175
1.000000 0.000000 0.301544
1.000000 0.000000 0.330421
1.000000 0.000000 0.359768
1.000000 0.000000 0.389547
1.000000 0.000000 0.419715
1.000000 0.000000 0.450227
1.000000 0.000000 0.481033
1.000000 0.000000 0.512083
1.000000 0.000000 0.543323
1.000000 0.000000 0.574694
1.000000 0.000000 0.606139
1.000000 0.000000 0.637593
1.000000 0.000000 0.668993
0.000000 0.000000 0.000000
0.000000 0.000000 0.000000
0.000000 0.000000 0.000000
0.000000 0.000000 0.000000
0.000000 0.000000 0.000000
0.006083 0.000000 0.000000
0.033912 0.000000 0.000000
0.067252 0.000000 0.000000
0.102065 0.000000 0.000000
0.137237 0.000000 0.000000
0.172450 0.000000 0.000000
0.207614 0.000000 0.000000
0.242718 0.000000 0.000000
0.277774 0.000000 0.000000
0.312800 0.000000 0.000000
0.347812 0.000000 0.000000
0.382820 0.000000 0.000000
0.417832 0.000000 0.000000
0.452846 0.000000 0.000000
0.487856 0.000000 0.000000
0.522851 0.000000 0.000000
0.557814 0.000000 0.000000
0.592724 0.000000 0.000000
0.627555 0.000000 0.000000
0.662279 0.000000 0.000000
0.696862 0.000000 0.000000
0.731267 0.000000 0.000000
0.765457 0.000000 0.000000
0.799389 0.000000 0.000000
0.833019 0.000000 0.000000
0.866303 0.000000 0.000000
0.899192 0.000000 0.000000
0.931638 0.000000 0.000000
0.963499 0.000000 0.000000
0.994670 0.000000 0.000000
1.000000 0.000000 0.000000
1.000000 0.000000 0.000000
1.000000 0.000000 0.000000
1.000000 0.000000 0.000000
1.000000 0.000000 0.000000
1.000000 0.000000 0.003613
1.000000 0.000000 0.023459
1.000000 0.000000 0.045059
1.000000 0.000000 0.067633
1.000000 0.000000 0.090950
1.000000 0.000000 0.114985
1.000000 0.000000 0.139715
1.000000 0.000000 0.165116
1.000000 0.000000 0.191167
1.000000 0.000000 0.217843
1.000000 0.000000 0.245117
1.000000 0.000000 0.272963
1.000000 0.000000 0.301348
1.000000 0.000000 0.330240
1.000000 0.000000 0.359601
1.000000 0.000000 0.389394
1.000000 0.000000 0.419574
1.000000 0.000000 0.450097
1.000000 0.000000 0.480914
1.000000 0.000000 0.511974
1.000000 0.000000 0.543223
1.000000 0.000000 0.574604
1.000000 0.000000 0.606056
1.000000 0.000000 0.637518
1.000000 0.000000 0.668925
0.000000 0.000000 0.000000
0.000000 0.000000 0.000000
0.000000 0.000000 0.000000
0.000000 0.000000 0.000000
0.000000 0.000000 0.000000
0.000000 0.000000 0.000000
0.024798 0.000000 0.000000
0.058064 0.000000 0.000000
0.093516 0.000000 0.000000
0.129433 0.000000 0.000000
0.165363 0.000000 0.000000
0.201187 0.000000 0.000000
0.236888 0.000000 0.000000
0.272483 0.000000 0.000000
0.307995 0.000000 0.000000
0.343446 0.000000 0.000000
0.378853 0.000000 0.000000
0.414226 0.000000 0.000000
0.449568 0.000000 0.000000
0.484878 0.000000 0.000000
0.520145 0.000000 0.000000
0.555357 0.000000 0.000000
0.590495 0.000000 0.000000
0.625535 0.000000 0.000000
0.660449 0.000000 0.000000
0.695205 0.000000 0.000000
0.729770 0.000000 0.000000
0.764105 0.000000 0.000000
0.798170 0.000000 0.000000
0.831922 0.000000 0.000000
0.865316 0.000000 0.000000
0.898306 0.000000 0.000000
0.930844 0.000000 0.000000
0.962799 0.000000 0.000000
0.994047 0.000000 0.000000
1.000000 0.000000 0.000000
1.000000 0.000000 0.000000
1.000000 0.000000 0.000000
1.000000 0.000000 0.000000
1.000000 0.000000 0.000000
1.000000 0.000000 0.003175
1.000000 0.000000 0.023045
1.000000 0.000000 0.044659
1.000000 0.000000 0.067258
1.000000 0.000000 0.090599
1.000000 0.000000 0.114657
1.000000 0.000000 0.139408
1.000000 0.000000 0.164831
1.000000 0.000000 0.190901
1.000000 0.000000 0.217596
1.000000 0.000000 0.244889
1.000000 0.000000 0.272751
1.000000 0.000000 0.301152
1.000000 0.000000 0.330059
1.000000 0.000000 0.359434
1.000000 0.000000 0.389240
1.000000 0.000000 0.419432
1.000000 0.000000 0.449967
1.000000 0.000000 0.480795
1.000000 0.000000 0.511866
1.000000 0.000000 0.543124
1.000000 0.000000 0.574513
1.000000 0.000000 0.605973
1.000000 0.000000 0.637443
1.000000 0.000000 0.668857
0.000000 0.000000 0.000000
0.000000 0.000000 0.000000
0.000000 0.000000 0.000000
0.000000 0.000000 0.000000
0.000000 0.000000 0.000000
0.000000 0.000000 0.000000
0.016168 0.000000 0.000000
0.048773 0.000000 0.000000
0.084791 0.000000 0.000000
0.121463 0.000000 0.000000
0.158136 0.000000 0.000000
0.194643 0.000000 0.000000
0.230963 0.000000 0.000000
0.267114 0.000000 0.000000
0.303126 0.000000 0.000000
0.339028 0.000000 0.000000
0.374843 0.000000 0.000000
0.410584 0.000000 0.000000
0.446261 0.000000 0.000000
0.481875 0.000000 0.000000
0.517420 0.000000 0.000000
0.552885 0.000000 0.000000
0.588253 0.000000 0.000000
0.623503 0.000000 0.000000
0.658609 0.000000 0.000000
0.693541 0.000000 0.000000
0.728266 0.000000 0.000000
0.762748 0.000000 0.000000
0.796947 0.000000 0.000000
0.830821 0.000000 0.000000
0.864326 0.000000 0.000000
0.897417 0.000000 0.000000
0.930048 0.000000 0.000000
0.962098 0.000000 0.000000
0.993422 0.000000 0.000000
1.000000 0.000000 0.000000
1.000000 0.000000 0.000000
1.000000 0.000000 0.000000
1.000000 0.000000 0.000000
1.000000 0.000000 0.000000
1.000000 0.000000 0.002737
1.000000 0.000000 0.022631
1.000000 0.000000 0.044259
1.000000 0.000000 0.066882
1.000000 0.000000 0.090247
1.000000 0.000000 0.114328
1.000000 0.000000 0.139102
1.000000 0.000000 0.164545
1.000000 0.000000 0.190636
1.000000 0.000000 0.217349
1.000000 0.000000 0.244660
1.000000 0.000000 0.272539
1.000000 0.000000 0.300956
1.000000 0.000000 0.329877
1.000000 0.000000 0.359267
1.000000 0.000000 0.389086
1.000000 0.000000 0.419291
1.000000 0.000000 0.449837
1.000000 0.000000 0.480676
1.000000 0.000000 0.511757
1.000000 0.000000 0.543024
1.000000 0.000000 0.574422
1.000000 0.000000 0.605891
1.000000 0.000000 0.637368
1.000000 0.000000 0.668789
0.000000 0.000000 0.000000
0.000000 0.000000 0.000000
0.000000 0.000000 0.000000
0.000000 0.000000 0.000000
0.000000 0.000000 0.000000
0.000000 0.000000 0.000000
0.008526 0.000000 0.000000
0.039445 0.000000 0.000000
0.075896 0.000000 0.000000
0.113324 0.000000 0.000000
0.150763 0.000000 0.000000
0.187980 0.000000 0.000000
0.224940 0.000000 0.000000
0.261665 0.000000 0.000000
0.298192 0.000000 0.000000
0.334557 0.000000 0.000000
0.370788 0.000000 0.000000
0.406906 0.000000 0.000000
0.442925 0.000000 0.000000
0.478848 0.000000 0.000000
0.514674 0.000000 0.000000
0.550395 0.000000 0.000000
0.585996 0.000000 0.000000
0.621459 0.000000 0.000000
0.656759 0.000000 0.000000
0.691869 0.000000 0.000000
0.726756 0.000000 0.000000
0.761385 0.000000 0.000000
0.795719 0.000000 0.000000
0.829716 0.000000 0.000000
0.863333 0.000000 0.000000
0.896527 0.000000 0.000000
0.929250 0.000000 0.000000
0.961396 0.000000 0.000000
0.992795 0.000000 0.000000
1.000000 0.000000 0.000000
1.000000 0.000000 0.000000
1.000000 0.000000 0.000000
1.000000 0.000000 0.000000
1.000000 0.000000 0.000000
1.000000 0.000000 0.002299
1.000000 0.000000 0.022216
1.000000 0.000000 0.043858
1.000000 0.000000 0.066506
1.000000 0.000000 0.089895
1.000000 0.000000 0.113999
1.000000 0.000000 0.138795
1.000000 0.000000 0.164259
1.000000 0.000000 0.190370
1.000000 0.000000 0.217102
1.000000 0.000000 0.244430
1.000000 0.000000 0.272327
1.000000 0.000000 0.300760
1.000000 0.000000 0.329696
1.000000 0.000000 0.359100
1.000000 0.000000 0.388932
1.000000 0.000000 0.419149
1.000000 0.000000 0.449707
1.000000 0.000000 0.480557
1.000000 0.000000 0.511648
1.000000 0.000000 0.542925
1.000000 0.000000 0.574331
1.000000 0.000000 0.605808
1.000000 0.000000 0.637293
1.000000 0.000000 0.668721
0.000000 0.000000 0.000000
0.000000 0.000000 0.000000
0.000000 0.000000 0.000000
0.000000 0.000000 0.000000
0.000000 0.000000 0.000000
0.000000 0.000000 0.000000
0.000303 0.000000 0.000000
0.030170 0.000000 0.000000
0.066815 0.000000 0.000000
0.104989 0.000000 0.000000
0.143219 0.000000 0.000000
0.181173 0.000000 0.000000
0.218797 0.000000 0.000000
0.256117 0.000000 0.000000
0.293177 0.000000 0.000000
0.330018 0.000000 0.000000
0.366677 0.000000 0.000000
0.403181 0.000000 0.000000
0.439548 0.000000 0.000000
0.475787 0.000000 0.000000
0.511899 0.000000 0.000000
0.547881 0.000000 0.000000
0.583719 0.000000 0.000000
0.619398 0.000000 0.000000
0.654895 0.000000 0.000000
0.690184 0.000000 0.000000
0.725235 0.000000 0.000000
0.760013 0.000000 0.000000
0.794483 0.000000 0.000000
0.828604 0.000000 0.000000
0.862334 0.000000 0.000000
0.895630 0.000000 0.000000
0.928447 0.000000 0.000000
0.960692 0.000000 0.000000
0.992165 0.000000 0.000000
1.000000 0.000000 0.000000
1.000000 0.000000 0.000000
1.000000 0.000000 0.000000
1.000000 0.000000 0.000000
1.000000 0.000000 0.000000
1.000000 0.000000 0.001858
1.000000 0.000000 0.021800
1.000000 0.000000 0.043455
1.000000 0.000000 0.066128
1.000000 0.000000 0.089542
1.000000 0.000000 0.113669
1.000000 0.000000 0.138486
1.000000 0.000000 0.163972
1.000000 0.000000 0.190103
1.000000 0.000000 0.216854
1.000000 0.000000 0.244201
1.000000 0.000000 0.272114
1.000000 0.000000 0.300563
1.000000 0.000000 0.329514
1.000000 0.000000 0.358932
1.000000 0.000000 0.388777
1.000000 0.000000 0.419007
1.000000 0.000000 0.449577
1.000000 0.000000 0.480437
1.000000 0.000000 0.511538
1.000000 0.000000 0.542825
1.000000 0.000000 0.574240
1.000000 0.000000 0.605725
1.000000 0.000000 0.637218
1.000000 0.000000 0.668653
0.000000 0.015451 0.000000
0.000000 0.014773 0.000000
0.000000 0.014102 0.000000
0.000000 0.013438 0.000000
0.000000 0.012781 0.000000
0.000000 0.012132 0.000000
0.000000 0.011490 0.000000
0.016874 0.008750 0.000000
0.053696 0.004138 0.000000
0.093109 0.000000 0.000000
0.132713 0.000000 0.000000
0.171731 0.000000 0.000000
0.210351 0.000000 0.000000
0.248605 0.000000 0.000000
0.286551 0.000000 0.000000
0.324270 0.000000 0.000000
0.361942 0.000000 0.000000
0.399152 0.000000 0.000000
0.435899 0.000000 0.000000
0.472482 0.000000 0.000000
0.508906 0.000000 0.000000
0.545170 0.000000 0.000000
0.581265 0.000000 0.000000
0.617178 0.000000 0.000000
0.652888 0.000000 0.000000
0.688371 0.000000 0.000000
0.723599 0.000000 0.000000
0.758538 0.000000 0.000000
0.793155 0.000000 0.000000
0.827409 0.000000 0.000000
0.861261 0.000000 0.000000
0.894668 0.000000 0.000000
0.927586 0.000000 0.000000
0.959939 0.000000 0.000000
0.991489 0.000000 0.000000
1.000000 0.000000 0.000000
1.000000 0.000000 0.000000
1.000000 0.000000 0.000000
1.000000 0.000000 0.000000
1.000000 0.000000 0.000000
1.000000 0.000000 0.001387
1.000000 0.000000 0.021354
1.000000 0.000000 0.043024
1.000000 0.000000 0.065724
1.000000 0.000000 0.089163
1.000000 0.000000 0.113315
1.000000 0.000000 0.138156
1.000000 0.000000 0.163665
1.000000 0.000000 0.189817
1.000000 0.000000 0.216589
1.000000 0.000000 0.243954
1.000000 0.000000 0.271885
1.000000 0.000000 0.300352
1.000000 0.000000 0.329319
1.000000 0.000000 0.358753
1.000000 0.000000 0.388612
1.000000 0.000000 0.418855
1.000000 0.000000 0.449437
1.000000 0.000000 0.480310
1.000000 0.000000 0.511421
1.000000 0.000000 0.542718
1.000000 0.000000 0.574143
1.000000 0.000000 0.605637
1.000000 0.000000 0.637137
1.000000 0.000000 0.668580
0.000000 0.035797 0.000000
0.000000 0.035052 0.000000
0.000000 0.034307 0.000000
0.000000 0.033562 0.000000
0.000000 0.032818 0.000000
0.000000 0.032074 0.000000
0.000000 0.031328 0.000000
0.000287 0.029723 0.000000
0.035766 0.025114 0.000000
0.075964 0.019921 0.000000
0.116621 0.014589 0.000000
0.156948 0.009191 0.000000
0.196811 0.003736 0.000000
0.236235 0.000000 0.000000
0.275285 0.000000 0.000000
0.314028 0.000000 0.000000
0.352233 0.000000 0.000000
0.390154 0.000000 0.000000
0.427887 0.000000 0.000000
0.465451 0.000000 0.000000
0.502849 0.000000 0.000000
0.540075 0.000000 0.000000
0.577115 0.000000 0.000000
0.614050 0.000000 0.000000
0.650668 0.000000 0.000000
0.686366 0.000000 0.000000
0.721790 0.000000 0.000000
0.756909 0.000000 0.000000
0.791688 0.000000 0.000000
0.826090 0.000000 0.000000
0.860077 0.000000 0.000000
0.893607 0.000000 0.000000
0.926636 0.000000 0.000000
0.959111 0.000000 0.000000
0.990743 0.000000 0.000000
1.000000 0.000000 0.000000
1.000000 0.000000 0.000000
1.000000 0.000000 0.000000
1.000000 0.000000 0.000000
1.000000 0.000000 0.000000
1.000000 0.000000 0.000867
1.000000 0.000000 0.020862
1.000000 0.000000 0.042549
1.000000 0.000000 0.065278
1.000000 0.000000 0.088746
1.000000 0.000000 0.112925
1.000000 0.000000 0.137793
1.000000 0.000000 0.163326
1.000000 0.000000 0.189502
1.000000 0.000000 0.216296
1.000000 0.000000 0.243683
1.000000 0.000000 0.271634
1.000000 0.000000 0.300120
1.000000 0.000000 0.329105
1.000000 0.000000 0.358555
1.000000 0.000000 0.388430
1.000000 0.000000 0.418688
1.000000 0.000000 0.449284
1.000000 0.000000 0.480169
1.000000 0.000000 0.511292
1.000000 0.000000 0.542600
1.000000 0.000000 0.574036
1.000000 0.000000 0.605539
1.000000 0.000000 0.637048
1.000000 0.000000 0.668499
0.000000 0.058495 0.000000
0.000000 0.057772 0.000000
0.000000 0.057047 0.000000
0.000000 0.056322 0.000000
0.000000 0.055595 0.000000
0.000000 0.054867 0.000000
0.000000 0.054136 0.000000
0.000000 0.053296 0.000000
0.015584 0.049503 0.000000
0.056304 0.044265 0.000000
0.098041 0.038825 0.000000
0.139446 0.033316 0.000000
0.180288 0.027752 0.000000
0.220585 0.022119 0.000000
0.260413 0.016396 0.000000
0.299854 0.010561 0.000000
0.338979 0.004590 0.000000
0.377847 0.000000 0.000000
0.416505 0.000000 0.000000
0.454987 0.000000 0.000000
0.493316 0.000000 0.000000
0.531114 0.000000 0.000000
0.568696 0.000000 0.000000
0.606115 0.000000 0.000000
0.643353 0.000000 0.000000
0.680381 0.000000 0.000000
0.717142 0.000000 0.000000
0.753559 0.000000 0.000000
0.789936 0.000000 0.000000
0.824634 0.000000 0.000000
0.858770 0.000000 0.000000
0.892435 0.000000 0.000000
0.925587 0.000000 0.000000
0.958183 0.000000 0.000000
0.989920 0.000000 0.000000
1.000000 0.000000 0.000000
1.000000 0.000000 0.000000
1.000000 0.000000 0.000000
1.000000 0.000000 0.000000
1.000000 0.000000 0.000000
1.000000 0.000000 0.000295
1.000000 0.000000 0.020321
1.000000 0.000000 0.042026
1.000000 0.000000 0.064788
1.000000 0.000000 0.088287
1.000000 0.000000 0.112496
1.000000 0.000000 0.137393
1.000000 0.000000 0.162954
1.000000 0.000000 0.189156
1.000000 0.000000 0.215975
1.000000 0.000000 0.243385
1.000000 0.000000 0.271358
1.000000 0.000000 0.299864
1.000000 0.000000 0.328869
1.000000 0.000000 0.358337
1.000000 0.000000 0.388230
1.000000 0.000000 0.418504
1.000000 0.000000 0.449115
1.000000 0.000000 0.480014
1.000000 0.000000 0.511151
1.000000 0.000000 0.542471
1.000000 0.000000 0.573918
1.000000 0.000000 0.605432
1.000000 0.000000 0.636951
1.000000 0.000000 0.668411
0.000000 0.082226 0.000000
0.000000 0.081547 0.000000
0.000000 0.080868 0.000000
0.000000 0.080186 0.000000
0.000000 0.079504 0.000000
0.000000 0.078820 0.000000
0.000000 0.078133 0.000000
0.000000 0.077396 0.000000
0.000000 0.075253 0.000000
0.034722 0.070084 0.000000
0.077594 0.064583 0.000000
0.120212 0.059009 0.000000
0.162159 0.053396 0.000000
0.203429 0.047734 0.000000
0.244110 0.042000 0.000000
0.284298 0.036169 0.000000
0.324080 0.030215 0.000000
0.363529 0.024114 0.000000
0.402702 0.017839 0.000000
0.441644 0.011363 0.000000
0.480387 0.004657 0.000000
0.518956 0.000000 0.000000
0.557365 0.000000 0.000000
0.595622 0.000000 0.000000
0.633730 0.000000 0.000000
0.671366 0.000000 0.000000
0.708551 0.000000 0.000000
0.745513 0.000000 0.000000
0.782220 0.000000 0.000000
0.818615 0.000000 0.000000
0.854594 0.000000 0.000000
0.889998 0.000000 0.000000
0.924429 0.000000 0.000000
0.957149 0.000000 0.000000
0.989012 0.000000 0.000000
1.000000 0.000000 0.000000
1.000000 0.000000 0.000000
1.000000 0.000000 0.000000
1.000000 0.000000 0.000000
1.000000 0.000000 0.000000
1.000000 0.000000 0.000000
1.000000 0.000000 0.019725
1.000000 0.000000 0.041449
1.000000 0.000000 0.064247
1.000000 0.000000 0.087781
1.000000 0.000000 0.112024
1.000000 0.000000 0.136953
1.000000 0.000000 0.162544
1.000000 0.000000 0.188774
1.000000 0.000000 0.215621
1.000000 0.000000 0.243057
1.000000 0.000000 0.271054
1.000000 0.000000 0.299583
1.000000 0.000000 0.328610
1.000000 0.000000 0.358098
1.000000 0.000000 0.388009
1.000000 0.000000 0.418301
1.000000 0.000000 0.448929
1.000000 0.000000 0.479843
1.000000 0.000000 0.510995
1.000000 0.000000 0.542328
1.000000 0.000000 0.573788
1.000000 0.000000 0.605313
1.000000 0.000000 0.636843
1.000000 0.000000 0.668313
0.000000 0.106525 0.000000
0.000000 0.105897 0.000000
0.000000 0.105267 0.000000
0.000000 0.104637 0.000000
0.000000 0.104004 0.000000
0.000000 0.103371 0.000000
0.000000 0.102734 0.000000
0.000000 0.102052 0.000000
0.000000 0.100769 0.000000
0.011346 0.096709 0.000000
0.055315 0.091162 0.000000
0.099314 0.085520 0.000000
0.142540 0.079857 0.000000
0.184936 0.074170 0.000000
0.226596 0.068436 0.000000
0.267635 0.062628 0.000000
0.308159 0.056722 0.000000
0.348256 0.050689 0.000000
0.387996 0.044504 0.000000
0.427433 0.038140 0.000000
0.466611 0.031567 0.000000
0.505558 0.024756 0.000000
0.544297 0.017673 0.000000
0.582841 0.010282 0.000000
0.621199 0.002543 0.000000
0.659373 0.000000 0.000000
0.697362 0.000000 0.000000
0.735163 0.000000 0.000000
0.772767 0.000000 0.000000
0.809545 0.000000 0.000000
0.845930 0.000000 0.000000
0.881999 0.000000 0.000000
0.917692 0.000000 0.000000
0.952866 0.000000 0.000000
0.987022 0.000000 0.000000
1.000000 0.000000 0.000000
1.000000 0.000000 0.000000
1.000000 0.000000 0.000000
1.000000 0.000000 0.000000
1.000000 0.000000 0.000000
1.000000 0.000000 0.000000
1.000000 0.000000 0.019068
1.000000 0.000000 0.040815
1.000000 0.000000 0.063652
1.000000 0.000000 0.087224
1.000000 0.000000 0.111504
1.000000 0.000000 0.136468
1.000000 0.000000 0.162092
1.000000 0.000000 0.188354
1.000000 0.000000 0.215231
1.000000 0.000000 0.242695
1.000000 0.000000 0.270719
1.000000 0.000000 0.299273
1.000000 0.000000 0.328324
1.000000 0.000000 0.357835
1.000000 0.000000 0.387767
1.000000 0.000000 0.418078
1.000000 0.000000 0.448724
1.000000 0.000000 0.479656
1.000000 0.000000 0.510823
1.000000 0.000000 0.542172
1.000000 0.000000 0.573645
1.000000 0.000000 0.605183
1.000000 0.000000 0.636725
1.000000 0.000000 0.668206
0.000000 0.131206 0.000000
0.000000 0.130627 0.000000
0.000000 0.130047 0.000000
0.000000 0.129466 0.000000
0.000000 0.128884 0.000000
0.000000 0.128300 0.000000
0.000000 0.127714 0.000000
0.000000 0.127085 0.000000
0.000000 0.126392 0.000000
0.000000 0.123734 0.000000
0.031058 0.118319 0.000000
0.076607 0.112591 0.000000
0.121329 0.106857 0.000000
0.165043 0.101126 0.000000
0.207844 0.095377 0.000000
0.249871 0.089582 0.000000
0.291252 0.083714 0.000000
0.332094 0.077747 0.000000
0.372483 0.071652 0.000000
0.412486 0.065405 0.000000
0.452156 0.058976 0.000000
0.491530 0.052336 0.000000
0.530637 0.045454 0.000000
0.569495 0.038296 0.000000
0.608117 0.030824 0.000000
0.646509 0.022994 0.000000
0.684674 0.014760 0.000000
0.722611 0.006065 0.000000
0.760318 0.000000 0.000000
0.797791 0.000000 0.000000
0.835027 0.000000 0.000000
0.872022 0.000000 0.000000
0.908205 0.000000 0.000000
0.943724 0.000000 0.000000
0.978660 0.000000 0.000000
1.000000 0.000000 0.000000
1.000000 0.000000 0.000000
1.000000 0.000000 0.000000
1.000000 0.000000 0.000000
1.000000 0.000000 0.000000
1.000000 0.000000 0.000000
1.000000 0.000000 0.018344
1.000000 0.000000 0.040115
1.000000 0.000000 0.062996
1.000000 0.000000 0.086611
1.000000 0.000000 0.110931
1.000000 0.000000 0.135933
1.000000 0.000000 0.161595
1.000000 0.000000 0.187892
1.000000 0.000000 0.214802
1.000000 0.000000 0.242297
1.000000 0.000000 0.270351
1.000000 0.000000 0.298933
1.000000 0.000000 0.328009
1.000000 0.000000 0.357545
1.000000 0.000000 0.387500
1.000000 0.000000 0.417833
1.000000 0.000000 0.448499
1.000000 0.000000 0.479450
1.000000 0.000000 0.510634
1.000000 0.000000 0.541999
1.000000 0.000000 0.573488
1.000000 0.000000 0.605040
1.000000 0.000000 0.636595
1.000000 0.000000 0.668089
0.000000 0.156184 0.000000
0.000000 0.155652 0.000000
0.000000 0.155119 0.000000
0.000000 0.154585 0.000000
0.000000 0.154050 0.000000
0.000000 0.153514 0.000000
0.000000 0.152976 0.000000
0.000000 0.152398 0.000000
0.000000 0.151762 0.000000
0.000000 0.150194 0.000000
0.004637 0.145968 0.000000
0.051841 0.140139 0.000000
0.098310 0.134303 0.000000
0.143579 0.128498 0.000000
0.187724 0.122708 0.000000
0.230908 0.116902 0.000000
0.273287 0.111053 0.000000
0.314994 0.105132 0.000000
0.356135 0.099111 0.000000
0.396794 0.092964 0.000000
0.437033 0.086664 0.000000
0.476902 0.080183 0.000000
0.516435 0.073492 0.000000
0.555659 0.066558 0.000000
0.594591 0.059347 0.000000
0.633239 0.051819 0.000000
0.671611 0.043931 0.000000
0.709706 0.035632 0.000000
0.747524 0.026865 0.000000
