post_production/PixelLog_to_Rec2020_Linear_65.cube
# PixelLog to Rec.2020 Scene-Linear 3D LUT
# Input: Pixel-Log BT.2020 [0, 1] -> Exact Unclipped Scene-Linear
LUT_3D_SIZE 65
DOMAIN_MIN 0.0 0.0 0.0
DOMAIN_MAX 1.0 1.0 1.0
0.000000 0.000000 0.000000
0.000000 0.000000 0.000000
0.000000 0.000000 0.000000
0.000000 0.000000 0.000000
0.000000 0.000000 0.000000
0.000000 0.000000 0.000000
0.000742 0.000000 0.000000
0.004024 0.000000 0.000000
0.007634 0.000000 0.000000
0.011603 0.000000 0.000000
0.015969 0.000000 0.000000
0.020770 0.000000 0.000000
0.026050 0.000000 0.000000
0.031857 0.000000 0.000000
0.038243 0.000000 0.000000
0.045266 0.000000 0.000000
0.052990 0.000000 0.000000
0.061485 0.000000 0.000000
0.070827 0.000000 0.000000
0.081102 0.000000 0.000000
0.092401 0.000000 0.000000
0.104828 0.000000 0.000000
0.118495 0.000000 0.000000
0.133525 0.000000 0.000000
0.150054 0.000000 0.000000
0.168233 0.000000 0.000000
0.188226 0.000000 0.000000
0.210213 0.000000 0.000000
0.234394 0.000000 0.000000
0.260988 0.000000 0.000000
0.290234 0.000000 0.000000
0.322399 0.000000 0.000000
0.357773 0.000000 0.000000
0.396676 0.000000 0.000000
0.439460 0.000000 0.000000
0.486513 0.000000 0.000000
0.538261 0.000000 0.000000
0.595172 0.000000 0.000000
0.657760 0.000000 0.000000
0.726593 0.000000 0.000000
0.802293 0.000000 0.000000
0.885547 0.000000 0.000000
0.977106 0.000000 0.000000
1.077800 0.000000 0.000000
1.188541 0.000000 0.000000
1.310330 0.000000 0.000000
1.444270 0.000000 0.000000
1.591574 0.000000 0.000000
1.753574 0.000000 0.000000
1.931737 0.000000 0.000000
2.127675 0.000000 0.000000
2.343162 0.000000 0.000000
2.580149 0.000000 0.000000
2.840779 0.000000 0.000000
3.127414 0.000000 0.000000
3.442645 0.000000 0.000000
3.789328 0.000000 0.000000
4.170599 0.000000 0.000000
4.589910 0.000000 0.000000
5.051055 0.000000 0.000000
5.558210 0.000000 0.000000
6.115963 0.000000 0.000000
6.729364 0.000000 0.000000
7.403965 0.000000 0.000000
8.145870 0.000000 0.000000
0.000000 0.000000 0.000000
0.000000 0.000000 0.000000
0.000000 0.000000 0.000000
0.000000 0.000000 0.000000
0.000000 0.000000 0.000000
0.000000 0.000000 0.000000
0.000742 0.000000 0.000000
0.004024 0.000000 0.000000
0.007634 0.000000 0.000000
0.011603 0.000000 0.000000
0.015969 0.000000 0.000000
0.020770 0.000000 0.000000
0.026050 0.000000 0.000000
0.031857 0.000000 0.000000
0.038243 0.000000 0.000000
0.045266 0.000000 0.000000
0.052990 0.000000 0.000000
0.061485 0.000000 0.000000
0.070827 0.000000 0.000000
0.081102 0.000000 0.000000
0.092401 0.000000 0.000000
0.104828 0.000000 0.000000
0.118495 0.000000 0.000000
0.133525 0.000000 0.000000
0.150054 0.000000 0.000000
0.168233 0.000000 0.000000
0.188226 0.000000 0.000000
0.210213 0.000000 0.000000
0.234394 0.000000 0.000000
0.260988 0.000000 0.000000
0.290234 0.000000 0.000000
0.322399 0.000000 0.000000
0.357773 0.000000 0.000000
0.396676 0.000000 0.000000
0.439460 0.000000 0.000000
0.486513 0.000000 0.000000
0.538261 0.000000 0.000000
0.595172 0.000000 0.000000
0.657760 0.000000 0.000000
0.726593 0.000000 0.000000
0.802293 0.000000 0.000000
0.885547 0.000000 0.000000
0.977106 0.000000 0.000000
1.077800 0.000000 0.000000
1.188541 0.000000 0.000000
1.310330 0.000000 0.000000
1.444270 0.000000 0.000000
1.591574 0.000000 0.000000
1.753574 0.000000 0.000000
1.931737 0.000000 0.000000
2.127675 0.000000 0.000000
2.343162 0.000000 0.000000
2.580149 0.000000 0.000000
2.840779 0.000000 0.000000
3.127414 0.000000 0.000000
3.442645 0.000000 0.000000
3.789328 0.000000 0.000000
4.170599 0.000000 0.000000
4.589910 0.000000 0.000000
5.051055 0.000000 0.000000
5.558210 0.000000 0.000000
6.115963 0.000000 0.000000
6.729364 0.000000 0.000000
7.403965 0.000000 0.000000
8.145870 0.000000 0.000000
0.000000 0.000000 0.000000
0.000000 0.000000 0.000000
0.000000 0.000000 0.000000
0.000000 0.000000 0.000000
0.000000 0.000000 0.000000
0.000000 0.000000 0.000000
0.000742 0.000000 0.000000
0.004024 0.000000 0.000000
0.007634 0.000000 0.000000
0.011603 0.000000 0.000000
0.015969 0.000000 0.000000
0.020770 0.000000 0.000000
0.026050 0.000000 0.000000
0.031857 0.000000 0.000000
0.038243 0.000000 0.000000
0.045266 0.000000 0.000000
0.052990 0.000000 0.000000
0.061485 0.000000 0.000000
0.070827 0.000000 0.000000
0.081102 0.000000 0.000000
0.092401 0.000000 0.000000
0.104828 0.000000 0.000000
0.118495 0.000000 0.000000
0.133525 0.000000 0.000000
0.150054 0.000000 0.000000
0.168233 0.000000 0.000000
0.188226 0.000000 0.000000
0.210213 0.000000 0.000000
0.234394 0.000000 0.000000
0.260988 0.000000 0.000000
0.290234 0.000000 0.000000
0.322399 0.000000 0.000000
0.357773 0.000000 0.000000
0.396676 0.000000 0.000000
0.439460 0.000000 0.000000
0.486513 0.000000 0.000000
0.538261 0.000000 0.000000
0.595172 0.000000 0.000000
0.657760 0.000000 0.000000
0.726593 0.000000 0.000000
0.802293 0.000000 0.000000
0.885547 0.000000 0.000000
0.977106 0.000000 0.000000
1.077800 0.000000 0.000000
1.188541 0.000000 0.000000
1.310330 0.000000 0.000000
1.444270 0.000000 0.000000
1.591574 0.000000 0.000000
1.753574 0.000000 0.000000
1.931737 0.000000 0.000000
2.127675 0.000000 0.000000
2.343162 0.000000 0.000000
2.580149 0.000000 0.000000
2.840779 0.000000 0.000000
3.127414 0.000000 0.000000
3.442645 0.000000 0.000000
3.789328 0.000000 0.000000
4.170599 0.000000 0.000000
4.589910 0.000000 0.000000
5.051055 0.000000 0.000000
5.558210 0.000000 0.000000
6.115963 0.000000 0.000000
6.729364 0.000000 0.000000
7.403965 0.000000 0.000000
8.145870 0.000000 0.000000
0.000000 0.000000 0.000000
0.000000 0.000000 0.000000
0.000000 0.000000 0.000000
0.000000 0.000000 0.000000
0.000000 0.000000 0.000000
0.000000 0.000000 0.000000
0.000742 0.000000 0.000000
0.004024 0.000000 0.000000
0.007634 0.000000 0.000000
0.011603 0.000000 0.000000
0.015969 0.000000 0.000000
0.020770 0.000000 0.000000
0.026050 0.000000 0.000000
0.031857 0.000000 0.000000
0.038243 0.000000 0.000000
0.045266 0.000000 0.000000
0.052990 0.000000 0.000000
0.061485 0.000000 0.000000
0.070827 0.000000 0.000000
0.081102 0.000000 0.000000
0.092401 0.000000 0.000000
0.104828 0.000000 0.000000
0.118495 0.000000 0.000000
0.133525 0.000000 0.000000
0.150054 0.000000 0.000000
0.168233 0.000000 0.000000
0.188226 0.000000 0.000000
0.210213 0.000000 0.000000
0.234394 0.000000 0.000000
0.260988 0.000000 0.000000
0.290234 0.000000 0.000000
0.322399 0.000000 0.000000
0.357773 0.000000 0.000000
0.396676 0.000000 0.000000
0.439460 0.000000 0.000000
0.486513 0.000000 0.000000
0.538261 0.000000 0.000000
0.595172 0.000000 0.000000
0.657760 0.000000 0.000000
0.726593 0.000000 0.000000
0.802293 0.000000 0.000000
0.885547 0.000000 0.000000
0.977106 0.000000 0.000000
1.077800 0.000000 0.000000
1.188541 0.000000 0.000000
1.310330 0.000000 0.000000
1.444270 0.000000 0.000000
1.591574 0.000000 0.000000
1.753574 0.000000 0.000000
1.931737 0.000000 0.000000
2.127675 0.000000 0.000000
2.343162 0.000000 0.000000
2.580149 0.000000 0.000000
2.840779 0.000000 0.000000
3.127414 0.000000 0.000000
3.442645 0.000000 0.000000
3.789328 0.000000 0.000000
4.170599 0.000000 0.000000
4.589910 0.000000 0.000000
5.051055 0.000000 0.000000
5.558210 0.000000 0.000000
6.115963 0.000000 0.000000
6.729364 0.000000 0.000000
7.403965 0.000000 0.000000
8.145870 0.000000 0.000000
0.000000 0.000000 0.000000
0.000000 0.000000 0.000000
0.000000 0.000000 0.000000
0.000000 0.000000 0.000000
0.000000 0.000000 0.000000
0.000000 0.000000 0.000000
0.000742 0.000000 0.000000
0.004024 0.000000 0.000000
0.007634 0.000000 0.000000
0.011603 0.000000 0.000000
0.015969 0.000000 0.000000
0.020770 0.000000 0.000000
0.026050 0.000000 0.000000
0.031857 0.000000 0.000000
0.038243 0.000000 0.000000
0.045266 0.000000 0.000000
0.052990 0.000000 0.000000
0.061485 0.000000 0.000000
0.070827 0.000000 0.000000
0.081102 0.000000 0.000000
0.092401 0.000000 0.000000
0.104828 0.000000 0.000000
0.118495 0.000000 0.000000
0.133525 0.000000 0.000000
0.150054 0.000000 0.000000
0.168233 0.000000 0.000000
0.188226 0.000000 0.000000
0.210213 0.000000 0.000000
0.234394 0.000000 0.000000
0.260988 0.000000 0.000000
0.290234 0.000000 0.000000
0.322399 0.000000 0.000000
0.357773 0.000000 0.000000
0.396676 0.000000 0.000000
0.439460 0.000000 0.000000
0.486513 0.000000 0.000000
0.538261 0.000000 0.000000
0.595172 0.000000 0.000000
0.657760 0.000000 0.000000
0.726593 0.000000 0.000000
0.802293 0.000000 0.000000
0.885547 0.000000 0.000000
0.977106 0.000000 0.000000
1.077800 0.000000 0.000000
1.188541 0.000000 0.000000
1.310330 0.000000 0.000000
1.444270 0.000000 0.000000
1.591574 0.000000 0.000000
1.753574 0.000000 0.000000
1.931737 0.000000 0.000000
2.127675 0.000000 0.000000
2.343162 0.000000 0.000000
2.580149 0.000000 0.000000
2.840779 0.000000 0.000000
3.127414 0.000000 0.000000
3.442645 0.000000 0.000000
3.789328 0.000000 0.000000
4.170599 0.000000 0.000000
4.589910 0.000000 0.000000
5.051055 0.000000 0.000000
5.558210 0.000000 0.000000
6.115963 0.000000 0.000000
6.729364 0.000000 0.000000
7.403965 0.000000 0.000000
8.145870 0.000000 0.000000
0.000000 0.000000 0.000000
0.000000 0.000000 0.000000
0.000000 0.000000 0.000000
0.000000 0.000000 0.000000
0.000000 0.000000 0.000000
0.000000 0.000000 0.000000
0.000742 0.000000 0.000000
0.004024 0.000000 0.000000
0.007634 0.000000 0.000000
0.011603 0.000000 0.000000
0.015969 0.000000 0.000000
0.020770 0.000000 0.000000
0.026050 0.000000 0.000000
0.031857 0.000000 0.000000
0.038243 0.000000 0.000000
0.045266 0.000000 0.000000
0.052990 0.000000 0.000000
0.061485 0.000000 0.000000
0.070827 0.000000 0.000000
0.081102 0.000000 0.000000
0.092401 0.000000 0.000000
0.104828 0.000000 0.000000
0.118495 0.000000 0.000000
0.133525 0.000000 0.000000
0.150054 0.000000 0.000000
0.168233 0.000000 0.000000
0.188226 0.000000 0.000000
0.210213 0.000000 0.000000
0.234394 0.000000 0.000000
0.260988 0.000000 0.000000
0.290234 0.000000 0.000000
0.322399 0.000000 0.000000
0.357773 0.000000 0.000000
0.396676 0.000000 0.000000
0.439460 0.000000 0.000000
0.486513 0.000000 0.000000
0.538261 0.000000 0.000000
0.595172 0.000000 0.000000
0.657760 0.000000 0.000000
0.726593 0.000000 0.000000
0.802293 0.000000 0.000000
0.885547 0.000000 0.000000
0.977106 0.000000 0.000000
1.077800 0.000000 0.000000
1.188541 0.000000 0.000000
1.310330 0.000000 0.000000
1.444270 0.000000 0.000000
1.591574 0.000000 0.000000
1.753574 0.000000 0.000000
1.931737 0.000000 0.000000
2.127675 0.000000 0.000000
2.343162 0.000000 0.000000
2.580149 0.000000 0.000000
2.840779 0.000000 0.000000
3.127414 0.000000 0.000000
3.442645 0.000000 0.000000
3.789328 0.000000 0.000000
4.170599 0.000000 0.000000
4.589910 0.000000 0.000000
5.051055 0.000000 0.000000
5.558210 0.000000 0.000000
6.115963 0.000000 0.000000
6.729364 0.000000 0.000000
7.403965 0.000000 0.000000
8.145870 0.000000 0.000000
0.000000 0.000742 0.000000
0.000000 0.000742 0.000000
0.000000 0.000742 0.000000
0.000000 0.000742 0.000000
0.000000 0.000742 0.000000
0.000000 0.000742 0.000000
0.000742 0.000742 0.000000
0.004024 0.000742 0.000000
0.007634 0.000742 0.000000
0.011603 0.000742 0.000000
0.015969 0.000742 0.000000
0.020770 0.000742 0.000000
0.026050 0.000742 0.000000
0.031857 0.000742 0.000000
0.038243 0.000742 0.000000
0.045266 0.000742 0.000000
0.052990 0.000742 0.000000
0.061485 0.000742 0.000000
0.070827 0.000742 0.000000
0.081102 0.000742 0.000000
0.092401 0.000742 0.000000
0.104828 0.000742 0.000000
0.118495 0.000742 0.000000
0.133525 0.000742 0.000000
0.150054 0.000742 0.000000
0.168233 0.000742 0.000000
0.188226 0.000742 0.000000
0.210213 0.000742 0.000000
0.234394 0.000742 0.000000
0.260988 0.000742 0.000000
0.290234 0.000742 0.000000
0.322399 0.000742 0.000000
0.357773 0.000742 0.000000
0.396676 0.000742 0.000000
0.439460 0.000742 0.000000
0.486513 0.000742 0.000000
0.538261 0.000742 0.000000
0.595172 0.000742 0.000000
0.657760 0.000742 0.000000
0.726593 0.000742 0.000000
0.802293 0.000742 0.000000
0.885547 0.000742 0.000000
0.977106 0.000742 0.000000
1.077800 0.000742 0.000000
1.188541 0.000742 0.000000
1.310330 0.000742 0.000000
1.444270 0.000742 0.000000
1.591574 0.000742 0.000000
1.753574 0.000742 0.000000
1.931737 0.000742 0.000000
2.127675 0.000742 0.000000
2.343162 0.000742 0.000000
2.580149 0.000742 0.000000
2.840779 0.000742 0.000000
3.127414 0.000742 0.000000
3.442645 0.000742 0.000000
3.789328 0.000742 0.000000
4.170599 0.000742 0.000000
4.589910 0.000742 0.000000
5.051055 0.000742 0.000000
5.558210 0.000742 0.000000
6.115963 0.000742 0.000000
6.729364 0.000742 0.000000
7.403965 0.000742 0.000000
8.145870 0.000742 0.000000
0.000000 0.004024 0.000000
0.000000 0.004024 0.000000
0.000000 0.004024 0.000000
0.000000 0.004024 0.000000
0.000000 0.004024 0.000000
0.000000 0.004024 0.000000
0.000742 0.004024 0.000000
0.004024 0.004024 0.000000
0.007634 0.004024 0.000000
0.011603 0.004024 0.000000
0.015969 0.004024 0.000000
0.020770 0.004024 0.000000
0.026050 0.004024 0.000000
0.031857 0.004024 0.000000
0.038243 0.004024 0.000000
0.045266 0.004024 0.000000
0.052990 0.004024 0.000000
0.061485 0.004024 0.000000
0.070827 0.004024 0.000000
0.081102 0.004024 0.000000
0.092401 0.004024 0.000000
0.104828 0.004024 0.000000
0.118495 0.004024 0.000000
0.133525 0.004024 0.000000
0.150054 0.004024 0.000000
0.168233 0.004024 0.000000
0.188226 0.004024 0.000000
0.210213 0.004024 0.000000
0.234394 0.004024 0.000000
0.260988 0.004024 0.000000
0.290234 0.004024 0.000000
0.322399 0.004024 0.000000
0.357773 0.004024 0.000000
0.396676 0.004024 0.000000
0.439460 0.004024 0.000000
0.486513 0.004024 0.000000
0.538261 0.004024 0.000000
0.595172 0.004024 0.000000
0.657760 0.004024 0.000000
0.726593 0.004024 0.000000
0.802293 0.004024 0.000000
0.885547 0.004024 0.000000
0.977106 0.004024 0.000000
1.077800 0.004024 0.000000
1.188541 0.004024 0.000000
1.310330 0.004024 0.000000
1.444270 0.004024 0.000000
1.591574 0.004024 0.000000
1.753574 0.004024 0.000000
1.931737 0.004024 0.000000
2.127675 0.004024 0.000000
2.343162 0.004024 0.000000
2.580149 0.004024 0.000000
2.840779 0.004024 0.000000
3.127414 0.004024 0.000000
3.442645 0.004024 0.000000
3.789328 0.004024 0.000000
4.170599 0.004024 0.000000
4.589910 0.004024 0.000000
5.051055 0.004024 0.000000
5.558210 0.004024 0.000000
6.115963 0.004024 0.000000
6.729364 0.004024 0.000000
7.403965 0.004024 0.000000
8.145870 0.004024 0.000000
0.000000 0.007634 0.000000
0.000000 0.007634 0.000000
0.000000 0.007634 0.000000
0.000000 0.007634 0.000000
0.000000 0.007634 0.000000
0.000000 0.007634 0.000000
0.000742 0.007634 0.000000
0.004024 0.007634 0.000000
0.007634 0.007634 0.000000
0.011603 0.007634 0.000000
0.015969 0.007634 0.000000
0.020770 0.007634 0.000000
0.026050 0.007634 0.000000
0.031857 0.007634 0.000000
0.038243 0.007634 0.000000
0.045266 0.007634 0.000000
0.052990 0.007634 0.000000
0.061485 0.007634 0.000000
0.070827 0.007634 0.000000
0.081102 0.007634 0.000000
0.092401 0.007634 0.000000
0.104828 0.007634 0.000000
0.118495 0.007634 0.000000
0.133525 0.007634 0.000000
0.150054 0.007634 0.000000
0.168233 0.007634 0.000000
0.188226 0.007634 0.000000
0.210213 0.007634 0.000000
0.234394 0.007634 0.000000
0.260988 0.007634 0.000000
0.290234 0.007634 0.000000
0.322399 0.007634 0.000000
0.357773 0.007634 0.000000
0.396676 0.007634 0.000000
0.439460 0.007634 0.000000
0.486513 0.007634 0.000000
0.538261 0.007634 0.000000
0.595172 0.007634 0.000000
0.657760 0.007634 0.000000
0.726593 0.007634 0.000000
0.802293 0.007634 0.000000
0.885547 0.007634 0.000000
0.977106 0.007634 0.000000
1.077800 0.007634 0.000000
1.188541 0.007634 0.000000
1.310330 0.007634 0.000000
1.444270 0.007634 0.000000
1.591574 0.007634 0.000000
1.753574 0.007634 0.000000
1.931737 0.007634 0.000000
2.127675 0.007634 0.000000
2.343162 0.007634 0.000000
2.580149 0.007634 0.000000
2.840779 0.007634 0.000000
3.127414 0.007634 0.000000
3.442645 0.007634 0.000000
3.789328 0.007634 0.000000
4.170599 0.007634 0.000000
4.589910 0.007634 0.000000
5.051055 0.007634 0.000000
5.558210 0.007634 0.000000
6.115963 0.007634 0.000000
6.729364 0.007634 0.000000
7.403965 0.007634 0.000000
8.145870 0.007634 0.000000
0.000000 0.011603 0.000000
0.000000 0.011603 0.000000
0.000000 0.011603 0.000000
0.000000 0.011603 0.000000
0.000000 0.011603 0.000000
0.000000 0.011603 0.000000
0.000742 0.011603 0.000000
0.004024 0.011603 0.000000
0.007634 0.011603 0.000000
0.011603 0.011603 0.000000
0.015969 0.011603 0.000000
0.020770 0.011603 0.000000
0.026050 0.011603 0.000000
0.031857 0.011603 0.000000
0.038243 0.011603 0.000000
0.045266 0.011603 0.000000
0.052990 0.011603 0.000000
0.061485 0.011603 0.000000
0.070827 0.011603 0.000000
0.081102 0.011603 0.000000
0.092401 0.011603 0.000000
0.104828 0.011603 0.000000
0.118495 0.011603 0.000000
0.133525 0.011603 0.000000
0.150054 0.011603 0.000000
0.168233 0.011603 0.000000
0.188226 0.011603 0.000000
0.210213 0.011603 0.000000
0.234394 0.011603 0.000000
0.260988 0.011603 0.000000
0.290234 0.011603 0.000000
0.322399 0.011603 0.000000
0.357773 0.011603 0.000000
0.396676 0.011603 0.000000
0.439460 0.011603 0.000000
0.486513 0.011603 0.000000
0.538261 0.011603 0.000000
0.595172 0.011603 0.000000
0.657760 0.011603 0.000000
0.726593 0.011603 0.000000
0.802293 0.011603 0.000000
0.885547 0.011603 0.000000
0.977106 0.011603 0.000000
1.077800 0.011603 0.000000
1.188541 0.011603 0.000000
1.310330 0.011603 0.000000
1.444270 0.011603 0.000000
1.591574 0.011603 0.000000
1.753574 0.011603 0.000000
1.931737 0.011603 0.000000
2.127675 0.011603 0.000000
2.343162 0.011603 0.000000
2.580149 0.011603 0.000000
2.840779 0.011603 0.000000
3.127414 0.011603 0.000000
3.442645 0.011603 0.000000
3.789328 0.011603 0.000000
4.170599 0.011603 0.000000
4.589910 0.011603 0.000000
5.051055 0.011603 0.000000
5.558210 0.011603 0.000000
6.115963 0.011603 0.000000
6.729364 0.011603 0.000000
7.403965 0.011603 0.000000
8.145870 0.011603 0.000000
0.000000 0.015969 0.000000
0.000000 0.015969 0.000000
0.000000 0.015969 0.000000
0.000000 0.015969 0.000000
0.000000 0.015969 0.000000
0.000000 0.015969 0.000000
0.000742 0.015969 0.000000
0.004024 0.015969 0.000000
0.007634 0.015969 0.000000
0.011603 0.015969 0.000000
0.015969 0.015969 0.000000
0.020770 0.015969 0.000000
0.026050 0.015969 0.000000
0.031857 0.015969 0.000000
0.038243 0.015969 0.000000
0.045266 0.015969 0.000000
0.052990 0.015969 0.000000
0.061485 0.015969 0.000000
0.070827 0.015969 0.000000
0.081102 0.015969 0.000000
0.092401 0.015969 0.000000
0.104828 0.015969 0.000000
0.118495 0.015969 0.000000
0.133525 0.015969 0.000000
0.150054 0.015969 0.000000
0.168233 0.015969 0.000000
0.188226 0.015969 0.000000
0.210213 0.015969 0.000000
0.234394 0.015969 0.000000
0.260988 0.015969 0.000000
0.290234 0.015969 0.000000
0.322399 0.015969 0.000000
0.357773 0.015969 0.000000
0.396676 0.015969 0.000000
0.439460 0.015969 0.000000
0.486513 0.015969 0.000000
0.538261 0.015969 0.000000
0.595172 0.015969 0.000000
0.657760 0.015969 0.000000
0.726593 0.015969 0.000000
0.802293 0.015969 0.000000
0.885547 0.015969 0.000000
0.977106 0.015969 0.000000
1.077800 0.015969 0.000000
1.188541 0.015969 0.000000
1.310330 0.015969 0.000000
1.444270 0.015969 0.000000
1.591574 0.015969 0.000000
1.753574 0.015969 0.000000
1.931737 0.015969 0.000000
2.127675 0.015969 0.000000
2.343162 0.015969 0.000000
2.580149 0.015969 0.000000
2.840779 0.015969 0.000000
3.127414 0.015969 0.000000
3.442645 0.015969 0.000000
3.789328 0.015969 0.000000
4.170599 0.015969 0.000000
4.589910 0.015969 0.000000
5.051055 0.015969 0.000000
5.558210 0.015969 0.000000
6.115963 0.015969 0.000000
6.729364 0.015969 0.000000
7.403965 0.015969 0.000000
8.145870 0.015969 0.000000
0.000000 0.020770 0.000000
0.000000 0.020770 0.000000
0.000000 0.020770 0.000000
0.000000 0.020770 0.000000
0.000000 0.020770 0.000000
0.000000 0.020770 0.000000
0.000742 0.020770 0.000000
0.004024 0.020770 0.000000
0.007634 0.020770 0.000000
0.011603 0.020770 0.000000
0.015969 0.020770 0.000000
0.020770 0.020770 0.000000
0.026050 0.020770 0.000000
0.031857 0.020770 0.000000
0.038243 0.020770 0.000000
0.045266 0.020770 0.000000
0.052990 0.020770 0.000000
0.061485 0.020770 0.000000
0.070827 0.020770 0.000000
0.081102 0.020770 0.000000
0.092401 0.020770 0.000000
0.104828 0.020770 0.000000
0.118495 0.020770 0.000000
0.133525 0.020770 0.000000
0.150054 0.020770 0.000000
0.168233 0.020770 0.000000
0.188226 0.020770 0.000000
0.210213 0.020770 0.000000
0.234394 0.020770 0.000000
0.260988 0.020770 0.000000
0.290234 0.020770 0.000000
0.322399 0.020770 0.000000
0.357773 0.020770 0.000000
0.396676 0.020770 0.000000
0.439460 0.020770 0.000000
0.486513 0.020770 0.000000
0.538261 0.020770 0.000000
0.595172 0.020770 0.000000
0.657760 0.020770 0.000000
0.726593 0.020770 0.000000
0.802293 0.020770 0.000000
0.885547 0.020770 0.000000
0.977106 0.020770 0.000000
1.077800 0.020770 0.000000
1.188541 0.020770 0.000000
1.310330 0.020770 0.000000
1.444270 0.020770 0.000000
1.591574 0.020770 0.000000
1.753574 0.020770 0.000000
1.931737 0.020770 0.000000
2.127675 0.020770 0.000000
2.343162 0.020770 0.000000
2.580149 0.020770 0.000000
2.840779 0.020770 0.000000
3.127414 0.020770 0.000000
3.442645 0.020770 0.000000
3.789328 0.020770 0.000000
4.170599 0.020770 0.000000
4.589910 0.020770 0.000000
5.051055 0.020770 0.000000
5.558210 0.020770 0.000000
6.115963 0.020770 0.000000
6.729364 0.020770 0.000000
7.403965 0.020770 0.000000
8.145870 0.020770 0.000000
0.000000 0.026050 0.000000
0.000000 0.026050 0.000000
0.000000 0.026050 0.000000
0.000000 0.026050 0.000000
0.000000 0.026050 0.000000
0.000000 0.026050 0.000000
0.000742 0.026050 0.000000
0.004024 0.026050 0.000000
0.007634 0.026050 0.000000
0.011603 0.026050 0.000000
0.015969 0.026050 0.000000
0.020770 0.026050 0.000000
0.026050 0.026050 0.000000
0.031857 0.026050 0.000000
0.038243 0.026050 0.000000
0.045266 0.026050 0.000000
0.052990 0.026050 0.000000
0.061485 0.026050 0.000000
0.070827 0.026050 0.000000
0.081102 0.026050 0.000000
0.092401 0.026050 0.000000
0.104828 0.026050 0.000000
0.118495 0.026050 0.000000
0.133525 0.026050 0.000000
0.150054 0.026050 0.000000
0.168233 0.026050 0.000000
0.188226 0.026050 0.000000
0.210213 0.026050 0.000000
0.234394 0.026050 0.000000
0.260988 0.026050 0.000000
0.290234 0.026050 0.000000
0.322399 0.026050 0.000000
0.357773 0.026050 0.000000
0.396676 0.026050 0.000000
0.439460 0.026050 0.000000
0.486513 0.026050 0.000000
0.538261 0.026050 0.000000
0.595172 0.026050 0.000000
0.657760 0.026050 0.000000
0.726593 0.026050 0.000000
0.802293 0.026050 0.000000
0.885547 0.026050 0.000000
0.977106 0.026050 0.000000
1.077800 0.026050 0.000000
1.188541 0.026050 0.000000
1.310330 0.026050 0.000000
1.444270 0.026050 0.000000
1.591574 0.026050 0.000000
1.753574 0.026050 0.000000
1.931737 0.026050 0.000000
2.127675 0.026050 0.000000
2.343162 0.026050 0.000000
2.580149 0.026050 0.000000
2.840779 0.026050 0.000000
3.127414 0.026050 0.000000
3.442645 0.026050 0.000000
3.789328 0.026050 0.000000
4.170599 0.026050 0.000000
4.589910 0.026050 0.000000
5.051055 0.026050 0.000000
5.558210 0.026050 0.000000
6.115963 0.026050 0.000000
6.729364 0.026050 0.000000
7.403965 0.026050 0.000000
8.145870 0.026050 0.000000
0.000000 0.031857 0.000000
0.000000 0.031857 0.000000
0.000000 0.031857 0.000000
0.000000 0.031857 0.000000
0.000000 0.031857 0.000000
0.000000 0.031857 0.000000
0.000742 0.031857 0.000000
0.004024 0.031857 0.000000
0.007634 0.031857 0.000000
0.011603 0.031857 0.000000
0.015969 0.031857 0.000000
0.020770 0.031857 0.000000
0.026050 0.031857 0.000000
0.031857 0.031857 0.000000
0.038243 0.031857 0.000000
0.045266 0.031857 0.000000
0.052990 0.031857 0.000000
0.061485 0.031857 0.000000
0.070827 0.031857 0.000000
0.081102 0.031857 0.000000
0.092401 0.031857 0.000000
0.104828 0.031857 0.000000
0.118495 0.031857 0.000000
0.133525 0.031857 0.000000
0.150054 0.031857 0.000000
0.168233 0.031857 0.000000
0.188226 0.031857 0.000000
0.210213 0.031857 0.000000
0.234394 0.031857 0.000000
0.260988 0.031857 0.000000
0.290234 0.031857 0.000000
0.322399 0.031857 0.000000
0.357773 0.031857 0.000000
0.396676 0.031857 0.000000
0.439460 0.031857 0.000000
0.486513 0.031857 0.000000
0.538261 0.031857 0.000000
