post_production/PixelLog_to_Rec2020_Linear.cube
# PixelLog to BT.2020 Scene-Linear Transform LUT
# Target Device: Google Pixel 11 Pro Primary Sensor
# Transform: 1:1 Unclipped Scene-Linear for ACEScg / DaVinci YRGB Color Managed
TITLE "PixelLog_to_Rec2020_Linear"
LUT_3D_SIZE 33
DOMAIN_MIN 0.0 0.0 0.0
DOMAIN_MAX 1.0 1.0 1.0
-0.010612 -0.010612 -0.010612
-0.007737 -0.010612 -0.010612
-0.004169 -0.010612 -0.010612
0.000278 -0.010612 -0.010612
0.005836 -0.010612 -0.010612
0.012795 -0.010612 -0.010612
0.021520 -0.010612 -0.010612
0.032465 -0.010612 -0.010612
0.046202 -0.010612 -0.010612
0.063449 -0.010612 -0.010612
0.085106 -0.010612 -0.010612
0.112304 -0.010612 -0.010612
0.146464 -0.010612 -0.010612
0.189370 -0.010612 -0.010612
0.243263 -0.010612 -0.010612
0.310957 -0.010612 -0.010612
0.395987 -0.010612 -0.010612
0.502793 -0.010612 -0.010612
0.636955 -0.010612 -0.010612
0.805479 -0.010612 -0.010612
1.017165 -0.010612 -0.010612
1.283069 -0.010612 -0.010612
1.617077 -0.010612 -0.010612
2.036634 -0.010612 -0.010612
2.563650 -0.010612 -0.010612
3.225649 -0.010612 -0.010612
4.057203 -0.010612 -0.010612
5.101740 -0.010612 -0.010612
6.413811 -0.010612 -0.010612
8.061938 -0.010612 -0.010612
10.132194 -0.010612 -0.010612
12.732698 -0.010612 -0.010612
15.999260 -0.010612 -0.010612
-0.010612 -0.007737 -0.010612
-0.007737 -0.007737 -0.010612
-0.004169 -0.007737 -0.010612
0.000278 -0.007737 -0.010612
0.005836 -0.007737 -0.010612
0.012795 -0.007737 -0.010612
0.021520 -0.007737 -0.010612
0.032465 -0.007737 -0.010612
0.046202 -0.007737 -0.010612
0.063449 -0.007737 -0.010612
0.085106 -0.007737 -0.010612
0.112304 -0.007737 -0.010612
0.146464 -0.007737 -0.010612
0.189370 -0.007737 -0.010612
0.243263 -0.007737 -0.010612
0.310957 -0.007737 -0.010612
0.395987 -0.007737 -0.010612
0.502793 -0.007737 -0.010612
0.636955 -0.007737 -0.010612
0.805479 -0.007737 -0.010612
1.017165 -0.007737 -0.010612
1.283069 -0.007737 -0.010612
1.617077 -0.007737 -0.010612
2.036634 -0.007737 -0.010612
2.563650 -0.007737 -0.010612
3.225649 -0.007737 -0.010612
4.057203 -0.007737 -0.010612
5.101740 -0.007737 -0.010612
6.413811 -0.007737 -0.010612
8.061938 -0.007737 -0.010612
10.132194 -0.007737 -0.010612
12.732698 -0.007737 -0.010612
15.999260 -0.007737 -0.010612
-0.010612 -0.004169 -0.010612
-0.007737 -0.004169 -0.010612
-0.004169 -0.004169 -0.010612
0.000278 -0.004169 -0.010612
0.005836 -0.004169 -0.010612
0.012795 -0.004169 -0.010612
0.021520 -0.004169 -0.010612
0.032465 -0.004169 -0.010612
0.046202 -0.004169 -0.010612
0.063449 -0.004169 -0.010612
0.085106 -0.004169 -0.010612
0.112304 -0.004169 -0.010612
0.146464 -0.004169 -0.010612
0.189370 -0.004169 -0.010612
0.243263 -0.004169 -0.010612
0.310957 -0.004169 -0.010612
0.395987 -0.004169 -0.010612
0.502793 -0.004169 -0.010612
0.636955 -0.004169 -0.010612
0.805479 -0.004169 -0.010612
1.017165 -0.004169 -0.010612
1.283069 -0.004169 -0.010612
1.617077 -0.004169 -0.010612
2.036634 -0.004169 -0.010612
2.563650 -0.004169 -0.010612
3.225649 -0.004169 -0.010612
4.057203 -0.004169 -0.010612
5.101740 -0.004169 -0.010612
6.413811 -0.004169 -0.010612
8.061938 -0.004169 -0.010612
10.132194 -0.004169 -0.010612
12.732698 -0.004169 -0.010612
15.999260 -0.004169 -0.010612
-0.010612 0.000278 -0.010612
-0.007737 0.000278 -0.010612
-0.004169 0.000278 -0.010612
0.000278 0.000278 -0.010612
0.005836 0.000278 -0.010612
0.012795 0.000278 -0.010612
0.021520 0.000278 -0.010612
0.032465 0.000278 -0.010612
0.046202 0.000278 -0.010612
0.063449 0.000278 -0.010612
0.085106 0.000278 -0.010612
0.112304 0.000278 -0.010612
0.146464 0.000278 -0.010612
0.189370 0.000278 -0.010612
0.243263 0.000278 -0.010612
0.310957 0.000278 -0.010612
0.395987 0.000278 -0.010612
0.502793 0.000278 -0.010612
0.636955 0.000278 -0.010612
0.805479 0.000278 -0.010612
1.017165 0.000278 -0.010612
1.283069 0.000278 -0.010612
1.617077 0.000278 -0.010612
2.036634 0.000278 -0.010612
2.563650 0.000278 -0.010612
3.225649 0.000278 -0.010612
4.057203 0.000278 -0.010612
5.101740 0.000278 -0.010612
6.413811 0.000278 -0.010612
8.061938 0.000278 -0.010612
10.132194 0.000278 -0.010612
12.732698 0.000278 -0.010612
15.999260 0.000278 -0.010612
-0.010612 0.005836 -0.010612
-0.007737 0.005836 -0.010612
-0.004169 0.005836 -0.010612
0.000278 0.005836 -0.010612
0.005836 0.005836 -0.010612
0.012795 0.005836 -0.010612
0.021520 0.005836 -0.010612
0.032465 0.005836 -0.010612
0.046202 0.005836 -0.010612
0.063449 0.005836 -0.010612
0.085106 0.005836 -0.010612
0.112304 0.005836 -0.010612
0.146464 0.005836 -0.010612
0.189370 0.005836 -0.010612
0.243263 0.005836 -0.010612
0.310957 0.005836 -0.010612
0.395987 0.005836 -0.010612
0.502793 0.005836 -0.010612
0.636955 0.005836 -0.010612
0.805479 0.005836 -0.010612
1.017165 0.005836 -0.010612
1.283069 0.005836 -0.010612
1.617077 0.005836 -0.010612
2.036634 0.005836 -0.010612
2.563650 0.005836 -0.010612
3.225649 0.005836 -0.010612
4.057203 0.005836 -0.010612
5.101740 0.005836 -0.010612
6.413811 0.005836 -0.010612
8.061938 0.005836 -0.010612
10.132194 0.005836 -0.010612
12.732698 0.005836 -0.010612
15.999260 0.005836 -0.010612
-0.010612 0.012795 -0.010612
-0.007737 0.012795 -0.010612
-0.004169 0.012795 -0.010612
0.000278 0.012795 -0.010612
0.005836 0.012795 -0.010612
0.012795 0.012795 -0.010612
0.021520 0.012795 -0.010612
0.032465 0.012795 -0.010612
0.046202 0.012795 -0.010612
0.063449 0.012795 -0.010612
0.085106 0.012795 -0.010612
0.112304 0.012795 -0.010612
0.146464 0.012795 -0.010612
0.189370 0.012795 -0.010612
0.243263 0.012795 -0.010612
0.310957 0.012795 -0.010612
0.395987 0.012795 -0.010612
0.502793 0.012795 -0.010612
0.636955 0.012795 -0.010612
0.805479 0.012795 -0.010612
1.017165 0.012795 -0.010612
1.283069 0.012795 -0.010612
1.617077 0.012795 -0.010612
2.036634 0.012795 -0.010612
2.563650 0.012795 -0.010612
3.225649 0.012795 -0.010612
4.057203 0.012795 -0.010612
5.101740 0.012795 -0.010612
6.413811 0.012795 -0.010612
8.061938 0.012795 -0.010612
10.132194 0.012795 -0.010612
12.732698 0.012795 -0.010612
15.999260 0.012795 -0.010612
-0.010612 0.021520 -0.010612
-0.007737 0.021520 -0.010612
-0.004169 0.021520 -0.010612
0.000278 0.021520 -0.010612
0.005836 0.021520 -0.010612
0.012795 0.021520 -0.010612
0.021520 0.021520 -0.010612
0.032465 0.021520 -0.010612
0.046202 0.021520 -0.010612
0.063449 0.021520 -0.010612
0.085106 0.021520 -0.010612
0.112304 0.021520 -0.010612
0.146464 0.021520 -0.010612
0.189370 0.021520 -0.010612
0.243263 0.021520 -0.010612
0.310957 0.021520 -0.010612
0.395987 0.021520 -0.010612
0.502793 0.021520 -0.010612
0.636955 0.021520 -0.010612
0.805479 0.021520 -0.010612
1.017165 0.021520 -0.010612
1.283069 0.021520 -0.010612
1.617077 0.021520 -0.010612
2.036634 0.021520 -0.010612
2.563650 0.021520 -0.010612
3.225649 0.021520 -0.010612
4.057203 0.021520 -0.010612
5.101740 0.021520 -0.010612
6.413811 0.021520 -0.010612
8.061938 0.021520 -0.010612
10.132194 0.021520 -0.010612
12.732698 0.021520 -0.010612
15.999260 0.021520 -0.010612
-0.010612 0.032465 -0.010612
-0.007737 0.032465 -0.010612
-0.004169 0.032465 -0.010612
0.000278 0.032465 -0.010612
0.005836 0.032465 -0.010612
0.012795 0.032465 -0.010612
0.021520 0.032465 -0.010612
0.032465 0.032465 -0.010612
0.046202 0.032465 -0.010612
0.063449 0.032465 -0.010612
0.085106 0.032465 -0.010612
0.112304 0.032465 -0.010612
0.146464 0.032465 -0.010612
0.189370 0.032465 -0.010612
0.243263 0.032465 -0.010612
0.310957 0.032465 -0.010612
0.395987 0.032465 -0.010612
0.502793 0.032465 -0.010612
0.636955 0.032465 -0.010612
0.805479 0.032465 -0.010612
1.017165 0.032465 -0.010612
1.283069 0.032465 -0.010612
1.617077 0.032465 -0.010612
2.036634 0.032465 -0.010612
2.563650 0.032465 -0.010612
3.225649 0.032465 -0.010612
4.057203 0.032465 -0.010612
5.101740 0.032465 -0.010612
6.413811 0.032465 -0.010612
8.061938 0.032465 -0.010612
10.132194 0.032465 -0.010612
12.732698 0.032465 -0.010612
15.999260 0.032465 -0.010612
-0.010612 0.046202 -0.010612
-0.007737 0.046202 -0.010612
-0.004169 0.046202 -0.010612
0.000278 0.046202 -0.010612
0.005836 0.046202 -0.010612
0.012795 0.046202 -0.010612
0.021520 0.046202 -0.010612
0.032465 0.046202 -0.010612
0.046202 0.046202 -0.010612
0.063449 0.046202 -0.010612
0.085106 0.046202 -0.010612
0.112304 0.046202 -0.010612
0.146464 0.046202 -0.010612
0.189370 0.046202 -0.010612
0.243263 0.046202 -0.010612
0.310957 0.046202 -0.010612
0.395987 0.046202 -0.010612
0.502793 0.046202 -0.010612
0.636955 0.046202 -0.010612
0.805479 0.046202 -0.010612
1.017165 0.046202 -0.010612
1.283069 0.046202 -0.010612
1.617077 0.046202 -0.010612
2.036634 0.046202 -0.010612
2.563650 0.046202 -0.010612
3.225649 0.046202 -0.010612
4.057203 0.046202 -0.010612
5.101740 0.046202 -0.010612
6.413811 0.046202 -0.010612
8.061938 0.046202 -0.010612
10.132194 0.046202 -0.010612
12.732698 0.046202 -0.010612
15.999260 0.046202 -0.010612
-0.010612 0.063449 -0.010612
-0.007737 0.063449 -0.010612
-0.004169 0.063449 -0.010612
0.000278 0.063449 -0.010612
0.005836 0.063449 -0.010612
0.012795 0.063449 -0.010612
0.021520 0.063449 -0.010612
0.032465 0.063449 -0.010612
0.046202 0.063449 -0.010612
0.063449 0.063449 -0.010612
0.085106 0.063449 -0.010612
0.112304 0.063449 -0.010612
0.146464 0.063449 -0.010612
0.189370 0.063449 -0.010612
0.243263 0.063449 -0.010612
0.310957 0.063449 -0.010612
0.395987 0.063449 -0.010612
0.502793 0.063449 -0.010612
0.636955 0.063449 -0.010612
0.805479 0.063449 -0.010612
1.017165 0.063449 -0.010612
1.283069 0.063449 -0.010612
1.617077 0.063449 -0.010612
2.036634 0.063449 -0.010612
2.563650 0.063449 -0.010612
3.225649 0.063449 -0.010612
4.057203 0.063449 -0.010612
5.101740 0.063449 -0.010612
6.413811 0.063449 -0.010612
8.061938 0.063449 -0.010612
10.132194 0.063449 -0.010612
12.732698 0.063449 -0.010612
15.999260 0.063449 -0.010612
-0.010612 0.085106 -0.010612
-0.007737 0.085106 -0.010612
-0.004169 0.085106 -0.010612
0.000278 0.085106 -0.010612
0.005836 0.085106 -0.010612
0.012795 0.085106 -0.010612
0.021520 0.085106 -0.010612
0.032465 0.085106 -0.010612
0.046202 0.085106 -0.010612
0.063449 0.085106 -0.010612
0.085106 0.085106 -0.010612
0.112304 0.085106 -0.010612
0.146464 0.085106 -0.010612
0.189370 0.085106 -0.010612
0.243263 0.085106 -0.010612
0.310957 0.085106 -0.010612
0.395987 0.085106 -0.010612
0.502793 0.085106 -0.010612
0.636955 0.085106 -0.010612
0.805479 0.085106 -0.010612
1.017165 0.085106 -0.010612
1.283069 0.085106 -0.010612
1.617077 0.085106 -0.010612
2.036634 0.085106 -0.010612
2.563650 0.085106 -0.010612
3.225649 0.085106 -0.010612
4.057203 0.085106 -0.010612
5.101740 0.085106 -0.010612
6.413811 0.085106 -0.010612
8.061938 0.085106 -0.010612
10.132194 0.085106 -0.010612
12.732698 0.085106 -0.010612
15.999260 0.085106 -0.010612
-0.010612 0.112304 -0.010612
-0.007737 0.112304 -0.010612
-0.004169 0.112304 -0.010612
0.000278 0.112304 -0.010612
0.005836 0.112304 -0.010612
0.012795 0.112304 -0.010612
0.021520 0.112304 -0.010612
0.032465 0.112304 -0.010612
0.046202 0.112304 -0.010612
0.063449 0.112304 -0.010612
0.085106 0.112304 -0.010612
0.112304 0.112304 -0.010612
0.146464 0.112304 -0.010612
0.189370 0.112304 -0.010612
0.243263 0.112304 -0.010612
0.310957 0.112304 -0.010612
0.395987 0.112304 -0.010612
0.502793 0.112304 -0.010612
0.636955 0.112304 -0.010612
0.805479 0.112304 -0.010612
1.017165 0.112304 -0.010612
1.283069 0.112304 -0.010612
1.617077 0.112304 -0.010612
2.036634 0.112304 -0.010612
2.563650 0.112304 -0.010612
3.225649 0.112304 -0.010612
4.057203 0.112304 -0.010612
5.101740 0.112304 -0.010612
6.413811 0.112304 -0.010612
8.061938 0.112304 -0.010612
10.132194 0.112304 -0.010612
12.732698 0.112304 -0.010612
15.999260 0.112304 -0.010612
-0.010612 0.146464 -0.010612
-0.007737 0.146464 -0.010612
-0.004169 0.146464 -0.010612
0.000278 0.146464 -0.010612
0.005836 0.146464 -0.010612
0.012795 0.146464 -0.010612
0.021520 0.146464 -0.010612
0.032465 0.146464 -0.010612
0.046202 0.146464 -0.010612
0.063449 0.146464 -0.010612
0.085106 0.146464 -0.010612
0.112304 0.146464 -0.010612
0.146464 0.146464 -0.010612
0.189370 0.146464 -0.010612
0.243263 0.146464 -0.010612
0.310957 0.146464 -0.010612
0.395987 0.146464 -0.010612
0.502793 0.146464 -0.010612
0.636955 0.146464 -0.010612
0.805479 0.146464 -0.010612
1.017165 0.146464 -0.010612
1.283069 0.146464 -0.010612
1.617077 0.146464 -0.010612
2.036634 0.146464 -0.010612
2.563650 0.146464 -0.010612
3.225649 0.146464 -0.010612
4.057203 0.146464 -0.010612
5.101740 0.146464 -0.010612
6.413811 0.146464 -0.010612
8.061938 0.146464 -0.010612
10.132194 0.146464 -0.010612
12.732698 0.146464 -0.010612
15.999260 0.146464 -0.010612
-0.010612 0.189370 -0.010612
-0.007737 0.189370 -0.010612
-0.004169 0.189370 -0.010612
0.000278 0.189370 -0.010612
0.005836 0.189370 -0.010612
0.012795 0.189370 -0.010612
0.021520 0.189370 -0.010612
0.032465 0.189370 -0.010612
0.046202 0.189370 -0.010612
0.063449 0.189370 -0.010612
0.085106 0.189370 -0.010612
0.112304 0.189370 -0.010612
0.146464 0.189370 -0.010612
0.189370 0.189370 -0.010612
0.243263 0.189370 -0.010612
0.310957 0.189370 -0.010612
0.395987 0.189370 -0.010612
0.502793 0.189370 -0.010612
0.636955 0.189370 -0.010612
0.805479 0.189370 -0.010612
1.017165 0.189370 -0.010612
1.283069 0.189370 -0.010612
1.617077 0.189370 -0.010612
2.036634 0.189370 -0.010612
2.563650 0.189370 -0.010612
3.225649 0.189370 -0.010612
4.057203 0.189370 -0.010612
5.101740 0.189370 -0.010612
6.413811 0.189370 -0.010612
8.061938 0.189370 -0.010612
10.132194 0.189370 -0.010612
12.732698 0.189370 -0.010612
15.999260 0.189370 -0.010612
-0.010612 0.243263 -0.010612
-0.007737 0.243263 -0.010612
-0.004169 0.243263 -0.010612
0.000278 0.243263 -0.010612
0.005836 0.243263 -0.010612
0.012795 0.243263 -0.010612
0.021520 0.243263 -0.010612
0.032465 0.243263 -0.010612
0.046202 0.243263 -0.010612
0.063449 0.243263 -0.010612
0.085106 0.243263 -0.010612
0.112304 0.243263 -0.010612
0.146464 0.243263 -0.010612
0.189370 0.243263 -0.010612
0.243263 0.243263 -0.010612
0.310957 0.243263 -0.010612
0.395987 0.243263 -0.010612
0.502793 0.243263 -0.010612
0.636955 0.243263 -0.010612
0.805479 0.243263 -0.010612
1.017165 0.243263 -0.010612
1.283069 0.243263 -0.010612
1.617077 0.243263 -0.010612
2.036634 0.243263 -0.010612
2.563650 0.243263 -0.010612
3.225649 0.243263 -0.010612
4.057203 0.243263 -0.010612
5.101740 0.243263 -0.010612
6.413811 0.243263 -0.010612
8.061938 0.243263 -0.010612
10.132194 0.243263 -0.010612
12.732698 0.243263 -0.010612
15.999260 0.243263 -0.010612
-0.010612 0.310957 -0.010612
-0.007737 0.310957 -0.010612
-0.004169 0.310957 -0.010612
0.000278 0.310957 -0.010612
0.005836 0.310957 -0.010612
0.012795 0.310957 -0.010612
0.021520 0.310957 -0.010612
0.032465 0.310957 -0.010612
0.046202 0.310957 -0.010612
0.063449 0.310957 -0.010612
0.085106 0.310957 -0.010612
0.112304 0.310957 -0.010612
0.146464 0.310957 -0.010612
0.189370 0.310957 -0.010612
0.243263 0.310957 -0.010612
0.310957 0.310957 -0.010612
0.395987 0.310957 -0.010612
0.502793 0.310957 -0.010612
0.636955 0.310957 -0.010612
0.805479 0.310957 -0.010612
1.017165 0.310957 -0.010612
1.283069 0.310957 -0.010612
1.617077 0.310957 -0.010612
2.036634 0.310957 -0.010612
2.563650 0.310957 -0.010612
3.225649 0.310957 -0.010612
4.057203 0.310957 -0.010612
5.101740 0.310957 -0.010612
6.413811 0.310957 -0.010612
8.061938 0.310957 -0.010612
10.132194 0.310957 -0.010612
12.732698 0.310957 -0.010612
15.999260 0.310957 -0.010612
-0.010612 0.395987 -0.010612
-0.007737 0.395987 -0.010612
-0.004169 0.395987 -0.010612
0.000278 0.395987 -0.010612
0.005836 0.395987 -0.010612
0.012795 0.395987 -0.010612
0.021520 0.395987 -0.010612
0.032465 0.395987 -0.010612
0.046202 0.395987 -0.010612
0.063449 0.395987 -0.010612
0.085106 0.395987 -0.010612
0.112304 0.395987 -0.010612
0.146464 0.395987 -0.010612
0.189370 0.395987 -0.010612
0.243263 0.395987 -0.010612
0.310957 0.395987 -0.010612
0.395987 0.395987 -0.010612
0.502793 0.395987 -0.010612
0.636955 0.395987 -0.010612
0.805479 0.395987 -0.010612
1.017165 0.395987 -0.010612
1.283069 0.395987 -0.010612
1.617077 0.395987 -0.010612
2.036634 0.395987 -0.010612
2.563650 0.395987 -0.010612
3.225649 0.395987 -0.010612
4.057203 0.395987 -0.010612
5.101740 0.395987 -0.010612
6.413811 0.395987 -0.010612
8.061938 0.395987 -0.010612
10.132194 0.395987 -0.010612
12.732698 0.395987 -0.010612
15.999260 0.395987 -0.010612
-0.010612 0.502793 -0.010612
-0.007737 0.502793 -0.010612
-0.004169 0.502793 -0.010612
0.000278 0.502793 -0.010612
0.005836 0.502793 -0.010612
0.012795 0.502793 -0.010612
0.021520 0.502793 -0.010612
0.032465 0.502793 -0.010612
0.046202 0.502793 -0.010612
0.063449 0.502793 -0.010612
0.085106 0.502793 -0.010612
0.112304 0.502793 -0.010612
0.146464 0.502793 -0.010612
0.189370 0.502793 -0.010612
0.243263 0.502793 -0.010612
0.310957 0.502793 -0.010612
0.395987 0.502793 -0.010612
0.502793 0.502793 -0.010612
0.636955 0.502793 -0.010612
0.805479 0.502793 -0.010612
1.017165 0.502793 -0.010612
1.283069 0.502793 -0.010612
1.617077 0.502793 -0.010612
2.036634 0.502793 -0.010612
2.563650 0.502793 -0.010612
3.225649 0.502793 -0.010612
4.057203 0.502793 -0.010612
5.101740 0.502793 -0.010612
6.413811 0.502793 -0.010612
8.061938 0.502793 -0.010612
10.132194 0.502793 -0.010612
12.732698 0.502793 -0.010612
15.999260 0.502793 -0.010612
-0.010612 0.636955 -0.010612
-0.007737 0.636955 -0.010612
-0.004169 0.636955 -0.010612
0.000278 0.636955 -0.010612
0.005836 0.636955 -0.010612
0.012795 0.636955 -0.010612
0.021520 0.636955 -0.010612
0.032465 0.636955 -0.010612
0.046202 0.636955 -0.010612
0.063449 0.636955 -0.010612
0.085106 0.636955 -0.010612
0.112304 0.636955 -0.010612
0.146464 0.636955 -0.010612
0.189370 0.636955 -0.010612
0.243263 0.636955 -0.010612
0.310957 0.636955 -0.010612
0.395987 0.636955 -0.010612
0.502793 0.636955 -0.010612
0.636955 0.636955 -0.010612
0.805479 0.636955 -0.010612
1.017165 0.636955 -0.010612
1.283069 0.636955 -0.010612
1.617077 0.636955 -0.010612
2.036634 0.636955 -0.010612
2.563650 0.636955 -0.010612
3.225649 0.636955 -0.010612
4.057203 0.636955 -0.010612
5.101740 0.636955 -0.010612
6.413811 0.636955 -0.010612
8.061938 0.636955 -0.010612
10.132194 0.636955 -0.010612
12.732698 0.636955 -0.010612
15.999260 0.636955 -0.010612
-0.010612 0.805479 -0.010612
-0.007737 0.805479 -0.010612
-0.004169 0.805479 -0.010612
0.000278 0.805479 -0.010612
0.005836 0.805479 -0.010612
0.012795 0.805479 -0.010612
0.021520 0.805479 -0.010612
0.032465 0.805479 -0.010612
0.046202 0.805479 -0.010612
0.063449 0.805479 -0.010612
0.085106 0.805479 -0.010612
0.112304 0.805479 -0.010612
0.146464 0.805479 -0.010612
0.189370 0.805479 -0.010612
0.243263 0.805479 -0.010612
0.310957 0.805479 -0.010612
0.395987 0.805479 -0.010612
0.502793 0.805479 -0.010612
0.636955 0.805479 -0.010612
0.805479 0.805479 -0.010612
1.017165 0.805479 -0.010612
1.283069 0.805479 -0.010612
1.617077 0.805479 -0.010612
2.036634 0.805479 -0.010612
2.563650 0.805479 -0.010612
3.225649 0.805479 -0.010612
4.057203 0.805479 -0.010612
5.101740 0.805479 -0.010612
6.413811 0.805479 -0.010612
8.061938 0.805479 -0.010612
10.132194 0.805479 -0.010612
12.732698 0.805479 -0.010612
15.999260 0.805479 -0.010612
-0.010612 1.017165 -0.010612
-0.007737 1.017165 -0.010612
-0.004169 1.017165 -0.010612
0.000278 1.017165 -0.010612
0.005836 1.017165 -0.010612
0.012795 1.017165 -0.010612
0.021520 1.017165 -0.010612
0.032465 1.017165 -0.010612
0.046202 1.017165 -0.010612
0.063449 1.017165 -0.010612
0.085106 1.017165 -0.010612
0.112304 1.017165 -0.010612
0.146464 1.017165 -0.010612
0.189370 1.017165 -0.010612
0.243263 1.017165 -0.010612
0.310957 1.017165 -0.010612
0.395987 1.017165 -0.010612
0.502793 1.017165 -0.010612
0.636955 1.017165 -0.010612
0.805479 1.017165 -0.010612
1.017165 1.017165 -0.010612
1.283069 1.017165 -0.010612
1.617077 1.017165 -0.010612
2.036634 1.017165 -0.010612
2.563650 1.017165 -0.010612
3.225649 1.017165 -0.010612
4.057203 1.017165 -0.010612
5.101740 1.017165 -0.010612
6.413811 1.017165 -0.010612
8.061938 1.017165 -0.010612
10.132194 1.017165 -0.010612
12.732698 1.017165 -0.010612
15.999260 1.017165 -0.010612
-0.010612 1.283069 -0.010612
-0.007737 1.283069 -0.010612
-0.004169 1.283069 -0.010612
0.000278 1.283069 -0.010612
0.005836 1.283069 -0.010612
0.012795 1.283069 -0.010612
0.021520 1.283069 -0.010612
0.032465 1.283069 -0.010612
0.046202 1.283069 -0.010612
0.063449 1.283069 -0.010612
0.085106 1.283069 -0.010612
0.112304 1.283069 -0.010612
0.146464 1.283069 -0.010612
0.189370 1.283069 -0.010612
0.243263 1.283069 -0.010612
0.310957 1.283069 -0.010612
0.395987 1.283069 -0.010612
0.502793 1.283069 -0.010612
0.636955 1.283069 -0.010612
0.805479 1.283069 -0.010612
1.017165 1.283069 -0.010612
1.283069 1.283069 -0.010612
1.617077 1.283069 -0.010612
2.036634 1.283069 -0.010612
2.563650 1.283069 -0.010612
3.225649 1.283069 -0.010612
4.057203 1.283069 -0.010612
5.101740 1.283069 -0.010612
6.413811 1.283069 -0.010612
8.061938 1.283069 -0.010612
10.132194 1.283069 -0.010612
12.732698 1.283069 -0.010612
15.999260 1.283069 -0.010612
-0.010612 1.617077 -0.010612
-0.007737 1.617077 -0.010612
-0.004169 1.617077 -0.010612
0.000278 1.617077 -0.010612
0.005836 1.617077 -0.010612
0.012795 1.617077 -0.010612
0.021520 1.617077 -0.010612
0.032465 1.617077 -0.010612
0.046202 1.617077 -0.010612
0.063449 1.617077 -0.010612
0.085106 1.617077 -0.010612
0.112304 1.617077 -0.010612
0.146464 1.617077 -0.010612
0.189370 1.617077 -0.010612
0.243263 1.617077 -0.010612
0.310957 1.617077 -0.010612
0.395987 1.617077 -0.010612
0.502793 1.617077 -0.010612
0.636955 1.617077 -0.010612
0.805479 1.617077 -0.010612
1.017165 1.617077 -0.010612
1.283069 1.617077 -0.010612
1.617077 1.617077 -0.010612
2.036634 1.617077 -0.010612
2.563650 1.617077 -0.010612
3.225649 1.617077 -0.010612
4.057203 1.617077 -0.010612
5.101740 1.617077 -0.010612
6.413811 1.617077 -0.010612
8.061938 1.617077 -0.010612
10.132194 1.617077 -0.010612
12.732698 1.617077 -0.010612
15.999260 1.617077 -0.010612
-0.010612 2.036634 -0.010612
-0.007737 2.036634 -0.010612
-0.004169 2.036634 -0.010612
0.000278 2.036634 -0.010612
0.005836 2.036634 -0.010612
0.012795 2.036634 -0.010612
0.021520 2.036634 -0.010612
0.032465 2.036634 -0.010612
0.046202 2.036634 -0.010612
0.063449 2.036634 -0.010612
0.085106 2.036634 -0.010612
0.112304 2.036634 -0.010612
0.146464 2.036634 -0.010612
0.189370 2.036634 -0.010612
0.243263 2.036634 -0.010612
0.310957 2.036634 -0.010612
0.395987 2.036634 -0.010612
0.502793 2.036634 -0.010612
0.636955 2.036634 -0.010612
0.805479 2.036634 -0.010612
1.017165 2.036634 -0.010612
1.283069 2.036634 -0.010612
1.617077 2.036634 -0.010612
2.036634 2.036634 -0.010612
2.563650 2.036634 -0.010612
3.225649 2.036634 -0.010612
4.057203 2.036634 -0.010612
5.101740 2.036634 -0.010612
6.413811 2.036634 -0.010612
8.061938 2.036634 -0.010612
10.132194 2.036634 -0.010612
12.732698 2.036634 -0.010612
15.999260 2.036634 -0.010612
-0.010612 2.563650 -0.010612
-0.007737 2.563650 -0.010612
-0.004169 2.563650 -0.010612
0.000278 2.563650 -0.010612
0.005836 2.563650 -0.010612
0.012795 2.563650 -0.010612
0.021520 2.563650 -0.010612
0.032465 2.563650 -0.010612
0.046202 2.563650 -0.010612
0.063449 2.563650 -0.010612
0.085106 2.563650 -0.010612
0.112304 2.563650 -0.010612
0.146464 2.563650 -0.010612
0.189370 2.563650 -0.010612
0.243263 2.563650 -0.010612
0.310957 2.563650 -0.010612
0.395987 2.563650 -0.010612
0.502793 2.563650 -0.010612
0.636955 2.563650 -0.010612
0.805479 2.563650 -0.010612
1.017165 2.563650 -0.010612
1.283069 2.563650 -0.010612
1.617077 2.563650 -0.010612
2.036634 2.563650 -0.010612
2.563650 2.563650 -0.010612
3.225649 2.563650 -0.010612
4.057203 2.563650 -0.010612
5.101740 2.563650 -0.010612
6.413811 2.563650 -0.010612
8.061938 2.563650 -0.010612
10.132194 2.563650 -0.010612
12.732698 2.563650 -0.010612
15.999260 2.563650 -0.010612
-0.010612 3.225649 -0.010612
-0.007737 3.225649 -0.010612
-0.004169 3.225649 -0.010612
0.000278 3.225649 -0.010612
0.005836 3.225649 -0.010612
0.012795 3.225649 -0.010612
0.021520 3.225649 -0.010612
0.032465 3.225649 -0.010612
0.046202 3.225649 -0.010612
0.063449 3.225649 -0.010612
0.085106 3.225649 -0.010612
0.112304 3.225649 -0.010612
0.146464 3.225649 -0.010612
