post_production/PixelLog_to_Rec709_Display_65.cube
# PixelLog to Rec.709 Display Transform 3D LUT
# Target Device: Google Pixel 11 Pro Primary Sensor (Tensor G6)
# Transform: Pixel-Log BT.2020 -> Scene-Linear -> BT.2020 to Rec.709 -> Rational Tone Map -> Rec.709 OETF
# Middle Grey (0.40) -> 42.0 IRE | Diffuse White (1.0) -> 90.0 IRE | Highlight Ceiling -> 99.8 IRE
LUT_3D_SIZE 65
DOMAIN_MIN 0.0 0.0 0.0
DOMAIN_MAX 1.0 1.0 1.0
0.000000 0.000000 0.000000
0.000000 0.000000 0.000000
0.000000 0.000000 0.000000
0.000000 0.000000 0.000000
0.000000 0.000000 0.000000
0.000000 0.000000 0.000000
0.000000 0.000000 0.000000
0.000000 0.000000 0.000000
0.000000 0.000000 0.000000
0.000000 0.000000 0.000000
0.000000 0.000000 0.000000
0.000000 0.000000 0.000000
0.000000 0.000000 0.000000
0.000000 0.000000 0.000000
0.000000 0.000000 0.000000
0.000000 0.000000 0.000000
0.221959 0.000000 0.000000
0.243312 0.000000 0.000000
0.265479 0.000000 0.000000
0.288563 0.000000 0.000000
0.312671 0.000000 0.000000
0.337909 0.000000 0.000000
0.364390 0.000000 0.000000
0.392232 0.000000 0.000000
0.421556 0.000000 0.000000
0.452490 0.000000 0.000000
0.485167 0.000000 0.000000
0.519724 0.000000 0.000000
0.556302 0.000000 0.000000
0.595042 0.000000 0.000000
0.636088 0.000000 0.000000
0.679577 0.000000 0.000000
0.725641 0.000000 0.000000
0.774398 0.000000 0.000000
0.825948 0.000000 0.000000
0.880362 0.000000 0.000000
0.937679 0.000000 0.000000
0.997890 0.000000 0.000000
1.000000 0.000000 0.000000
1.000000 0.000000 0.000000
1.000000 0.000000 0.000000
1.000000 0.000000 0.000000
1.000000 0.000000 0.000000
1.000000 0.000000 0.000000
1.000000 0.000000 0.000000
1.000000 0.000000 0.000000
1.000000 0.000000 0.000000
1.000000 0.000000 0.000000
1.000000 0.000000 0.000000
1.000000 0.000000 0.000000
1.000000 0.000000 0.000000
1.000000 0.000000 0.000000
1.000000 0.000000 0.000000
1.000000 0.000000 0.000000
1.000000 0.000000 0.000000
1.000000 0.000000 0.000000
1.000000 0.000000 0.000000
1.000000 0.000000 0.000000
1.000000 0.000000 0.000000
1.000000 0.000000 0.026153
1.000000 0.000000 0.070191
1.000000 0.000000 0.114683
1.000000 0.000000 0.152798
1.000000 0.000000 0.187201
1.000000 0.000000 0.219198
0.000000 0.000000 0.000000
0.000000 0.000000 0.000000
0.000000 0.000000 0.000000
0.000000 0.000000 0.000000
0.000000 0.000000 0.000000
0.000000 0.000000 0.000000
0.000000 0.000000 0.000000
0.000000 0.000000 0.000000
0.000000 0.000000 0.000000
0.000000 0.000000 0.000000
0.000000 0.000000 0.000000
0.000000 0.000000 0.000000
0.000000 0.000000 0.000000
0.000000 0.000000 0.000000
0.000000 0.000000 0.000000
0.199861 0.000000 0.000000
0.220771 0.000000 0.000000
0.242368 0.000000 0.000000
0.264760 0.000000 0.000000
0.288051 0.000000 0.000000
0.312349 0.000000 0.000000
0.337764 0.000000 0.000000
0.364409 0.000000 0.000000
0.392401 0.000000 0.000000
0.421864 0.000000 0.000000
0.452924 0.000000 0.000000
0.485715 0.000000 0.000000
0.520373 0.000000 0.000000
0.557039 0.000000 0.000000
0.595853 0.000000 0.000000
0.636958 0.000000 0.000000
0.680491 0.000000 0.000000
0.726582 0.000000 0.000000
0.775348 0.000000 0.000000
0.826887 0.000000 0.000000
0.881271 0.000000 0.000000
0.938537 0.000000 0.000000
0.998674 0.000000 0.000000
1.000000 0.000000 0.000000
1.000000 0.000000 0.000000
1.000000 0.000000 0.000000
1.000000 0.000000 0.000000
1.000000 0.000000 0.000000
1.000000 0.000000 0.000000
1.000000 0.000000 0.000000
1.000000 0.000000 0.000000
1.000000 0.000000 0.000000
1.000000 0.000000 0.000000
1.000000 0.000000 0.000000
1.000000 0.000000 0.000000
1.000000 0.000000 0.000000
1.000000 0.000000 0.000000
1.000000 0.000000 0.000000
1.000000 0.000000 0.000000
1.000000 0.000000 0.000000
1.000000 0.000000 0.000000
1.000000 0.000000 0.000000
1.000000 0.000000 0.000000
1.000000 0.000000 0.000000
1.000000 0.000000 0.026388
1.000000 0.000000 0.070461
1.000000 0.000000 0.114924
1.000000 0.000000 0.153009
1.000000 0.000000 0.187391
1.000000 0.000000 0.219371
0.000000 0.000000 0.000000
0.000000 0.000000 0.000000
0.000000 0.000000 0.000000
0.000000 0.000000 0.000000
0.000000 0.000000 0.000000
0.000000 0.000000 0.000000
0.000000 0.000000 0.000000
0.000000 0.000000 0.000000
0.000000 0.000000 0.000000
0.000000 0.000000 0.000000
0.000000 0.000000 0.000000
0.000000 0.000000 0.000000
0.000000 0.000000 0.000000
0.000000 0.000000 0.000000
0.177692 0.000000 0.000000
0.198330 0.000000 0.000000
0.219516 0.000000 0.000000
0.241364 0.000000 0.000000
0.263985 0.000000 0.000000
0.287487 0.000000 0.000000
0.311979 0.000000 0.000000
0.337574 0.000000 0.000000
0.364384 0.000000 0.000000
0.392529 0.000000 0.000000
0.422131 0.000000 0.000000
0.453319 0.000000 0.000000
0.486225 0.000000 0.000000
0.520985 0.000000 0.000000
0.557739 0.000000 0.000000
0.596629 0.000000 0.000000
0.637794 0.000000 0.000000
0.681371 0.000000 0.000000
0.727489 0.000000 0.000000
0.776264 0.000000 0.000000
0.827794 0.000000 0.000000
0.882148 0.000000 0.000000
0.939363 0.000000 0.000000
0.999429 0.000000 0.000000
1.000000 0.000000 0.000000
1.000000 0.000000 0.000000
1.000000 0.000000 0.000000
1.000000 0.000000 0.000000
1.000000 0.000000 0.000000
1.000000 0.000000 0.000000
1.000000 0.000000 0.000000
1.000000 0.000000 0.000000
1.000000 0.000000 0.000000
1.000000 0.000000 0.000000
1.000000 0.000000 0.000000
1.000000 0.000000 0.000000
1.000000 0.000000 0.000000
1.000000 0.000000 0.000000
1.000000 0.000000 0.000000
1.000000 0.000000 0.000000
1.000000 0.000000 0.000000
1.000000 0.000000 0.000000
1.000000 0.000000 0.000000
1.000000 0.000000 0.000000
1.000000 0.000000 0.000000
1.000000 0.000000 0.026625
1.000000 0.000000 0.070731
1.000000 0.000000 0.115166
1.000000 0.000000 0.153221
1.000000 0.000000 0.187581
1.000000 0.000000 0.219544
0.000000 0.000000 0.000000
0.000000 0.000000 0.000000
0.000000 0.000000 0.000000
0.000000 0.000000 0.000000
0.000000 0.000000 0.000000
0.000000 0.000000 0.000000
0.000000 0.000000 0.000000
0.000000 0.000000 0.000000
0.000000 0.000000 0.000000
0.000000 0.000000 0.000000
0.000000 0.000000 0.000000
0.000000 0.000000 0.000000
0.134851 0.000000 0.000000
0.155195 0.000000 0.000000
0.175769 0.000000 0.000000
0.196725 0.000000 0.000000
0.218195 0.000000 0.000000
0.240300 0.000000 0.000000
0.263155 0.000000 0.000000
0.286871 0.000000 0.000000
0.311561 0.000000 0.000000
0.337337 0.000000 0.000000
0.364315 0.000000 0.000000
0.392615 0.000000 0.000000
0.422359 0.000000 0.000000
0.453675 0.000000 0.000000
0.486697 0.000000 0.000000
0.521560 0.000000 0.000000
0.558404 0.000000 0.000000
0.597369 0.000000 0.000000
0.638594 0.000000 0.000000
0.682216 0.000000 0.000000
0.728362 0.000000 0.000000
0.777148 0.000000 0.000000
0.828669 0.000000 0.000000
0.882995 0.000000 0.000000
0.940160 0.000000 0.000000
1.000000 0.000000 0.000000
1.000000 0.000000 0.000000
1.000000 0.000000 0.000000
1.000000 0.000000 0.000000
1.000000 0.000000 0.000000
1.000000 0.000000 0.000000
1.000000 0.000000 0.000000
1.000000 0.000000 0.000000
1.000000 0.000000 0.000000
1.000000 0.000000 0.000000
1.000000 0.000000 0.000000
1.000000 0.000000 0.000000
1.000000 0.000000 0.000000
1.000000 0.000000 0.000000
1.000000 0.000000 0.000000
1.000000 0.000000 0.000000
1.000000 0.000000 0.000000
1.000000 0.000000 0.000000
1.000000 0.000000 0.000000
1.000000 0.000000 0.000000
1.000000 0.000000 0.000000
1.000000 0.000000 0.000000
1.000000 0.000000 0.026863
1.000000 0.000000 0.071002
1.000000 0.000000 0.115408
1.000000 0.000000 0.153433
1.000000 0.000000 0.187772
1.000000 0.000000 0.219717
0.000000 0.000000 0.000000
0.000000 0.000000 0.000000
0.000000 0.000000 0.000000
0.000000 0.000000 0.000000
0.000000 0.000000 0.000000
0.000000 0.000000 0.000000
0.000000 0.000000 0.000000
0.000000 0.000000 0.000000
0.000000 0.000000 0.000000
0.000000 0.000000 0.000000
0.000000 0.000000 0.000000
0.111220 0.000000 0.000000
0.132032 0.000000 0.000000
0.152810 0.000000 0.000000
0.173758 0.000000 0.000000
0.195043 0.000000 0.000000
0.216806 0.000000 0.000000
0.239174 0.000000 0.000000
0.262269 0.000000 0.000000
0.286204 0.000000 0.000000
0.311095 0.000000 0.000000
0.337056 0.000000 0.000000
0.364204 0.000000 0.000000
0.392659 0.000000 0.000000
0.422546 0.000000 0.000000
0.453993 0.000000 0.000000
0.487132 0.000000 0.000000
0.522099 0.000000 0.000000
0.559033 0.000000 0.000000
0.598074 0.000000 0.000000
0.639360 0.000000 0.000000
0.683028 0.000000 0.000000
0.729203 0.000000 0.000000
0.777999 0.000000 0.000000
0.829512 0.000000 0.000000
0.883810 0.000000 0.000000
0.940926 0.000000 0.000000
1.000000 0.000000 0.000000
1.000000 0.000000 0.000000
1.000000 0.000000 0.000000
1.000000 0.000000 0.000000
1.000000 0.000000 0.000000
1.000000 0.000000 0.000000
1.000000 0.000000 0.000000
1.000000 0.000000 0.000000
1.000000 0.000000 0.000000
1.000000 0.000000 0.000000
1.000000 0.000000 0.000000
1.000000 0.000000 0.000000
1.000000 0.000000 0.000000
1.000000 0.000000 0.000000
1.000000 0.000000 0.000000
1.000000 0.000000 0.000000
1.000000 0.000000 0.000000
1.000000 0.000000 0.000000
1.000000 0.000000 0.000000
1.000000 0.000000 0.000000
1.000000 0.000000 0.000000
1.000000 0.000000 0.000000
1.000000 0.000000 0.027102
1.000000 0.000000 0.071275
1.000000 0.000000 0.115650
1.000000 0.000000 0.153645
1.000000 0.000000 0.187962
1.000000 0.000000 0.219891
0.000000 0.000000 0.000000
0.000000 0.000000 0.000000
0.000000 0.000000 0.000000
0.000000 0.000000 0.000000
0.000000 0.000000 0.000000
0.000000 0.000000 0.000000
0.000000 0.000000 0.000000
0.000000 0.000000 0.000000
0.000000 0.000000 0.000000
0.064071 0.000000 0.000000
0.085918 0.000000 0.000000
0.107722 0.000000 0.000000
0.129085 0.000000 0.000000
0.150320 0.000000 0.000000
0.171659 0.000000 0.000000
0.193284 0.000000 0.000000
0.215348 0.000000 0.000000
0.237988 0.000000 0.000000
0.261327 0.000000 0.000000
0.285485 0.000000 0.000000
0.310580 0.000000 0.000000
0.336728 0.000000 0.000000
0.364049 0.000000 0.000000
0.392662 0.000000 0.000000
0.422694 0.000000 0.000000
0.454272 0.000000 0.000000
0.487529 0.000000 0.000000
0.522601 0.000000 0.000000
0.559626 0.000000 0.000000
0.598744 0.000000 0.000000
0.640093 0.000000 0.000000
0.683806 0.000000 0.000000
0.730010 0.000000 0.000000
0.778818 0.000000 0.000000
0.830324 0.000000 0.000000
0.884594 0.000000 0.000000
0.941663 0.000000 0.000000
1.000000 0.000000 0.000000
1.000000 0.000000 0.000000
1.000000 0.000000 0.000000
1.000000 0.000000 0.000000
1.000000 0.000000 0.000000
1.000000 0.000000 0.000000
1.000000 0.000000 0.000000
1.000000 0.000000 0.000000
1.000000 0.000000 0.000000
1.000000 0.000000 0.000000
1.000000 0.000000 0.000000
1.000000 0.000000 0.000000
1.000000 0.000000 0.000000
1.000000 0.000000 0.000000
1.000000 0.000000 0.000000
1.000000 0.000000 0.000000
1.000000 0.000000 0.000000
1.000000 0.000000 0.000000
1.000000 0.000000 0.000000
1.000000 0.000000 0.000000
1.000000 0.000000 0.000000
1.000000 0.000000 0.000000
1.000000 0.000000 0.027342
1.000000 0.000000 0.071548
1.000000 0.000000 0.115892
1.000000 0.000000 0.153857
1.000000 0.000000 0.188153
1.000000 0.000000 0.220064
0.000000 0.000000 0.000000
0.000000 0.000000 0.000000
0.000000 0.000000 0.000000
0.000000 0.000000 0.000000
0.000000 0.000000 0.000000
0.000000 0.000000 0.000000
0.000000 0.000000 0.000000
0.022021 0.001424 0.000000
0.039732 0.000109 0.000000
0.059396 0.000000 0.000000
0.081492 0.000000 0.000000
0.104044 0.000000 0.000000
0.125995 0.000000 0.000000
0.147714 0.000000 0.000000
0.169462 0.000000 0.000000
0.191442 0.000000 0.000000
0.213818 0.000000 0.000000
0.236736 0.000000 0.000000
0.260326 0.000000 0.000000
0.284712 0.000000 0.000000
0.310016 0.000000 0.000000
0.336355 0.000000 0.000000
0.363850 0.000000 0.000000
0.392624 0.000000 0.000000
0.422802 0.000000 0.000000
0.454513 0.000000 0.000000
0.487890 0.000000 0.000000
0.523068 0.000000 0.000000
0.560186 0.000000 0.000000
0.599381 0.000000 0.000000
0.640793 0.000000 0.000000
0.684553 0.000000 0.000000
0.730787 0.000000 0.000000
0.779608 0.000000 0.000000
0.831107 0.000000 0.000000
0.885351 0.000000 0.000000
0.942372 0.000000 0.000000
1.000000 0.000000 0.000000
1.000000 0.000000 0.000000
1.000000 0.000000 0.000000
1.000000 0.000000 0.000000
1.000000 0.000000 0.000000
1.000000 0.000000 0.000000
1.000000 0.000000 0.000000
1.000000 0.000000 0.000000
1.000000 0.000000 0.000000
1.000000 0.000000 0.000000
1.000000 0.000000 0.000000
1.000000 0.000000 0.000000
1.000000 0.000000 0.000000
1.000000 0.000000 0.000000
1.000000 0.000000 0.000000
1.000000 0.000000 0.000000
1.000000 0.000000 0.000000
1.000000 0.000000 0.000000
1.000000 0.000000 0.000000
1.000000 0.000000 0.000000
1.000000 0.000000 0.000000
1.000000 0.000000 0.000000
1.000000 0.000000 0.027585
1.000000 0.000000 0.071823
1.000000 0.000000 0.116135
1.000000 0.000000 0.154070
1.000000 0.000000 0.188344
1.000000 0.000000 0.220238
0.000000 0.000000 0.000000
0.000000 0.000000 0.000000
0.000000 0.000000 0.000000
0.000000 0.000000 0.000000
0.000000 0.015706 0.000000
0.000000 0.014651 0.000000
0.000444 0.013583 0.000000
0.016557 0.012431 0.000000
0.034430 0.011152 0.000000
0.054270 0.009732 0.000000
0.076312 0.008153 0.000000
0.099906 0.006396 0.000000
0.122533 0.004439 0.000000
0.144800 0.002258 0.000000
0.167007 0.000000 0.000000
0.189380 0.000000 0.000000
0.212102 0.000000 0.000000
0.235326 0.000000 0.000000
0.259192 0.000000 0.000000
0.283828 0.000000 0.000000
0.309358 0.000000 0.000000
0.335905 0.000000 0.000000
0.363591 0.000000 0.000000
0.392538 0.000000 0.000000
0.422875 0.000000 0.000000
0.454730 0.000000 0.000000
0.488236 0.000000 0.000000
0.523528 0.000000 0.000000
0.560746 0.000000 0.000000
0.600025 0.000000 0.000000
0.641505 0.000000 0.000000
0.685316 0.000000 0.000000
0.731584 0.000000 0.000000
0.780418 0.000000 0.000000
0.831910 0.000000 0.000000
0.886127 0.000000 0.000000
0.943098 0.000000 0.000000
1.000000 0.000000 0.000000
1.000000 0.000000 0.000000
1.000000 0.000000 0.000000
1.000000 0.000000 0.000000
1.000000 0.000000 0.000000
1.000000 0.000000 0.000000
1.000000 0.000000 0.000000
1.000000 0.000000 0.000000
1.000000 0.000000 0.000000
1.000000 0.000000 0.000000
1.000000 0.000000 0.000000
1.000000 0.000000 0.000000
1.000000 0.000000 0.000000
1.000000 0.000000 0.000000
1.000000 0.000000 0.000000
1.000000 0.000000 0.000000
1.000000 0.000000 0.000000
1.000000 0.000000 0.000000
1.000000 0.000000 0.000000
1.000000 0.000000 0.000000
1.000000 0.000000 0.000000
1.000000 0.000000 0.000000
1.000000 0.000000 0.027845
1.000000 0.000000 0.072119
1.000000 0.000000 0.116396
1.000000 0.000000 0.154299
1.000000 0.000000 0.188549
1.000000 0.000000 0.220424
0.000000 0.000000 0.000000
0.000000 0.030995 0.000000
0.000000 0.029999 0.000000
0.000000 0.028994 0.000000
0.000000 0.027980 0.000000
0.000000 0.026957 0.000000
0.000000 0.025922 0.000000
0.010406 0.024805 0.000000
0.028456 0.023565 0.000000
0.048490 0.022186 0.000000
0.070743 0.020654 0.000000
0.095096 0.018948 0.000000
0.118531 0.017047 0.000000
0.141440 0.014927 0.000000
0.164179 0.012560 0.000000
0.187005 0.009914 0.000000
0.210121 0.006953 0.000000
0.233693 0.003636 0.000000
0.257869 0.000000 0.000000
0.282786 0.000000 0.000000
0.308571 0.000000 0.000000
0.335350 0.000000 0.000000
0.363248 0.000000 0.000000
0.392390 0.000000 0.000000
0.422903 0.000000 0.000000
0.454918 0.000000 0.000000
0.488567 0.000000 0.000000
0.523987 0.000000 0.000000
0.561315 0.000000 0.000000
0.600689 0.000000 0.000000
0.642244 0.000000 0.000000
0.686112 0.000000 0.000000
0.732417 0.000000 0.000000
0.781267 0.000000 0.000000
0.832753 0.000000 0.000000
0.886941 0.000000 0.000000
0.943859 0.000000 0.000000
1.000000 0.000000 0.000000
1.000000 0.000000 0.000000
1.000000 0.000000 0.000000
1.000000 0.000000 0.000000
1.000000 0.000000 0.000000
1.000000 0.000000 0.000000
1.000000 0.000000 0.000000
1.000000 0.000000 0.000000
1.000000 0.000000 0.000000
1.000000 0.000000 0.000000
1.000000 0.000000 0.000000
1.000000 0.000000 0.000000
1.000000 0.000000 0.000000
1.000000 0.000000 0.000000
1.000000 0.000000 0.000000
1.000000 0.000000 0.000000
1.000000 0.000000 0.000000
1.000000 0.000000 0.000000
1.000000 0.000000 0.000000
1.000000 0.000000 0.000000
1.000000 0.000000 0.000000
1.000000 0.000000 0.000000
1.000000 0.000000 0.028133
1.000000 0.000000 0.072445
1.000000 0.000000 0.116683
1.000000 0.000000 0.154550
1.000000 0.000000 0.188775
1.000000 0.000000 0.220629
0.000000 0.045662 0.000000
0.000000 0.044710 0.000000
0.000000 0.043750 0.000000
0.000000 0.042780 0.000000
0.000000 0.041801 0.000000
0.000000 0.040814 0.000000
0.000000 0.039815 0.000000
0.003473 0.038735 0.000000
0.021717 0.037536 0.000000
0.041962 0.036204 0.000000
0.064446 0.034721 0.000000
0.089466 0.033070 0.000000
0.113878 0.031229 0.000000
0.137549 0.029175 0.000000
0.160909 0.026880 0.000000
0.184259 0.024314 0.000000
0.207826 0.021440 0.000000
0.231794 0.018218 0.000000
0.256323 0.014600 0.000000
0.281557 0.010534 0.000000
0.307628 0.005957 0.000000
0.334668 0.000797 0.000000
0.362803 0.000000 0.000000
0.392162 0.000000 0.000000
0.422872 0.000000 0.000000
0.455065 0.000000 0.000000
0.488874 0.000000 0.000000
0.524436 0.000000 0.000000
0.561887 0.000000 0.000000
0.601364 0.000000 0.000000
0.643004 0.000000 0.000000
0.686936 0.000000 0.000000
0.733282 0.000000 0.000000
0.782151 0.000000 0.000000
0.833632 0.000000 0.000000
0.887788 0.000000 0.000000
0.944649 0.000000 0.000000
1.000000 0.000000 0.000000
1.000000 0.000000 0.000000
1.000000 0.000000 0.000000
1.000000 0.000000 0.000000
1.000000 0.000000 0.000000
1.000000 0.000000 0.000000
1.000000 0.000000 0.000000
1.000000 0.000000 0.000000
1.000000 0.000000 0.000000
1.000000 0.000000 0.000000
1.000000 0.000000 0.000000
1.000000 0.000000 0.000000
1.000000 0.000000 0.000000
1.000000 0.000000 0.000000
1.000000 0.000000 0.000000
1.000000 0.000000 0.000000
1.000000 0.000000 0.000000
1.000000 0.000000 0.000000
1.000000 0.000000 0.000000
1.000000 0.000000 0.000000
1.000000 0.000000 0.000000
1.000000 0.000000 0.000000
1.000000 0.000000 0.028452
1.000000 0.000000 0.072805
1.000000 0.000000 0.116999
1.000000 0.000000 0.154827
1.000000 0.000000 0.189023
1.000000 0.000000 0.220854
0.000000 0.061096 0.000000
0.000000 0.060183 0.000000
0.000000 0.059261 0.000000
0.000000 0.058329 0.000000
0.000000 0.057389 0.000000
0.000000 0.056439 0.000000
0.000000 0.055478 0.000000
0.000000 0.054439 0.000000
0.014101 0.053285 0.000000
0.034578 0.052001 0.000000
0.057314 0.050572 0.000000
0.082821 0.048980 0.000000
0.108435 0.047204 0.000000
0.133020 0.045221 0.000000
0.157113 0.043004 0.000000
0.181073 0.040523 0.000000
0.205160 0.037743 0.000000
0.229582 0.034622 0.000000
0.254511 0.031117 0.000000
0.280103 0.027173 0.000000
0.306498 0.022729 0.000000
0.333831 0.017716 0.000000
0.362232 0.012053 0.000000
0.391832 0.005646 0.000000
0.422762 0.000000 0.000000
0.455154 0.000000 0.000000
0.489142 0.000000 0.000000
0.524861 0.000000 0.000000
0.562449 0.000000 0.000000
0.602043 0.000000 0.000000
0.643776 0.000000 0.000000
0.687780 0.000000 0.000000
0.734173 0.000000 0.000000
0.783064 0.000000 0.000000
0.834540 0.000000 0.000000
0.888664 0.000000 0.000000
0.945463 0.000000 0.000000
1.000000 0.000000 0.000000
1.000000 0.000000 0.000000
1.000000 0.000000 0.000000
1.000000 0.000000 0.000000
1.000000 0.000000 0.000000
1.000000 0.000000 0.000000
1.000000 0.000000 0.000000
1.000000 0.000000 0.000000
1.000000 0.000000 0.000000
1.000000 0.000000 0.000000
1.000000 0.000000 0.000000
1.000000 0.000000 0.000000
1.000000 0.000000 0.000000
1.000000 0.000000 0.000000
1.000000 0.000000 0.000000
1.000000 0.000000 0.000000
1.000000 0.000000 0.000000
1.000000 0.000000 0.000000
1.000000 0.000000 0.000000
1.000000 0.000000 0.000000
1.000000 0.000000 0.000000
1.000000 0.000000 0.000000
1.000000 0.000000 0.028805
1.000000 0.000000 0.073203
1.000000 0.000000 0.117347
1.000000 0.000000 0.155131
1.000000 0.000000 0.189296
1.000000 0.000000 0.221103
0.000000 0.078536 0.000000
0.000000 0.077664 0.000000
0.000000 0.076783 0.000000
0.000000 0.075892 0.000000
0.000000 0.074992 0.000000
0.000000 0.074084 0.000000
0.000000 0.073164 0.000000
0.000000 0.072168 0.000000
0.005483 0.071062 0.000000
0.026211 0.069831 0.000000
0.049222 0.068460 0.000000
0.074788 0.066931 0.000000
0.102018 0.065225 0.000000
0.127717 0.063318 0.000000
0.152685 0.061184 0.000000
0.177360 0.058794 0.000000
0.202051 0.056114 0.000000
0.226994 0.053103 0.000000
0.252382 0.049717 0.000000
0.278381 0.045904 0.000000
0.305142 0.041603 0.000000
0.332805 0.036746 0.000000
0.361505 0.031253 0.000000
0.391377 0.025033 0.000000
0.422553 0.017979 0.000000
0.455166 0.009970 0.000000
0.489353 0.000869 0.000000
0.525248 0.000000 0.000000
0.562989 0.000000 0.000000
0.602712 0.000000 0.000000
0.644550 0.000000 0.000000
0.688633 0.000000 0.000000
0.735080 0.000000 0.000000
0.783996 0.000000 0.000000
0.835469 0.000000 0.000000
0.889559 0.000000 0.000000
0.946293 0.000000 0.000000
1.000000 0.000000 0.000000
1.000000 0.000000 0.000000
1.000000 0.000000 0.000000
1.000000 0.000000 0.000000
1.000000 0.000000 0.000000
1.000000 0.000000 0.000000
1.000000 0.000000 0.000000
1.000000 0.000000 0.000000
1.000000 0.000000 0.000000
1.000000 0.000000 0.000000
1.000000 0.000000 0.000000
1.000000 0.000000 0.000000
1.000000 0.000000 0.000000
1.000000 0.000000 0.000000
1.000000 0.000000 0.000000
1.000000 0.000000 0.000000
1.000000 0.000000 0.000000
1.000000 0.000000 0.000000
1.000000 0.000000 0.000000
1.000000 0.000000 0.000000
1.000000 0.000000 0.000000
1.000000 0.000000 0.000000
1.000000 0.000000 0.029196
1.000000 0.000000 0.073643
1.000000 0.000000 0.117731
1.000000 0.000000 0.155467
1.000000 0.000000 0.189597
1.000000 0.000000 0.221376
0.000000 0.097627 0.000000
0.000000 0.096879 0.000000
0.000000 0.096120 0.000000
0.000000 0.095348 0.000000
0.000000 0.094565 0.000000
0.000000 0.093769 0.000000
0.000000 0.092958 0.000000
0.000000 0.092076 0.000000
0.000000 0.091090 0.000000
0.016718 0.089983 0.000000
0.040029 0.088741 0.000000
0.065921 0.087342 0.000000
0.094383 0.085764 0.000000
0.121467 0.083980 0.000000
0.147491 0.081957 0.000000
0.173015 0.079417 0.000000
0.198413 0.076843 0.000000
0.223960 0.073949 0.000000
0.249874 0.070691 0.000000
0.276338 0.067018 0.000000
0.303513 0.062869 0.000000
0.331549 0.058179 0.000000
0.360587 0.052867 0.000000
0.390763 0.046844 0.000000
0.422215 0.040005 0.000000
0.455076 0.032230 0.000000
0.489485 0.023382 0.000000
0.525576 0.013302 0.000000
0.563488 0.001811 0.000000
0.603355 0.000000 0.000000
0.645311 0.000000 0.000000
0.689484 0.000000 0.000000
0.735991 0.000000 0.000000
0.784938 0.000000 0.000000
0.836409 0.000000 0.000000
0.890464 0.000000 0.000000
0.947128 0.000000 0.000000
1.000000 0.000000 0.000000
1.000000 0.000000 0.000000
1.000000 0.000000 0.000000
1.000000 0.000000 0.000000
1.000000 0.000000 0.000000
1.000000 0.000000 0.000000
1.000000 0.000000 0.000000
1.000000 0.000000 0.000000
1.000000 0.000000 0.000000
1.000000 0.000000 0.000000
1.000000 0.000000 0.000000
1.000000 0.000000 0.000000
1.000000 0.000000 0.000000
1.000000 0.000000 0.000000
1.000000 0.000000 0.000000
1.000000 0.000000 0.000000
1.000000 0.000000 0.000000
1.000000 0.000000 0.000000
1.000000 0.000000 0.000000
1.000000 0.000000 0.000000
1.000000 0.000000 0.000000
1.000000 0.000000 0.000000
1.000000 0.000000 0.029629
1.000000 0.000000 0.074130
1.000000 0.000000 0.118153
1.000000 0.000000 0.155836
1.000000 0.000000 0.189928
1.000000 0.000000 0.221676
0.000000 0.116631 0.000000
0.000000 0.116001 0.000000
0.000000 0.115362 0.000000
0.000000 0.114713 0.000000
0.000000 0.114053 0.000000
0.000000 0.113384 0.000000
0.000000 0.112703 0.000000
0.000000 0.111962 0.000000
0.000000 0.111133 0.000000
0.005931 0.110205 0.000000
0.029568 0.109164 0.000000
0.055816 0.107993 0.000000
0.085186 0.106674 0.000000
0.114036 0.105185 0.000000
0.141360 0.103501 0.000000
0.167904 0.101588 0.000000
0.194137 0.099412 0.000000
0.220389 0.096927 0.000000
0.246911 0.094077 0.000000
0.273908 0.090798 0.000000
0.301556 0.087003 0.000000
0.330015 0.082589 0.000000
0.359433 0.077226 0.000000
0.389953 0.071412 0.000000
0.421714 0.064801 0.000000
0.454854 0.057273 0.000000
0.489511 0.048693 0.000000
0.525821 0.038903 0.000000
0.563923 0.027725 0.000000
