post_production/PixelLog_to_DWG_Intermediate_65.cube
# PixelLog to DaVinci Wide Gamut / DaVinci Intermediate 3D LUT
# For DaVinci Resolve Free & Studio (enables built-in CST and DWG grading)
# Input: Pixel-Log BT.2020 [0, 1] -> Inverse -> BT.2020 to DWG -> DaVinci Intermediate Log
LUT_3D_SIZE 65
DOMAIN_MIN 0.0 0.0 0.0
DOMAIN_MAX 1.0 1.0 1.0
0.000000 0.000000 0.000000
0.000000 0.000000 0.000000
0.000000 0.000000 0.000000
0.000000 0.000000 0.000000
0.000000 0.000000 0.000000
0.000000 0.000000 0.000000
0.000000 0.000000 0.000000
0.017649 0.000000 0.000000
0.048932 0.000000 0.000000
0.075476 0.000000 0.000000
0.098576 0.000000 0.000000
0.119239 0.000000 0.000000
0.138096 0.000000 0.000000
0.155564 0.000000 0.000000
0.171936 0.000000 0.000000
0.187425 0.000000 0.000000
0.202190 0.000000 0.000000
0.216354 0.000000 0.000000
0.230010 0.000000 0.000000
0.243237 0.000000 0.000000
0.256097 0.000000 0.000000
0.268638 0.000000 0.000000
0.280905 0.000000 0.000000
0.292932 0.000000 0.000000
0.304748 0.000000 0.000000
0.316380 0.000000 0.000000
0.327849 0.000000 0.000000
0.339173 0.000000 0.000000
0.350370 0.000000 0.000230
0.361452 0.000000 0.019666
0.372433 0.000000 0.040231
0.383322 0.000000 0.059239
0.394131 0.000000 0.076824
0.404866 0.000000 0.093291
0.415536 0.000000 0.108856
0.426148 0.000000 0.123684
0.436706 0.005411 0.137900
0.447217 0.024798 0.151601
0.457685 0.044636 0.164866
0.468114 0.062888 0.177758
0.478508 0.079883 0.190328
0.488870 0.095876 0.202619
0.499204 0.111055 0.214667
0.509512 0.125564 0.226502
0.519797 0.139512 0.238151
0.530060 0.152986 0.249634
0.540304 0.166058 0.260971
0.550531 0.178783 0.272179
0.560742 0.191209 0.283272
0.570939 0.203374 0.294261
0.581123 0.215313 0.305159
0.591295 0.227052 0.315975
0.601457 0.238615 0.326717
0.611609 0.250023 0.337393
0.621752 0.261294 0.348010
0.631887 0.272443 0.358573
0.642015 0.283482 0.369088
0.652136 0.294425 0.379560
0.662251 0.305281 0.389992
0.672361 0.316059 0.400390
0.682466 0.326767 0.410755
0.692567 0.337412 0.421091
0.702663 0.348002 0.431402
0.712756 0.358540 0.441688
0.722845 0.369033 0.451954
0.000000 0.000000 0.000000
0.000000 0.000000 0.000000
0.000000 0.000000 0.000000
0.000000 0.000000 0.000000
0.000000 0.000000 0.000000
0.000000 0.000000 0.000000
0.000000 0.000000 0.000000
0.018428 0.000000 0.000000
0.049565 0.000000 0.000000
0.075969 0.000000 0.000000
0.098972 0.000000 0.000000
0.119565 0.000000 0.000000
0.138368 0.000000 0.000000
0.155795 0.000000 0.000000
0.172134 0.000000 0.000000
0.187597 0.000000 0.000000
0.202339 0.000000 0.000000
0.216484 0.000000 0.000000
0.230125 0.000000 0.000000
0.243338 0.000000 0.000000
0.256186 0.000000 0.000000
0.268718 0.000000 0.000000
0.280976 0.000000 0.000000
0.292995 0.000000 0.000000
0.304805 0.000000 0.000000
0.316431 0.000000 0.000000
0.327894 0.000000 0.000000
0.339214 0.000000 0.000000
0.350406 0.000000 0.003575
0.361485 0.000000 0.023011
0.372462 0.000000 0.043154
0.383349 0.000000 0.061686
0.394155 0.000000 0.078900
0.404888 0.000000 0.095070
0.415556 0.000000 0.110393
0.426166 0.012889 0.125021
0.436722 0.030472 0.139070
0.447231 0.047804 0.152630
0.457698 0.064067 0.165774
0.468126 0.079467 0.178562
0.478519 0.094159 0.191042
0.488880 0.108260 0.203255
0.499213 0.121865 0.215235
0.509520 0.135048 0.227010
0.519804 0.147869 0.238606
0.530067 0.160378 0.250042
0.540311 0.172616 0.261338
0.550537 0.184617 0.272509
0.560747 0.196412 0.283569
0.570944 0.208024 0.294529
0.581127 0.219476 0.305401
0.591299 0.230785 0.316193
0.601460 0.241968 0.326914
0.611612 0.253038 0.337571
0.621755 0.264008 0.348171
0.631889 0.274888 0.358719
0.642017 0.285688 0.369220
0.652138 0.296416 0.379679
0.662253 0.307079 0.390101
0.672363 0.317684 0.400488
0.682468 0.328237 0.410844
0.692568 0.338742 0.421172
0.702665 0.349205 0.431475
0.712757 0.359630 0.441755
0.722846 0.370021 0.452014
0.000000 0.000000 0.000000
0.000000 0.000000 0.000000
0.000000 0.000000 0.000000
0.000000 0.000000 0.000000
0.000000 0.000000 0.000000
0.000000 0.000000 0.000000
0.000000 0.000000 0.000000
0.019206 0.000000 0.000000
0.050194 0.000000 0.000000
0.076460 0.000000 0.000000
0.099367 0.000000 0.000000
0.119890 0.000000 0.000000
0.138641 0.000000 0.000000
0.156026 0.000000 0.000000
0.172332 0.000000 0.000000
0.187767 0.000000 0.000000
0.202488 0.000000 0.000000
0.216614 0.000000 0.000000
0.230239 0.000000 0.000000
0.243439 0.000000 0.000000
0.256275 0.000000 0.000000
0.268797 0.000000 0.000000
0.281046 0.000000 0.000000
0.293058 0.000000 0.000000
0.304861 0.000000 0.000000
0.316481 0.000000 0.000000
0.327940 0.000000 0.000000
0.339255 0.000000 0.000000
0.350443 0.000000 0.006921
0.361518 0.000000 0.026357
0.372492 0.000000 0.045998
0.383376 0.000000 0.064078
0.394179 0.000000 0.080936
0.404910 0.007391 0.096819
0.415576 0.021966 0.111908
0.426183 0.037498 0.126342
0.436738 0.052417 0.140227
0.447246 0.066710 0.153648
0.457711 0.080476 0.166674
0.468138 0.093796 0.179360
0.478530 0.106735 0.191751
0.488890 0.119345 0.203887
0.499222 0.131672 0.215799
0.509528 0.143751 0.227515
0.519811 0.155614 0.239059
0.530074 0.167286 0.250449
0.540317 0.178791 0.261704
0.550542 0.190147 0.272838
0.560752 0.201371 0.283865
0.570948 0.212478 0.294796
0.581132 0.223481 0.305642
0.591303 0.234391 0.316411
0.601464 0.245218 0.327111
0.611615 0.255969 0.337749
0.621757 0.266654 0.348332
0.631892 0.277278 0.358865
0.642019 0.287848 0.369352
0.652140 0.298369 0.379799
0.662255 0.308847 0.390209
0.672365 0.319284 0.400586
0.682469 0.329686 0.410933
0.692570 0.340056 0.421253
0.702666 0.350396 0.431548
0.712758 0.360709 0.441821
0.722848 0.370999 0.452074
0.000000 0.000000 0.000000
0.000000 0.000000 0.000000
0.000000 0.000000 0.000000
0.000000 0.000000 0.000000
0.000000 0.000000 0.000000
0.000000 0.000000 0.000000
0.000000 0.000000 0.000000
0.019984 0.000000 0.000000
0.050820 0.000000 0.000000
0.076948 0.000000 0.000000
0.099760 0.000000 0.000000
0.120214 0.000000 0.000000
0.138912 0.000000 0.000000
0.156256 0.000000 0.000000
0.172530 0.000000 0.000000
0.187938 0.000000 0.000000
0.202637 0.000000 0.000000
0.216744 0.000000 0.000000
0.230353 0.000000 0.000000
0.243540 0.000000 0.000000
0.256365 0.000000 0.000000
0.268877 0.000000 0.000000
0.281117 0.000000 0.000000
0.293121 0.000000 0.000000
0.304918 0.000000 0.000000
0.316532 0.000000 0.000000
0.327985 0.000000 0.000000
0.339296 0.000000 0.000000
0.350480 0.000000 0.010266
0.361551 0.000000 0.029677
0.372522 0.000000 0.048767
0.383403 0.007194 0.066416
0.394203 0.019244 0.082933
0.404932 0.032378 0.098540
0.415596 0.045442 0.113402
0.426201 0.058161 0.127646
0.436755 0.070582 0.141372
0.447261 0.082742 0.154657
0.457725 0.094677 0.167566
0.468150 0.106412 0.180151
0.478540 0.117972 0.192456
0.488900 0.129378 0.204516
0.499231 0.140646 0.216361
0.509536 0.151792 0.228018
0.519819 0.162830 0.239510
0.530080 0.173771 0.250854
0.540323 0.184625 0.262068
0.550548 0.195401 0.273166
0.560758 0.206108 0.284161
0.570953 0.216753 0.295063
0.581136 0.227341 0.305883
0.591307 0.237878 0.316628
0.601467 0.248370 0.327307
0.611618 0.258821 0.337927
0.621760 0.269235 0.348493
0.631895 0.279615 0.359010
0.642022 0.289965 0.369484
0.652142 0.300288 0.379918
0.662257 0.310586 0.390317
0.672367 0.320861 0.400684
0.682471 0.331116 0.411022
0.692571 0.341353 0.421334
0.702667 0.351573 0.431621
0.712760 0.361778 0.441888
0.722849 0.371969 0.452135
0.000000 0.000000 0.000000
0.000000 0.000000 0.000000
0.000000 0.000000 0.000000
0.000000 0.000000 0.000000
0.000000 0.000000 0.000000
0.000000 0.000000 0.000000
0.000000 0.000000 0.000000
0.020763 0.000000 0.000000
0.051442 0.000000 0.000000
0.077434 0.000000 0.000000
0.100152 0.000000 0.000000
0.120537 0.000000 0.000000
0.139183 0.000000 0.000000
0.156486 0.000000 0.000000
0.172727 0.000000 0.000000
0.188108 0.000000 0.000000
0.202785 0.000000 0.000000
0.216874 0.000000 0.000000
0.230468 0.000000 0.000000
0.243641 0.000000 0.000000
0.256454 0.000000 0.000000
0.268956 0.000000 0.000000
0.281188 0.000000 0.000000
0.293184 0.000000 0.000000
0.304974 0.000000 0.000000
0.316583 0.000000 0.000000
0.328031 0.000000 0.000000
0.339337 0.000000 0.000000
0.350516 0.002321 0.013611
0.361584 0.011380 0.032902
0.372552 0.021343 0.051466
0.383430 0.032190 0.068705
0.394228 0.043123 0.084894
0.404954 0.053969 0.100234
0.415616 0.064739 0.114875
0.426219 0.075439 0.128935
0.436771 0.086078 0.142504
0.447276 0.096661 0.155657
0.457738 0.107194 0.168451
0.468162 0.117682 0.180938
0.478551 0.128130 0.193156
0.488910 0.138540 0.205140
0.499240 0.148917 0.216920
0.509545 0.159265 0.228519
0.519826 0.169585 0.239959
0.530087 0.179880 0.251257
0.540329 0.190154 0.262431
0.550553 0.200407 0.273493
0.560763 0.210642 0.284455
0.570958 0.220860 0.295329
0.581140 0.231064 0.306123
0.591310 0.241254 0.316845
0.601471 0.251432 0.327503
0.611621 0.261598 0.338104
0.621763 0.271755 0.348653
0.631897 0.281902 0.359155
0.642024 0.292041 0.369615
0.652145 0.302172 0.380037
0.662259 0.312296 0.390425
0.672368 0.322414 0.400782
0.682473 0.332527 0.411111
0.692573 0.342634 0.421414
0.702668 0.352737 0.431695
0.712761 0.362835 0.441954
0.722850 0.372930 0.452195
0.000000 0.000000 0.000000
0.000000 0.000000 0.000000
0.000000 0.000000 0.000000
0.000000 0.000000 0.000000
0.000000 0.000000 0.000000
0.000000 0.000000 0.000000
0.000000 0.000000 0.000000
0.021541 0.000000 0.000000
0.052060 0.000000 0.000000
0.077918 0.000000 0.000000
0.100542 0.000000 0.000000
0.120859 0.000000 0.000000
0.139453 0.000000 0.000000
0.156715 0.000000 0.000000
0.172923 0.000000 0.000000
0.188279 0.000000 0.000000
0.202933 0.000000 0.000000
0.217003 0.000000 0.000000
0.230582 0.000000 0.000000
0.243742 0.000000 0.000000
0.256543 0.000000 0.000000
0.269035 0.000000 0.000000
0.281258 0.000000 0.000000
0.293247 0.000000 0.000000
0.305031 0.000000 0.000000
0.316633 0.004889 0.000000
0.328076 0.011699 0.000000
0.339377 0.019189 0.000000
0.350553 0.027427 0.016957
0.361617 0.036117 0.036031
0.372581 0.044916 0.054097
0.383457 0.053816 0.070944
0.394252 0.062809 0.086818
0.404976 0.071890 0.101900
0.415635 0.081051 0.116328
0.426237 0.090287 0.130208
0.436787 0.099591 0.143625
0.447290 0.108959 0.156647
0.457751 0.118386 0.169329
0.468174 0.127866 0.181718
0.478562 0.137396 0.193851
0.488920 0.146971 0.205761
0.499249 0.156588 0.217476
0.509553 0.166244 0.229017
0.519834 0.175934 0.240406
0.530094 0.185656 0.251659
0.540335 0.195408 0.262793
0.550559 0.205186 0.273819
0.560768 0.214989 0.284749
0.570962 0.224815 0.295594
0.581144 0.234661 0.306362
0.591314 0.244525 0.317061
0.601474 0.254407 0.327699
0.611624 0.264304 0.338281
0.621766 0.274216 0.348813
0.631900 0.284140 0.359300
0.642026 0.294076 0.369747
0.652147 0.304023 0.380157
0.662261 0.313980 0.390533
0.672370 0.323945 0.400880
0.682474 0.333919 0.411200
0.692574 0.343900 0.421495
0.702670 0.353888 0.431768
0.712762 0.363882 0.442021
0.722851 0.373882 0.452255
0.000000 0.000000 0.000000
0.000000 0.000000 0.000000
0.000000 0.000000 0.000000
0.000000 0.000000 0.000000
0.000000 0.000000 0.000000
0.000000 0.000000 0.000000
0.000000 0.000000 0.000000
0.022321 0.000000 0.000000
0.052676 0.000000 0.000000
0.078401 0.000000 0.000000
0.100932 0.000000 0.000000
0.121181 0.000000 0.000000
0.139723 0.000000 0.000000
0.156945 0.000000 0.000000
0.173120 0.000000 0.000000
0.188449 0.000000 0.000000
0.203081 0.000000 0.000000
0.217133 0.000000 0.000000
0.230696 0.000000 0.000000
0.243842 0.000382 0.000000
0.256632 0.004231 0.000000
0.269114 0.008465 0.000000
0.281329 0.013120 0.000000
0.293310 0.018240 0.000000
0.305087 0.023871 0.000000
0.316684 0.030031 0.000000
0.328121 0.036475 0.000000
0.339418 0.043135 0.002638
0.350590 0.050006 0.020311
0.361650 0.057080 0.039079
0.372611 0.064349 0.056672
0.383483 0.071806 0.073144
0.394276 0.079442 0.088714
0.404998 0.087248 0.103546
0.415655 0.095216 0.117765
0.426255 0.103337 0.131469
0.436803 0.111603 0.144736
0.447305 0.120004 0.157630
0.457764 0.128532 0.170202
0.468186 0.137179 0.182494
0.478573 0.145938 0.194544
0.488930 0.154801 0.206381
0.499258 0.163759 0.218030
0.509561 0.172808 0.229514
0.519841 0.181939 0.240852
0.530100 0.191147 0.252061
0.540341 0.200427 0.263154
0.550564 0.209771 0.274144
0.560773 0.219176 0.285043
0.570967 0.228637 0.295859
0.581148 0.238148 0.306602
0.591318 0.247707 0.317278
0.601477 0.257309 0.327895
0.611627 0.266950 0.338458
0.621769 0.276627 0.348974
0.631902 0.286338 0.359446
0.642029 0.296079 0.369878
0.652149 0.305847 0.380276
0.662263 0.315641 0.390641
0.672372 0.325459 0.400978
0.682476 0.335297 0.411288
0.692575 0.345155 0.421575
0.702671 0.355030 0.431841
0.712763 0.364922 0.442087
0.722852 0.374828 0.452316
0.000000 0.000000 0.000000
0.000000 0.000000 0.000000
0.000000 0.000000 0.000000
0.000000 0.000000 0.000000
0.000000 0.000000 0.000000
0.000000 0.000000 0.000000
0.000000 0.000000 0.000000
0.023156 0.001072 0.000000
0.053332 0.002302 0.000000
0.078915 0.003654 0.000000
0.101348 0.005141 0.000000
0.121525 0.006776 0.000000
0.140011 0.008575 0.000000
0.157190 0.010553 0.000000
0.173331 0.012729 0.000000
0.188631 0.015121 0.000000
0.203240 0.017753 0.000000
0.217272 0.020646 0.000000
0.230818 0.023829 0.000000
0.243950 0.027329 0.000000
0.256728 0.031112 0.000000
0.269199 0.035123 0.000000
0.281405 0.039365 0.000000
0.293378 0.043841 0.000000
0.305147 0.048555 0.000000
0.316738 0.053507 0.000000
0.328170 0.058699 0.000000
0.339462 0.064128 0.006229
0.350629 0.069794 0.023902
0.361686 0.075694 0.042246
0.372643 0.081823 0.059360
0.383512 0.088178 0.075448
0.394302 0.094752 0.090706
0.405021 0.101539 0.105279
0.415676 0.108532 0.119282
0.426274 0.115724 0.132803
0.436821 0.123107 0.145914
0.447321 0.130672 0.158673
0.457779 0.138411 0.171128
0.468199 0.146315 0.183320
0.478585 0.154376 0.195280
0.488940 0.162584 0.207039
0.499268 0.170932 0.218620
0.509570 0.179410 0.230044
0.519849 0.188010 0.241328
0.530108 0.196725 0.252489
0.540347 0.205547 0.263540
0.550570 0.214468 0.274492
0.560778 0.223481 0.285356
0.570972 0.232580 0.296142
0.581153 0.241758 0.306857
0.591322 0.251010 0.317509
0.601481 0.260329 0.328104
0.611631 0.269710 0.338648
0.621772 0.279149 0.349145
0.631905 0.288641 0.359601
0.642031 0.298181 0.370019
0.652151 0.307766 0.380403
0.662265 0.317391 0.390757
0.672374 0.327055 0.401083
0.682478 0.336752 0.411384
0.692577 0.346481 0.421662
0.702673 0.356239 0.431919
0.712764 0.366023 0.442158
0.722853 0.375831 0.452380
0.000000 0.023336 0.000000
0.000000 0.024378 0.000000
0.000000 0.025420 0.000000
0.000000 0.026461 0.000000
0.000000 0.027503 0.000000
0.000000 0.028539 0.000000
0.000000 0.029567 0.000000
0.024075 0.030657 0.000000
0.054048 0.031842 0.000000
0.079478 0.033131 0.000000
0.101804 0.034531 0.000000
0.121901 0.036049 0.000000
0.140328 0.037693 0.000000
0.157459 0.039473 0.000000
0.173561 0.041396 0.000000
0.188831 0.043472 0.000000
0.203414 0.045708 0.000000
0.217424 0.048115 0.000000
0.230952 0.050699 0.000000
0.244069 0.053471 0.000000
0.256833 0.056437 0.000000
0.269293 0.059606 0.000000
0.281488 0.062985 0.000000
0.293452 0.066580 0.000000
0.305214 0.070398 0.000000
0.316797 0.074444 0.000000
0.328223 0.078721 0.000000
0.339510 0.083234 0.010177
0.350672 0.087984 0.027849
0.361724 0.092973 0.045623
0.372678 0.098200 0.062239
0.383544 0.103666 0.077926
0.394331 0.109368 0.092854
0.405047 0.115303 0.107153
0.415700 0.121467 0.120925
0.426296 0.127856 0.134250
0.436840 0.134463 0.147193
0.447338 0.141282 0.159808
0.457794 0.148306 0.172138
0.468213 0.155527 0.184220
0.478598 0.162939 0.196085
0.488952 0.170531 0.207759
0.499278 0.178296 0.219266
0.509579 0.186224 0.230623
0.519858 0.194308 0.241849
0.530116 0.202538 0.252958
0.540355 0.210906 0.263962
0.550577 0.219404 0.274873
0.560784 0.228022 0.285700
0.570977 0.236754 0.296453
0.581157 0.245591 0.307138
0.591326 0.254527 0.317763
0.601485 0.263554 0.328334
0.611634 0.272665 0.338856
0.621775 0.281855 0.349333
0.631908 0.291117 0.359771
0.642034 0.300446 0.370174
0.652154 0.309836 0.380543
0.662267 0.319283 0.390884
0.672376 0.328783 0.401198
0.682479 0.338330 0.411488
0.692579 0.347921 0.421756
0.702674 0.357553 0.432005
0.712766 0.367221 0.442236
0.722854 0.376924 0.452451
0.000000 0.052658 0.000000
0.000000 0.053475 0.000000
0.000000 0.054286 0.000000
0.000000 0.055091 0.000000
0.000000 0.055890 0.000000
0.000000 0.056682 0.000000
0.000000 0.057471 0.000000
0.025085 0.058309 0.000000
0.054831 0.059223 0.000000
0.080094 0.060220 0.000000
0.102303 0.061304 0.000000
0.122314 0.062485 0.000000
0.140674 0.063768 0.000000
0.157754 0.065161 0.000000
0.173815 0.066672 0.000000
0.189050 0.068310 0.000000
0.203605 0.070082 0.000000
0.217592 0.071998 0.000000
0.231099 0.074065 0.000000
0.244199 0.076293 0.000000
0.256948 0.078689 0.000000
0.269395 0.081264 0.000000
0.281579 0.084025 0.000000
0.293534 0.086981 0.000000
0.305287 0.090139 0.000000
0.316863 0.093506 0.000000
0.328282 0.097090 0.000000
0.339563 0.100896 0.014520
0.350720 0.104929 0.032088
0.361767 0.109194 0.049217
0.372717 0.113694 0.065318
0.383579 0.118431 0.080585
0.394362 0.123407 0.095167
0.405075 0.128622 0.109176
0.415725 0.134075 0.122703
0.426319 0.139764 0.135819
0.436861 0.145687 0.148583
0.447357 0.151839 0.161042
0.457812 0.158215 0.173237
0.468229 0.164810 0.185201
0.478612 0.171618 0.196962
0.488965 0.178632 0.208545
0.499290 0.185843 0.219971
0.509590 0.193244 0.231257
0.519867 0.200827 0.242419
0.530124 0.208582 0.253471
0.540363 0.216502 0.264425
0.550584 0.224578 0.275290
0.560790 0.232801 0.286077
0.570983 0.241161 0.296793
0.581163 0.249652 0.307446
0.591331 0.258264 0.318041
0.601490 0.266990 0.328586
0.611638 0.275822 0.339084
0.621779 0.284752 0.349540
0.631911 0.293775 0.359959
0.642037 0.302882 0.370343
0.652156 0.312067 0.380697
0.662270 0.321325 0.391023
0.672378 0.330651 0.401325
0.682481 0.340038 0.411603
0.692581 0.349482 0.421861
0.702676 0.358979 0.432100
0.712767 0.368524 0.442322
0.722856 0.378113 0.452529
0.000000 0.077679 0.000000
0.000000 0.078325 0.000000
0.000000 0.078966 0.000000
0.000000 0.079604 0.000000
0.000000 0.080238 0.000000
0.000000 0.080868 0.000000
0.000000 0.081496 0.000000
0.026197 0.082164 0.000000
0.055685 0.082894 0.000000
0.080767 0.083691 0.000000
0.102848 0.084561 0.000000
0.122766 0.085509 0.000000
0.141054 0.086543 0.000000
0.158077 0.087667 0.000000
0.174093 0.088891 0.000000
0.189291 0.090220 0.000000
0.203814 0.091663 0.000000
0.217775 0.093227 0.000000
0.231261 0.094921 0.000000
0.244342 0.096754 0.000000
0.257075 0.098733 0.000000
0.269508 0.100867 0.000000
0.281680 0.103166 0.000000
0.293623 0.105638 0.000000
0.305367 0.108292 0.000000
0.316935 0.111135 0.000000
0.328347 0.114176 0.003227
0.339621 0.117423 0.019296
0.350772 0.120882 0.036561
0.361814 0.124559 0.053033
0.372759 0.128462 0.068603
0.383617 0.132593 0.083435
0.394397 0.136958 0.097654
0.405107 0.141560 0.111358
0.415754 0.146399 0.124625
0.426344 0.151477 0.137519
0.436884 0.156794 0.150090
0.447378 0.162348 0.162383
0.457831 0.168137 0.174433
0.468246 0.174158 0.186269
0.478628 0.180407 0.197918
0.488979 0.186878 0.209403
0.499303 0.193565 0.220741
0.509601 0.200461 0.231949
0.519878 0.207560 0.243042
0.530134 0.214853 0.254033
0.540371 0.222333 0.264931
0.550592 0.229991 0.275747
0.560798 0.237818 0.286490
0.570989 0.245805 0.297166
0.581169 0.253945 0.307783
0.591337 0.262228 0.318347
0.601494 0.270645 0.328862
0.611643 0.279189 0.339334
0.621783 0.287850 0.349767
0.631915 0.296622 0.360164
0.642040 0.305497 0.370530
0.652159 0.314468 0.380866
0.662272 0.323527 0.391177
0.672380 0.332668 0.401464
0.682484 0.341886 0.411729
0.692583 0.351173 0.421975
0.702678 0.360526 0.432204
0.712769 0.369938 0.442416
0.722857 0.379405 0.452615
0.000000 0.099718 0.000000
0.000000 0.100242 0.000000
0.000000 0.100764 0.000000
0.000000 0.101283 0.000000
0.000000 0.101800 0.000000
0.000000 0.102314 0.000000
0.000000 0.102827 0.000000
0.027418 0.103374 0.000000
0.056616 0.103971 0.000000
0.081502 0.104625 0.000000
0.103445 0.105339 0.000000
0.123261 0.106119 0.000000
0.141471 0.106970 0.000000
0.158432 0.107898 0.000000
0.174397 0.108909 0.000000
0.189555 0.110010 0.000000
0.204045 0.111208 0.000000
0.217977 0.112510 0.000000
0.231439 0.113924 0.000000
0.244499 0.115457 0.000000
0.257214 0.117118 0.000000
0.269631 0.118914 0.000000
0.281790 0.120856 0.000000
0.293722 0.122951 0.000000
0.305455 0.125208 0.000000
0.317014 0.127635 0.000000
0.328417 0.130243 0.008479
0.339684 0.133037 0.024549
0.350829 0.136028 0.041272
0.361866 0.139223 0.057077
0.372806 0.142628 0.072102
0.383659 0.146250 0.086483
0.394435 0.150096 0.100323
0.405141 0.154169 0.113706
0.415785 0.158475 0.126699
0.426372 0.163017 0.139357
0.436909 0.167796 0.151724
0.447401 0.172815 0.163838
0.457851 0.178072 0.175732
0.468265 0.183567 0.187432
0.478645 0.189297 0.198960
0.488994 0.195261 0.210338
0.499317 0.201453 0.221581
0.509614 0.207868 0.232706
0.519889 0.214501 0.243724
0.530144 0.221346 0.254647
0.540381 0.228395 0.265485
0.550601 0.235640 0.276248
0.560805 0.243074 0.286942
0.570997 0.250688 0.297575
0.581175 0.258473 0.308153
0.591343 0.266421 0.318681
0.601500 0.274524 0.329165
0.611648 0.282771 0.339608
0.621787 0.291156 0.350015
0.631919 0.299668 0.360390
0.642044 0.308301 0.370734
0.652163 0.317046 0.381052
0.662275 0.325896 0.391345
0.672383 0.334843 0.401616
0.682486 0.343881 0.411868
0.692585 0.353002 0.422101
0.702680 0.362201 0.432318
0.712771 0.371471 0.442520
0.722859 0.380808 0.452709
0.000000 0.119604 0.000000
0.000000 0.120038 0.000000
0.000000 0.120471 0.000000
0.000000 0.120902 0.000000
0.000000 0.121332 0.000000
0.000000 0.121759 0.000000
0.000000 0.122186 0.000000
0.028754 0.122641 0.000000
0.057630 0.123140 0.000000
0.082304 0.123685 0.000000
0.104098 0.124282 0.000000
0.123802 0.124934 0.000000
0.141926 0.125647 0.000000
0.158820 0.126425 0.000000
0.174732 0.127275 0.000000
0.189844 0.128201 0.000000
0.204297 0.129210 0.000000
0.218198 0.130310 0.000000
0.231633 0.131505 0.000000
0.244671 0.132805 0.000000
0.257367 0.134216 0.000000
0.269767 0.135747 0.000000
0.281911 0.137405 0.000000
0.293830 0.139199 0.000000
0.305552 0.141137 0.000000
0.317100 0.143229 0.000000
0.328495 0.145482 0.014256
0.339754 0.147906 0.030286
0.350892 0.150509 0.046221
0.361923 0.153300 0.061352
0.372857 0.156287 0.075821
0.383705 0.159477 0.089736
0.394477 0.162877 0.103182
0.405179 0.166495 0.116230
0.415819 0.170336 0.128934
0.426403 0.174405 0.141342
0.436937 0.178706 0.153492
0.447426 0.183243 0.165416
0.457874 0.188017 0.177143
0.468286 0.193030 0.188696
0.478664 0.198282 0.200095
0.489011 0.203772 0.211357
0.499332 0.209498 0.222498
0.509628 0.215456 0.233531
0.519902 0.221643 0.244468
0.530156 0.228054 0.255318
0.540391 0.234683 0.266091
0.550610 0.241523 0.276795
0.560814 0.248568 0.287437
0.571004 0.255809 0.298023
0.581182 0.263239 0.308558
0.591349 0.270849 0.319048
0.601506 0.278631 0.329497
0.611653 0.286576 0.339910
0.621792 0.294675 0.350288
0.631923 0.302920 0.360637
0.642048 0.311301 0.370958
0.652166 0.319811 0.381255
0.662279 0.328442 0.391530
0.672386 0.337185 0.401784
0.682489 0.346032 0.412020
0.692587 0.354977 0.422239
0.702682 0.364013 0.432443
0.712773 0.373133 0.442634
0.722861 0.382330 0.452812
0.000000 0.137868 0.000000
0.000000 0.138233 0.000000
0.000000 0.138598 0.000000
0.000000 0.138961 0.000000
0.000000 0.139323 0.000000
0.000000 0.139684 0.000000
0.000000 0.140045 0.000000
0.030203 0.140429 0.000000
0.058735 0.140851 0.000000
0.083180 0.141312 0.000000
0.104811 0.141817 0.000000
0.124394 0.142370 0.000000
0.142426 0.142975 0.000000
0.159246 0.143636 0.000000
0.175098 0.144358 0.000000
0.190162 0.145147 0.000000
0.204574 0.146008 0.000000
0.218441 0.146946 0.000000
0.231847 0.147969 0.000000
0.244860 0.149082 0.000000
0.257535 0.150293 0.000000
0.269917 0.151609 0.000000
0.282044 0.153037 0.000000
0.293949 0.154587 0.000000
0.305658 0.156265 0.000000
0.317196 0.158080 0.005997
0.328581 0.160040 0.020609
0.339831 0.162156 0.036294
0.350962 0.164434 0.051409
0.361985 0.166885 0.065863
0.372913 0.169516 0.079766
0.383756 0.172336 0.093202
0.394522 0.175352 0.106240
