post_production/PixelLog_to_AgX_Rec709_65.cube
# PixelLog to AgX (Base) Rec.709 Display Transform 3D LUT
# Architecture: AgX Display Rendering Transform (Troy Sobotka / Blender 4.0+)
# Target Device: Google Pixel 11 Pro Primary Sensor (Tensor G6)
# Transform: Pixel-Log BT.2020 -> Scene-Linear -> BT.2020 to Rec.709 -> AgX Inset -> Log2 EV -> Sigmoid -> Outset
LUT_3D_SIZE 9
DOMAIN_MIN 0.0 0.0 0.0
DOMAIN_MAX 1.0 1.0 1.0
0.000000 0.000000 0.000000
0.176357 0.000000 0.000000
0.426339 0.000000 0.000000
0.632920 0.000000 0.000000
0.812676 0.000000 0.000000
0.945368 0.000000 0.137470
1.000000 0.000000 0.312797
1.000000 0.000000 0.486949
1.000000 0.000000 0.655175
0.000000 0.081281 0.000000
0.081345 0.066843 0.000000
0.394754 0.032934 0.000000
0.622156 0.000000 0.000000
0.808426 0.000000 0.000000
0.944166 0.000000 0.133503
1.000000 0.000000 0.310994
1.000000 0.000000 0.486120
1.000000 0.000000 0.654814
0.000000 0.325116 0.000000
0.000000 0.321576 0.000000
0.313778 0.300026 0.000000
0.575805 0.273949 0.000000
0.777893 0.230534 0.000000
0.927731 0.110620 0.111943
1.000000 0.000000 0.307717
1.000000 0.000000 0.484623
1.000000 0.000000 0.654163
0.000000 0.525824 0.000000
0.000000 0.524360 0.000000
0.080780 0.516174 0.000000
0.505200 0.491648 0.000000
0.739525 0.468420 0.000000
0.896920 0.417515 0.069432
1.000000 0.312266 0.267409
1.000000 0.000000 0.481384
1.000000 0.000000 0.652763
0.000000 0.705954 0.000000
0.000000 0.705346 0.000000
0.000000 0.704247 0.000000
0.308964 0.685581 0.000000
0.676795 0.664165 0.000000
0.867753 0.634250 0.011001
0.977815 0.582297 0.228409
1.000000 0.487230 0.424704
1.000000 0.021160 0.638367
0.000000 0.861869 0.000000
0.000000 0.861632 0.000000
0.000000 0.861207 0.000000
0.000000 0.860292 0.000000
0.501117 0.832939 0.000000
0.825024 0.814312 0.000000
0.955130 0.772665 0.173569
1.000000 0.727229 0.388398
1.000000 0.644097 0.578740
0.000000 0.984742 0.000000
0.000000 0.984661 0.000000
0.000000 0.984515 0.000000
0.000000 0.984201 0.000000
0.000000 0.983526 0.000000
0.674752 0.948549 0.000000
0.926518 0.918580 0.045601
1.000000 0.881388 0.336872
1.000000 0.843603 0.546792
0.000000 1.000000 0.000000
0.000000 1.000000 0.000000
0.000000 1.000000 0.000000
0.000000 1.000000 0.000000
0.000000 1.000000 0.000000
0.000000 1.000000 0.000000
0.825255 1.000000 0.000000
0.990299 0.985402 0.213538
1.000000 0.953281 0.500876
0.000000 1.000000 0.000000
0.000000 1.000000 0.000000
0.000000 1.000000 0.000000
0.000000 1.000000 0.000000
0.000000 1.000000 0.000000
0.000000 1.000000 0.000000
0.000000 1.000000 0.000000
0.943174 1.000000 0.000000
1.000000 1.000000 0.383780
0.000000 0.000000 0.085619
0.172742 0.000000 0.088510
0.418106 0.000000 0.095932
0.620718 0.000000 0.121620
0.794912 0.000000 0.173637
0.935054 0.000000 0.258503
1.000000 0.000000 0.376082
1.000000 0.000000 0.517985
1.000000 0.000000 0.669156
0.000000 0.093575 0.070870
0.078719 0.078722 0.078722
0.385355 0.044978 0.085554
0.608007 0.000000 0.115079
0.790972 0.000000 0.170294
0.933709 0.000000 0.256212
1.000000 0.000000 0.374718
1.000000 0.000000 0.517268
1.000000 0.000000 0.668821
0.000000 0.325951 0.039616
0.000000 0.321504 0.051644
0.306996 0.298344 0.056724
0.564214 0.269590 0.083585
0.760279 0.221945 0.140794
0.915887 0.112935 0.236673
1.000000 0.000000 0.372246
1.000000 0.000000 0.515973
1.000000 0.000000 0.668218
0.000000 0.525056 0.000000
0.000000 0.522510 0.009352
0.079848 0.512226 0.025558
0.495877 0.484477 0.048363
0.723661 0.455589 0.107342
0.885268 0.409598 0.202313
0.997483 0.311636 0.333296
1.000000 0.000000 0.513175
1.000000 0.000000 0.666921
0.000000 0.707121 0.000000
0.000000 0.706516 0.000000
0.000000 0.703787 0.000000
0.305096 0.680822 0.000000
0.664168 0.652450 0.058311
0.854646 0.622438 0.163351
0.971657 0.577731 0.298785
1.000000 0.486564 0.457295
1.000000 0.035167 0.651452
0.000000 0.862323 0.000000
0.000000 0.862087 0.000000
0.000000 0.861663 0.000000
0.000000 0.860751 0.000000
0.497609 0.829022 0.000000
0.807215 0.796870 0.095910
0.948112 0.766167 0.255048
1.000000 0.724811 0.423429
1.000000 0.643704 0.593550
0.000000 0.984899 0.000000
0.000000 0.984818 0.000000
0.000000 0.984672 0.000000
0.000000 0.984358 0.000000
0.000000 0.983684 0.000000
0.674474 0.948066 0.000000
0.915940 0.908133 0.169005
1.000000 0.878024 0.378067
1.000000 0.842436 0.562842
0.000000 1.000000 0.000000
0.000000 1.000000 0.000000
0.000000 1.000000 0.000000
0.000000 1.000000 0.000000
0.000000 1.000000 0.000000
0.000000 1.000000 0.000000
0.825391 1.000000 0.000000
0.984724 0.979867 0.278466
1.000000 0.951679 0.520127
0.000000 1.000000 0.000000
0.000000 1.000000 0.000000
0.000000 1.000000 0.000000
0.000000 1.000000 0.000000
0.000000 1.000000 0.000000
0.000000 1.000000 0.000000
0.000000 1.000000 0.000000
0.943220 1.000000 0.000000
1.000000 1.000000 0.415791
0.000000 0.000000 0.329055
0.160605 0.000000 0.324442
0.401724 0.000000 0.320355
0.604431 0.000000 0.324874
0.780776 0.000000 0.343533
0.924323 0.000000 0.385279
1.000000 0.000000 0.458574
1.000000 0.000000 0.564446
1.000000 0.000000 0.691869
0.000000 0.103008 0.315806
0.067195 0.089549 0.315626
0.366087 0.059766 0.310465
0.588142 0.010180 0.317680
0.776689 0.000000 0.342042
0.922895 0.000000 0.383988
1.000000 0.000000 0.457633
1.000000 0.000000 0.563872
1.000000 0.000000 0.691574
0.000000 0.315522 0.293945
0.000000 0.311920 0.298083
0.289973 0.290003 0.290005
0.546348 0.264106 0.293659
0.744476 0.221518 0.314733
0.903063 0.123602 0.364427
1.000000 0.000000 0.455933
1.000000 0.000000 0.562836
1.000000 0.000000 0.691043
0.000000 0.506481 0.269404
0.000000 0.504724 0.273524
0.068073 0.495320 0.274510
0.477978 0.470353 0.271146
0.708017 0.445274 0.289951
0.873426 0.404313 0.335513
0.989443 0.313135 0.417931
1.000000 0.000000 0.560602
1.000000 0.000000 0.689901
0.000000 0.683763 0.235504
0.000000 0.682792 0.239893
0.000000 0.681059 0.247580
0.286688 0.660848 0.246663
0.647255 0.637153 0.261017
0.842317 0.612405 0.306673
0.963814 0.572714 0.387821
1.000000 0.486192 0.505647
1.000000 0.058151 0.672642
0.000000 0.841713 0.175703
0.000000 0.841023 0.181028
0.000000 0.839808 0.190296
0.000000 0.837303 0.208963
0.476125 0.806819 0.218971
0.792752 0.783052 0.266391
0.939603 0.758584 0.353801
1.000000 0.721445 0.474903
1.000000 0.643216 0.617484
0.000000 0.976900 0.012445
0.000000 0.975924 0.022863
0.000000 0.974269 0.040434
0.000000 0.971082 0.073898
0.000000 0.965417 0.132037
0.649473 0.922716 0.187954
0.904983 0.897406 0.297176
0.996115 0.873278 0.436994
1.000000 0.840599 0.588639
0.000000 1.000000 0.000000
0.000000 1.000000 0.000000
0.000000 1.000000 0.000000
0.000000 1.000000 0.000000
0.000000 1.000000 0.000000
0.000000 1.000000 0.000000
0.801888 1.000000 0.144620
0.977512 0.972726 0.362533
1.000000 0.949156 0.550586
0.000000 1.000000 0.000000
0.000000 1.000000 0.000000
0.000000 1.000000 0.000000
0.000000 1.000000 0.000000
0.000000 1.000000 0.000000
0.000000 1.000000 0.000000
0.000000 1.000000 0.000000
0.926332 1.000000 0.056284
1.000000 1.000000 0.463498
0.000000 0.000000 0.529560
0.160158 0.000000 0.522018
0.391158 0.000000 0.514575
0.590915 0.000000 0.511568
0.766985 0.000000 0.515757
0.911997 0.000000 0.532942
1.000000 0.000000 0.571390
1.000000 0.000000 0.638307
1.000000 0.000000 0.732417
0.000000 0.139793 0.512928
0.068773 0.127350 0.509328
0.351059 0.102335 0.500721
0.568756 0.063332 0.499517
0.757839 0.000000 0.510155
0.910516 0.000000 0.532310
1.000000 0.000000 0.570842
1.000000 0.000000 0.637912
1.000000 0.000000 0.732185
0.000000 0.320870 0.495965
0.000000 0.317773 0.497803
0.279632 0.296389 0.485338
0.530829 0.272767 0.481187
0.728110 0.234995 0.487057
0.887134 0.151336 0.510494
1.000000 0.000000 0.569855
1.000000 0.000000 0.637201
1.000000 0.000000 0.731766
0.000000 0.498711 0.477472
0.000000 0.497224 0.479198
0.070084 0.487397 0.475124
0.464079 0.464140 0.464144
0.692931 0.441118 0.467350
0.859661 0.403975 0.486585
0.978115 0.321057 0.531888
1.000000 0.000000 0.632733
1.000000 0.000000 0.730866
0.000000 0.669179 0.455604
0.000000 0.668452 0.457319
0.000000 0.667143 0.460370
0.276538 0.647438 0.449851
0.632362 0.625623 0.447216
0.828760 0.603655 0.464375
0.953239 0.568056 0.506289
1.000000 0.487541 0.581586
1.000000 0.100167 0.710255
0.000000 0.821906 0.425978
0.000000 0.821521 0.427793
0.000000 0.820830 0.431017
0.000000 0.819360 0.437769
0.461467 0.790621 0.425912
0.778355 0.770007 0.438796
0.928657 0.749596 0.480701
1.000000 0.716816 0.554838
1.000000 0.642886 0.659860
0.000000 0.946324 0.374991
0.000000 0.946059 0.377147
0.000000 0.945587 0.380969
0.000000 0.944593 0.388939
0.000000 0.942540 0.405112
0.632331 0.904807 0.402594
0.892352 0.885257 0.445727
0.988466 0.866335 0.525657
1.000000 0.837516 0.633930
0.000000 1.000000 0.244567
0.000000 1.000000 0.248228
0.000000 1.000000 0.254664
0.000000 1.000000 0.267865
0.000000 1.000000 0.293818
0.000000 1.000000 0.341157
0.782365 0.982934 0.377532
0.967724 0.963085 0.476796
1.000000 0.944867 0.602824
0.000000 1.000000 0.000000
0.000000 1.000000 0.000000
0.000000 1.000000 0.000000
0.000000 1.000000 0.000000
0.000000 1.000000 0.000000
0.000000 1.000000 0.000000
0.000000 1.000000 0.126197
0.901886 1.000000 0.342458
1.000000 1.000000 0.538914
0.000000 0.066234 0.698451
0.166699 0.047066 0.689309
0.379896 0.021258 0.682490
0.575988 0.000000 0.679786
0.754803 0.000000 0.682623
0.899562 0.000000 0.686812
1.000000 0.000000 0.702883
1.000000 0.000000 0.737557
1.000000 0.000000 0.795382
0.000000 0.208975 0.685945
0.089377 0.196767 0.679327
0.342150 0.177198 0.670045
0.550817 0.148923 0.664961
0.734381 0.093848 0.666164
0.894789 0.000000 0.683287
1.000000 0.000000 0.702618
1.000000 0.000000 0.737333
1.000000 0.000000 0.795227
0.000000 0.347778 0.673489
0.000000 0.345260 0.674356
0.278145 0.324167 0.659385
0.518019 0.303469 0.652129
0.711607 0.271779 0.650780
0.868825 0.206280 0.659610
0.996700 0.000000 0.694268
1.000000 0.000000 0.736929
1.000000 0.000000 0.794949
0.000000 0.503298 0.658870
0.000000 0.502014 0.659637
0.091022 0.490862 0.652171
0.454775 0.469743 0.638999
0.678998 0.448674 0.635263
0.844945 0.415573 0.640856
0.964005 0.343676 0.662375
1.000000 0.060074 0.720917
1.000000 0.000000 0.794350
0.000000 0.662080 0.642364
0.000000 0.661465 0.643084
0.000000 0.660358 0.644371
0.276010 0.640377 0.629483
0.619898 0.619994 0.620000
0.815152 0.599892 0.623182
0.940867 0.567791 0.641127
1.000000 0.494821 0.682063
1.000000 0.169274 0.768042
0.000000 0.808530 0.623330
0.000000 0.808244 0.624046
0.000000 0.807731 0.625325
0.000000 0.806632 0.628036
0.452400 0.778334 0.607745
0.764942 0.759400 0.605531
0.916481 0.741509 0.621624
0.996187 0.712511 0.659506
1.000000 0.644181 0.724848
0.000000 0.928385 0.598254
0.000000 0.928241 0.599014
0.000000 0.927983 0.600372
0.000000 0.927432 0.603246
0.000000 0.926261 0.609259
0.619204 0.890041 0.587737
0.879396 0.873307 0.600032
0.978742 0.858101 0.638159
1.000000 0.833324 0.702631
0.000000 1.000000 0.554694
0.000000 1.000000 0.555603
0.000000 1.000000 0.557224
0.000000 1.000000 0.560651
0.000000 1.000000 0.567794
0.000000 1.000000 0.582267
0.766952 0.966763 0.569414
0.956416 0.952082 0.609306
1.000000 0.938693 0.679651
0.000000 1.000000 0.439668
0.000000 1.000000 0.441201
0.000000 1.000000 0.443928
0.000000 1.000000 0.449652
0.000000 1.000000 0.461419
0.000000 1.000000 0.484634
0.000000 1.000000 0.527129
0.884395 1.000000 0.550112
0.998974 0.996459 0.639630
0.000000 0.234595 0.835471
0.193989 0.220313 0.825526
0.374811 0.205400 0.818589
0.554985 0.181896 0.812957
0.725415 0.137126 0.810760
0.877125 0.021445 0.817999
0.995152 0.000000 0.833838
1.000000 0.000000 0.847809
1.000000 0.000000 0.876115
0.000000 0.312005 0.831477
0.138138 0.298436 0.821111
0.346170 0.284264 0.812797
0.538236 0.264756 0.806237
0.713366 0.231535 0.802784
0.863951 0.158737 0.806256
0.994679 0.000000 0.833737
1.000000 0.000000 0.847707
1.000000 0.000000 0.876032
0.000000 0.405239 0.823293
0.001804 0.398252 0.818530
0.292494 0.382102 0.806410
0.511075 0.365211 0.798339
0.696614 0.340737 0.793608
0.849649 0.294781 0.794575
0.968567 0.173780 0.808293
1.000000 0.000000 0.847523
1.000000 0.000000 0.875884
0.000000 0.527776 0.812330
0.000000 0.526727 0.812673
0.139730 0.513116 0.801556
0.453874 0.495129 0.788981
0.667924 0.476625 0.782351
0.830497 0.448749 0.781261
0.948171 0.391582 0.789376
1.000000 0.207932 0.818583
1.000000 0.000000 0.875565
0.000000 0.666380 0.799385
0.000000 0.665854 0.799685
0.000000 0.664906 0.800223
0.291792 0.643907 0.782391
0.612029 0.625314 0.770667
0.802989 0.607032 0.767387
0.928088 0.578681 0.772641
1.000000 0.515815 0.791540
1.000000 0.269425 0.840738
0.000000 0.801981 0.785354
0.000000 0.801745 0.785634
0.000000 0.801320 0.786136
0.000000 0.800408 0.787206
0.452474 0.771877 0.762871
0.754132 0.754262 0.754270
0.904721 0.738096 0.757356
0.985695 0.712329 0.773006
1.000000 0.650985 0.806797
0.000000 0.916235 0.770151
0.000000 0.916135 0.770430
0.000000 0.915954 0.770929
0.000000 0.915568 0.771993
0.000000 0.914741 0.774244
0.611535 0.878942 0.744882
0.867767 0.863758 0.743119
0.968405 0.850866 0.757274
1.000000 0.829524 0.788401
0.000000 0.997668 0.750741
0.000000 0.997619 0.751040
0.000000 0.997532 0.751575
0.000000 0.997347 0.752713
0.000000 0.996952 0.755121
0.000000 0.996116 0.760146
0.755482 0.953679 0.729614
0.945299 0.941600 0.740805
1.000000 0.931617 0.772552
0.000000 1.000000 0.715618
0.000000 1.000000 0.715982
0.000000 1.000000 0.716634
0.000000 1.000000 0.718019
0.000000 1.000000 0.720945
0.000000 1.000000 0.727027
0.000000 1.000000 0.739289
0.870868 0.997018 0.716561
0.989452 0.987110 0.750912
0.122348 0.394654 0.933682
0.257275 0.386973 0.927949
0.394705 0.377780 0.922299
0.550000 0.364094 0.916364
0.706208 0.341861 0.911518
0.846175 0.298946 0.910080
0.959492 0.187629 0.917634
1.000000 0.000000 0.948267
1.000000 0.000000 0.958634
0.057761 0.434648 0.933180
0.221137 0.425974 0.926165
0.373518 0.416604 0.919810
0.537908 0.403592 0.913376
0.698846 0.383662 0.908097
0.840612 0.347237 0.905994
0.952854 0.260114 0.911443
1.000000 0.000000 0.948232
1.000000 0.000000 0.958601
0.000000 0.497131 0.936673
0.142849 0.483845 0.924690
0.332650 0.473408 0.916627
0.516375 0.460835 0.909223
0.686698 0.443460 0.903265
0.832244 0.414328 0.900330
0.944249 0.351226 0.903650
1.000000 0.126229 0.925834
1.000000 0.000000 0.958540
0.000000 0.580690 0.929487
0.000000 0.579931 0.929638
0.222476 0.562483 0.913810
0.468165 0.548670 0.903530
0.662869 0.533595 0.896193
0.818025 0.512158 0.892111
0.932115 0.471966 0.893293
1.000000 0.365618 0.905324
1.000000 0.000000 0.958409
0.000000 0.688971 0.919879
0.000000 0.688547 0.920002
0.000000 0.687783 0.920223
0.333311 0.664755 0.899286
0.612580 0.648846 0.887950
0.794093 0.632944 0.882111
0.916268 0.609432 0.881428
0.991796 0.560153 0.888479
1.000000 0.396919 0.912525
0.000000 0.805896 0.909082
0.000000 0.805697 0.909187
0.000000 0.805339 0.909375
0.000000 0.804570 0.909777
0.468254 0.775127 0.882812
0.748191 0.759145 0.872250
0.895006 0.744620 0.869606
0.975616 0.722248 0.874068
1.000000 0.670168 0.888673
0.000000 0.910587 0.898338
0.000000 0.910507 0.898434
0.000000 0.910363 0.898607
0.000000 0.910054 0.898977
0.000000 0.909391 0.899764
0.612950 0.873387 0.866808
0.859216 0.859378 0.859388
0.959224 0.847980 0.862059
1.000000 0.829425 0.873831
0.000000 0.987510 0.887737
0.000000 0.987480 0.887833
0.000000 0.987426 0.888006
0.000000 0.987310 0.888374
0.000000 0.987061 0.889159
0.000000 0.986527 0.890816
0.749658 0.944481 0.853310
0.936149 0.933753 0.852031
0.994230 0.925753 0.862806
0.000000 1.000000 0.874399
0.000000 1.000000 0.874504
0.000000 1.000000 0.874692
0.000000 1.000000 0.875093
0.000000 1.000000 0.875945
0.000000 1.000000 0.877745
0.000000 1.000000 0.881486
0.861668 0.986522 0.842938
0.980874 0.978889 0.851908
0.285835 0.552673 0.993598
0.357497 0.548749 0.990519
0.448159 0.543375 0.986673
0.567845 0.535127 0.981735
0.701607 0.522734 0.976596
0.828578 0.502506 0.972713
0.931144 0.462669 0.972234
1.000000 0.355505 0.980134
1.000000 0.000000 1.000000
0.258037 0.571003 0.993289
0.336837 0.566827 0.989888
0.433927 0.561284 0.985747
0.559174 0.553042 0.980541
0.696647 0.541044 0.975188
0.825547 0.522043 0.971102
0.928732 0.485647 0.970287
1.000000 0.391622 0.977054
1.000000 0.000000 1.000000
0.199631 0.600939 0.993409
0.295520 0.596100 0.989244
0.406659 0.590105 0.984466
0.543217 0.581729 0.978726
0.687867 0.570227 0.972984
0.820416 0.552955 0.968568
0.924863 0.521388 0.967261
0.996906 0.444500 0.972541
1.000000 0.020051 1.000000
0.000000 0.657614 0.998108
0.177574 0.649134 0.990145
0.337926 0.641215 0.983167
0.506614 0.631966 0.975957
0.669222 0.620878 0.969312
0.810365 0.605992 0.964269
0.917967 0.581211 0.962206
0.989459 0.526289 0.965555
1.000000 0.327220 0.984440
0.000000 0.736295 0.998621
0.000000 0.735996 0.998672
0.068579 0.725249 0.988540
0.408058 0.709089 0.973714
0.627333 0.696895 0.964437
0.790926 0.684170 0.958121
0.906673 0.666613 0.955023
0.979306 0.633094 0.956412
1.000000 0.540257 0.966227
0.000000 0.825363 0.990798
0.000000 0.825206 0.990836
0.000000 0.824924 0.990906
0.000000 0.824318 0.991054
0.508112 0.793048 0.961366
0.750153 0.779517 0.951342
0.888675 0.767106 0.946692
0.967051 0.749056 0.946433
1.000000 0.709339 0.951666
0.000000 0.913791 0.982748
0.000000 0.913725 0.982779
0.000000 0.913606 0.982835
0.000000 0.913352 0.982954
0.000000 0.912806 0.983209
0.628974 0.875988 0.948065
0.855423 0.863405 0.939202
0.952496 0.853345 0.937349
0.999032 0.837589 0.940384
0.000000 0.983236 0.975699
0.000000 0.983213 0.975727
0.000000 0.983172 0.975777
0.000000 0.983084 0.975884
0.000000 0.982896 0.976114
0.000000 0.982490 0.976602
0.752273 0.940265 0.936224
0.930293 0.930479 0.930491
0.988143 0.923610 0.932274
0.000000 1.000000 0.969403
0.000000 1.000000 0.969431
0.000000 1.000000 0.969481
0.000000 1.000000 0.969589
0.000000 1.000000 0.969820
0.000000 1.000000 0.970309
0.000000 1.000000 0.971341
0.857884 0.980049 0.927234
0.974708 0.973452 0.926348
0.450668 0.698742 1.000000
0.485624 0.696888 1.000000
0.536807 0.694070 1.000000
0.615633 0.689389 1.000000
0.717087 0.682313 1.000000
0.823911 0.671895 1.000000
0.915299 0.654934 1.000000
0.979419 0.620461 1.000000
1.000000 0.522227 1.000000
0.438447 0.706415 1.000000
0.475168 0.704498 1.000000
0.528529 0.701609 1.000000
0.609946 0.696868 1.000000
0.713707 0.689810 1.000000
0.822050 0.679592 1.000000
0.914168 0.663227 1.000000
0.978449 0.630436 1.000000
1.000000 0.538834 1.000000
0.414894 0.719485 1.000000
0.455232 0.717430 1.000000
0.512959 0.714389 1.000000
0.599434 0.709513 1.000000
0.707575 0.702454 1.000000
0.818746 0.692541 1.000000
0.912214 0.677126 1.000000
0.976822 0.646993 1.000000
1.000000 0.565471 1.000000
0.355539 0.744946 1.000000
0.406347 0.742468 1.000000
0.475997 0.738972 1.000000
0.575425 0.733679 1.000000
0.694120 0.726490 1.000000
0.811796 0.717041 1.000000
0.908312 0.703239 0.998004
0.973746 0.677607 0.997653
1.000000 0.612100 1.000000
0.141349 0.793366 1.000000
0.250218 0.788381 1.000000
0.370861 0.782738 1.000000
0.514392 0.775725 1.000000
0.663035 0.767710 1.000000
0.797089 0.758637 0.998148
0.900841 0.747045 0.994426
0.968454 0.727682 0.993412
1.000000 0.682590 0.996463
0.000000 0.863609 1.000000
0.000000 0.863503 1.000000
0.000000 0.863312 1.000000
0.277083 0.842802 1.000000
0.577552 0.828644 1.000000
0.763887 0.818502 0.994345
0.886831 0.808868 0.989523
0.960329 0.796035 0.987644
1.000000 0.770397 0.988965
0.000000 0.928318 1.000000
0.000000 0.928267 1.000000
0.000000 0.928177 1.000000
0.000000 0.927983 1.000000
0.000000 0.927565 1.000000
0.665716 0.889148 0.992639
0.857892 0.878696 0.984554
0.948533 0.870317 0.981453
0.993741 0.858042 0.981454
0.000000 0.985333 1.000000
0.000000 0.985315 1.000000
0.000000 0.985282 1.000000
0.000000 0.985211 1.000000
0.000000 0.985060 1.000000
0.000000 0.984733 1.000000
0.766870 0.941825 0.983020
0.928218 0.933149 0.976543
0.984270 0.927183 0.975468
0.000000 1.000000 1.000000
0.000000 1.000000 1.000000
0.000000 1.000000 1.000000
0.000000 1.000000 1.000000
0.000000 1.000000 1.000000
0.000000 1.000000 1.000000
0.000000 1.000000 1.000000
0.860710 0.977507 0.975222
0.971326 0.971528 0.971540
