post_production/PixelLog_to_Rec2020_Linear.cube
# PixelLog to BT.2020 Scene-Linear Transform LUT
# Target Device: Google Pixel 11 Pro Primary Sensor
# Transform: 1:1 Unclipped Scene-Linear for ACEScg / DaVinci YRGB Color Managed
TITLE "PixelLog_to_Rec2020_Linear"
LUT_3D_SIZE 9
DOMAIN_MIN 0.0 0.0 0.0
DOMAIN_MAX 1.0 1.0 1.0
-0.010612 -0.010612 -0.010612
0.005836 -0.010612 -0.010612
0.046202 -0.010612 -0.010612
0.146464 -0.010612 -0.010612
0.395987 -0.010612 -0.010612
1.017165 -0.010612 -0.010612
2.563650 -0.010612 -0.010612
6.413811 -0.010612 -0.010612
15.999260 -0.010612 -0.010612
-0.010612 0.005836 -0.010612
0.005836 0.005836 -0.010612
0.046202 0.005836 -0.010612
0.146464 0.005836 -0.010612
0.395987 0.005836 -0.010612
1.017165 0.005836 -0.010612
2.563650 0.005836 -0.010612
6.413811 0.005836 -0.010612
15.999260 0.005836 -0.010612
-0.010612 0.046202 -0.010612
0.005836 0.046202 -0.010612
0.046202 0.046202 -0.010612
0.146464 0.046202 -0.010612
0.395987 0.046202 -0.010612
1.017165 0.046202 -0.010612
2.563650 0.046202 -0.010612
6.413811 0.046202 -0.010612
15.999260 0.046202 -0.010612
-0.010612 0.146464 -0.010612
0.005836 0.146464 -0.010612
0.046202 0.146464 -0.010612
0.146464 0.146464 -0.010612
0.395987 0.146464 -0.010612
1.017165 0.146464 -0.010612
2.563650 0.146464 -0.010612
6.413811 0.146464 -0.010612
15.999260 0.146464 -0.010612
-0.010612 0.395987 -0.010612
0.005836 0.395987 -0.010612
0.046202 0.395987 -0.010612
0.146464 0.395987 -0.010612
0.395987 0.395987 -0.010612
1.017165 0.395987 -0.010612
2.563650 0.395987 -0.010612
6.413811 0.395987 -0.010612
15.999260 0.395987 -0.010612
-0.010612 1.017165 -0.010612
0.005836 1.017165 -0.010612
0.046202 1.017165 -0.010612
0.146464 1.017165 -0.010612
0.395987 1.017165 -0.010612
1.017165 1.017165 -0.010612
2.563650 1.017165 -0.010612
6.413811 1.017165 -0.010612
15.999260 1.017165 -0.010612
-0.010612 2.563650 -0.010612
0.005836 2.563650 -0.010612
0.046202 2.563650 -0.010612
0.146464 2.563650 -0.010612
0.395987 2.563650 -0.010612
1.017165 2.563650 -0.010612
2.563650 2.563650 -0.010612
6.413811 2.563650 -0.010612
15.999260 2.563650 -0.010612
-0.010612 6.413811 -0.010612
0.005836 6.413811 -0.010612
0.046202 6.413811 -0.010612
0.146464 6.413811 -0.010612
0.395987 6.413811 -0.010612
1.017165 6.413811 -0.010612
2.563650 6.413811 -0.010612
6.413811 6.413811 -0.010612
15.999260 6.413811 -0.010612
-0.010612 15.999260 -0.010612
0.005836 15.999260 -0.010612
0.046202 15.999260 -0.010612
0.146464 15.999260 -0.010612
0.395987 15.999260 -0.010612
1.017165 15.999260 -0.010612
2.563650 15.999260 -0.010612
6.413811 15.999260 -0.010612
15.999260 15.999260 -0.010612
-0.010612 -0.010612 0.005836
0.005836 -0.010612 0.005836
0.046202 -0.010612 0.005836
0.146464 -0.010612 0.005836
0.395987 -0.010612 0.005836
1.017165 -0.010612 0.005836
2.563650 -0.010612 0.005836
6.413811 -0.010612 0.005836
15.999260 -0.010612 0.005836
-0.010612 0.005836 0.005836
0.005836 0.005836 0.005836
0.046202 0.005836 0.005836
0.146464 0.005836 0.005836
0.395987 0.005836 0.005836
1.017165 0.005836 0.005836
2.563650 0.005836 0.005836
6.413811 0.005836 0.005836
15.999260 0.005836 0.005836
-0.010612 0.046202 0.005836
0.005836 0.046202 0.005836
0.046202 0.046202 0.005836
0.146464 0.046202 0.005836
0.395987 0.046202 0.005836
1.017165 0.046202 0.005836
2.563650 0.046202 0.005836
6.413811 0.046202 0.005836
15.999260 0.046202 0.005836
-0.010612 0.146464 0.005836
0.005836 0.146464 0.005836
0.046202 0.146464 0.005836
0.146464 0.146464 0.005836
0.395987 0.146464 0.005836
1.017165 0.146464 0.005836
2.563650 0.146464 0.005836
6.413811 0.146464 0.005836
15.999260 0.146464 0.005836
-0.010612 0.395987 0.005836
0.005836 0.395987 0.005836
0.046202 0.395987 0.005836
0.146464 0.395987 0.005836
0.395987 0.395987 0.005836
1.017165 0.395987 0.005836
2.563650 0.395987 0.005836
6.413811 0.395987 0.005836
15.999260 0.395987 0.005836
-0.010612 1.017165 0.005836
0.005836 1.017165 0.005836
0.046202 1.017165 0.005836
0.146464 1.017165 0.005836
0.395987 1.017165 0.005836
1.017165 1.017165 0.005836
2.563650 1.017165 0.005836
6.413811 1.017165 0.005836
15.999260 1.017165 0.005836
-0.010612 2.563650 0.005836
0.005836 2.563650 0.005836
0.046202 2.563650 0.005836
0.146464 2.563650 0.005836
0.395987 2.563650 0.005836
1.017165 2.563650 0.005836
2.563650 2.563650 0.005836
6.413811 2.563650 0.005836
15.999260 2.563650 0.005836
-0.010612 6.413811 0.005836
0.005836 6.413811 0.005836
0.046202 6.413811 0.005836
0.146464 6.413811 0.005836
0.395987 6.413811 0.005836
1.017165 6.413811 0.005836
2.563650 6.413811 0.005836
6.413811 6.413811 0.005836
15.999260 6.413811 0.005836
-0.010612 15.999260 0.005836
0.005836 15.999260 0.005836
0.046202 15.999260 0.005836
0.146464 15.999260 0.005836
0.395987 15.999260 0.005836
1.017165 15.999260 0.005836
2.563650 15.999260 0.005836
6.413811 15.999260 0.005836
15.999260 15.999260 0.005836
-0.010612 -0.010612 0.046202
0.005836 -0.010612 0.046202
0.046202 -0.010612 0.046202
0.146464 -0.010612 0.046202
0.395987 -0.010612 0.046202
1.017165 -0.010612 0.046202
2.563650 -0.010612 0.046202
6.413811 -0.010612 0.046202
15.999260 -0.010612 0.046202
-0.010612 0.005836 0.046202
0.005836 0.005836 0.046202
0.046202 0.005836 0.046202
0.146464 0.005836 0.046202
0.395987 0.005836 0.046202
1.017165 0.005836 0.046202
2.563650 0.005836 0.046202
6.413811 0.005836 0.046202
15.999260 0.005836 0.046202
-0.010612 0.046202 0.046202
0.005836 0.046202 0.046202
0.046202 0.046202 0.046202
0.146464 0.046202 0.046202
0.395987 0.046202 0.046202
1.017165 0.046202 0.046202
2.563650 0.046202 0.046202
6.413811 0.046202 0.046202
15.999260 0.046202 0.046202
-0.010612 0.146464 0.046202
0.005836 0.146464 0.046202
0.046202 0.146464 0.046202
0.146464 0.146464 0.046202
0.395987 0.146464 0.046202
1.017165 0.146464 0.046202
2.563650 0.146464 0.046202
6.413811 0.146464 0.046202
15.999260 0.146464 0.046202
-0.010612 0.395987 0.046202
0.005836 0.395987 0.046202
0.046202 0.395987 0.046202
0.146464 0.395987 0.046202
0.395987 0.395987 0.046202
1.017165 0.395987 0.046202
2.563650 0.395987 0.046202
6.413811 0.395987 0.046202
15.999260 0.395987 0.046202
-0.010612 1.017165 0.046202
0.005836 1.017165 0.046202
0.046202 1.017165 0.046202
0.146464 1.017165 0.046202
0.395987 1.017165 0.046202
1.017165 1.017165 0.046202
2.563650 1.017165 0.046202
6.413811 1.017165 0.046202
15.999260 1.017165 0.046202
-0.010612 2.563650 0.046202
0.005836 2.563650 0.046202
0.046202 2.563650 0.046202
0.146464 2.563650 0.046202
0.395987 2.563650 0.046202
1.017165 2.563650 0.046202
2.563650 2.563650 0.046202
6.413811 2.563650 0.046202
15.999260 2.563650 0.046202
-0.010612 6.413811 0.046202
0.005836 6.413811 0.046202
0.046202 6.413811 0.046202
0.146464 6.413811 0.046202
0.395987 6.413811 0.046202
1.017165 6.413811 0.046202
2.563650 6.413811 0.046202
6.413811 6.413811 0.046202
15.999260 6.413811 0.046202
-0.010612 15.999260 0.046202
0.005836 15.999260 0.046202
0.046202 15.999260 0.046202
0.146464 15.999260 0.046202
0.395987 15.999260 0.046202
1.017165 15.999260 0.046202
2.563650 15.999260 0.046202
6.413811 15.999260 0.046202
15.999260 15.999260 0.046202
-0.010612 -0.010612 0.146464
0.005836 -0.010612 0.146464
0.046202 -0.010612 0.146464
0.146464 -0.010612 0.146464
0.395987 -0.010612 0.146464
1.017165 -0.010612 0.146464
2.563650 -0.010612 0.146464
6.413811 -0.010612 0.146464
15.999260 -0.010612 0.146464
-0.010612 0.005836 0.146464
0.005836 0.005836 0.146464
0.046202 0.005836 0.146464
0.146464 0.005836 0.146464
0.395987 0.005836 0.146464
1.017165 0.005836 0.146464
2.563650 0.005836 0.146464
6.413811 0.005836 0.146464
15.999260 0.005836 0.146464
-0.010612 0.046202 0.146464
0.005836 0.046202 0.146464
0.046202 0.046202 0.146464
0.146464 0.046202 0.146464
0.395987 0.046202 0.146464
1.017165 0.046202 0.146464
2.563650 0.046202 0.146464
6.413811 0.046202 0.146464
15.999260 0.046202 0.146464
-0.010612 0.146464 0.146464
0.005836 0.146464 0.146464
0.046202 0.146464 0.146464
0.146464 0.146464 0.146464
0.395987 0.146464 0.146464
1.017165 0.146464 0.146464
2.563650 0.146464 0.146464
6.413811 0.146464 0.146464
15.999260 0.146464 0.146464
-0.010612 0.395987 0.146464
0.005836 0.395987 0.146464
0.046202 0.395987 0.146464
0.146464 0.395987 0.146464
0.395987 0.395987 0.146464
1.017165 0.395987 0.146464
2.563650 0.395987 0.146464
6.413811 0.395987 0.146464
15.999260 0.395987 0.146464
-0.010612 1.017165 0.146464
0.005836 1.017165 0.146464
0.046202 1.017165 0.146464
0.146464 1.017165 0.146464
0.395987 1.017165 0.146464
1.017165 1.017165 0.146464
2.563650 1.017165 0.146464
6.413811 1.017165 0.146464
15.999260 1.017165 0.146464
-0.010612 2.563650 0.146464
0.005836 2.563650 0.146464
0.046202 2.563650 0.146464
0.146464 2.563650 0.146464
0.395987 2.563650 0.146464
1.017165 2.563650 0.146464
2.563650 2.563650 0.146464
6.413811 2.563650 0.146464
15.999260 2.563650 0.146464
-0.010612 6.413811 0.146464
0.005836 6.413811 0.146464
0.046202 6.413811 0.146464
0.146464 6.413811 0.146464
0.395987 6.413811 0.146464
1.017165 6.413811 0.146464
2.563650 6.413811 0.146464
6.413811 6.413811 0.146464
15.999260 6.413811 0.146464
-0.010612 15.999260 0.146464
0.005836 15.999260 0.146464
0.046202 15.999260 0.146464
0.146464 15.999260 0.146464
0.395987 15.999260 0.146464
1.017165 15.999260 0.146464
2.563650 15.999260 0.146464
6.413811 15.999260 0.146464
15.999260 15.999260 0.146464
-0.010612 -0.010612 0.395987
0.005836 -0.010612 0.395987
0.046202 -0.010612 0.395987
0.146464 -0.010612 0.395987
0.395987 -0.010612 0.395987
1.017165 -0.010612 0.395987
2.563650 -0.010612 0.395987
6.413811 -0.010612 0.395987
15.999260 -0.010612 0.395987
-0.010612 0.005836 0.395987
0.005836 0.005836 0.395987
0.046202 0.005836 0.395987
0.146464 0.005836 0.395987
0.395987 0.005836 0.395987
1.017165 0.005836 0.395987
2.563650 0.005836 0.395987
6.413811 0.005836 0.395987
15.999260 0.005836 0.395987
-0.010612 0.046202 0.395987
0.005836 0.046202 0.395987
0.046202 0.046202 0.395987
0.146464 0.046202 0.395987
0.395987 0.046202 0.395987
1.017165 0.046202 0.395987
2.563650 0.046202 0.395987
6.413811 0.046202 0.395987
15.999260 0.046202 0.395987
-0.010612 0.146464 0.395987
0.005836 0.146464 0.395987
0.046202 0.146464 0.395987
0.146464 0.146464 0.395987
0.395987 0.146464 0.395987
1.017165 0.146464 0.395987
2.563650 0.146464 0.395987
6.413811 0.146464 0.395987
15.999260 0.146464 0.395987
-0.010612 0.395987 0.395987
0.005836 0.395987 0.395987
0.046202 0.395987 0.395987
0.146464 0.395987 0.395987
0.395987 0.395987 0.395987
1.017165 0.395987 0.395987
2.563650 0.395987 0.395987
6.413811 0.395987 0.395987
15.999260 0.395987 0.395987
-0.010612 1.017165 0.395987
0.005836 1.017165 0.395987
0.046202 1.017165 0.395987
0.146464 1.017165 0.395987
0.395987 1.017165 0.395987
1.017165 1.017165 0.395987
2.563650 1.017165 0.395987
6.413811 1.017165 0.395987
15.999260 1.017165 0.395987
-0.010612 2.563650 0.395987
0.005836 2.563650 0.395987
0.046202 2.563650 0.395987
0.146464 2.563650 0.395987
0.395987 2.563650 0.395987
1.017165 2.563650 0.395987
2.563650 2.563650 0.395987
6.413811 2.563650 0.395987
15.999260 2.563650 0.395987
-0.010612 6.413811 0.395987
0.005836 6.413811 0.395987
0.046202 6.413811 0.395987
0.146464 6.413811 0.395987
0.395987 6.413811 0.395987
1.017165 6.413811 0.395987
2.563650 6.413811 0.395987
6.413811 6.413811 0.395987
15.999260 6.413811 0.395987
-0.010612 15.999260 0.395987
0.005836 15.999260 0.395987
0.046202 15.999260 0.395987
0.146464 15.999260 0.395987
0.395987 15.999260 0.395987
1.017165 15.999260 0.395987
2.563650 15.999260 0.395987
6.413811 15.999260 0.395987
15.999260 15.999260 0.395987
-0.010612 -0.010612 1.017165
0.005836 -0.010612 1.017165
0.046202 -0.010612 1.017165
0.146464 -0.010612 1.017165
0.395987 -0.010612 1.017165
1.017165 -0.010612 1.017165
2.563650 -0.010612 1.017165
6.413811 -0.010612 1.017165
15.999260 -0.010612 1.017165
-0.010612 0.005836 1.017165
0.005836 0.005836 1.017165
0.046202 0.005836 1.017165
0.146464 0.005836 1.017165
0.395987 0.005836 1.017165
1.017165 0.005836 1.017165
2.563650 0.005836 1.017165
6.413811 0.005836 1.017165
15.999260 0.005836 1.017165
-0.010612 0.046202 1.017165
0.005836 0.046202 1.017165
0.046202 0.046202 1.017165
0.146464 0.046202 1.017165
0.395987 0.046202 1.017165
1.017165 0.046202 1.017165
2.563650 0.046202 1.017165
6.413811 0.046202 1.017165
15.999260 0.046202 1.017165
-0.010612 0.146464 1.017165
0.005836 0.146464 1.017165
0.046202 0.146464 1.017165
0.146464 0.146464 1.017165
0.395987 0.146464 1.017165
1.017165 0.146464 1.017165
2.563650 0.146464 1.017165
6.413811 0.146464 1.017165
15.999260 0.146464 1.017165
-0.010612 0.395987 1.017165
0.005836 0.395987 1.017165
0.046202 0.395987 1.017165
0.146464 0.395987 1.017165
0.395987 0.395987 1.017165
1.017165 0.395987 1.017165
2.563650 0.395987 1.017165
6.413811 0.395987 1.017165
15.999260 0.395987 1.017165
-0.010612 1.017165 1.017165
0.005836 1.017165 1.017165
0.046202 1.017165 1.017165
0.146464 1.017165 1.017165
0.395987 1.017165 1.017165
1.017165 1.017165 1.017165
2.563650 1.017165 1.017165
6.413811 1.017165 1.017165
15.999260 1.017165 1.017165
-0.010612 2.563650 1.017165
0.005836 2.563650 1.017165
0.046202 2.563650 1.017165
0.146464 2.563650 1.017165
0.395987 2.563650 1.017165
1.017165 2.563650 1.017165
2.563650 2.563650 1.017165
6.413811 2.563650 1.017165
15.999260 2.563650 1.017165
-0.010612 6.413811 1.017165
0.005836 6.413811 1.017165
0.046202 6.413811 1.017165
0.146464 6.413811 1.017165
0.395987 6.413811 1.017165
1.017165 6.413811 1.017165
2.563650 6.413811 1.017165
6.413811 6.413811 1.017165
15.999260 6.413811 1.017165
-0.010612 15.999260 1.017165
0.005836 15.999260 1.017165
0.046202 15.999260 1.017165
0.146464 15.999260 1.017165
0.395987 15.999260 1.017165
1.017165 15.999260 1.017165
2.563650 15.999260 1.017165
6.413811 15.999260 1.017165
15.999260 15.999260 1.017165
-0.010612 -0.010612 2.563650
0.005836 -0.010612 2.563650
0.046202 -0.010612 2.563650
0.146464 -0.010612 2.563650
0.395987 -0.010612 2.563650
1.017165 -0.010612 2.563650
2.563650 -0.010612 2.563650
6.413811 -0.010612 2.563650
15.999260 -0.010612 2.563650
-0.010612 0.005836 2.563650
0.005836 0.005836 2.563650
0.046202 0.005836 2.563650
0.146464 0.005836 2.563650
0.395987 0.005836 2.563650
1.017165 0.005836 2.563650
2.563650 0.005836 2.563650
6.413811 0.005836 2.563650
15.999260 0.005836 2.563650
-0.010612 0.046202 2.563650
0.005836 0.046202 2.563650
0.046202 0.046202 2.563650
0.146464 0.046202 2.563650
0.395987 0.046202 2.563650
1.017165 0.046202 2.563650
2.563650 0.046202 2.563650
6.413811 0.046202 2.563650
15.999260 0.046202 2.563650
-0.010612 0.146464 2.563650
0.005836 0.146464 2.563650
0.046202 0.146464 2.563650
0.146464 0.146464 2.563650
0.395987 0.146464 2.563650
1.017165 0.146464 2.563650
2.563650 0.146464 2.563650
6.413811 0.146464 2.563650
15.999260 0.146464 2.563650
-0.010612 0.395987 2.563650
0.005836 0.395987 2.563650
0.046202 0.395987 2.563650
0.146464 0.395987 2.563650
0.395987 0.395987 2.563650
1.017165 0.395987 2.563650
2.563650 0.395987 2.563650
6.413811 0.395987 2.563650
15.999260 0.395987 2.563650
-0.010612 1.017165 2.563650
0.005836 1.017165 2.563650
0.046202 1.017165 2.563650
0.146464 1.017165 2.563650
0.395987 1.017165 2.563650
1.017165 1.017165 2.563650
2.563650 1.017165 2.563650
6.413811 1.017165 2.563650
15.999260 1.017165 2.563650
-0.010612 2.563650 2.563650
0.005836 2.563650 2.563650
0.046202 2.563650 2.563650
0.146464 2.563650 2.563650
0.395987 2.563650 2.563650
1.017165 2.563650 2.563650
2.563650 2.563650 2.563650
6.413811 2.563650 2.563650
15.999260 2.563650 2.563650
-0.010612 6.413811 2.563650
0.005836 6.413811 2.563650
0.046202 6.413811 2.563650
0.146464 6.413811 2.563650
0.395987 6.413811 2.563650
1.017165 6.413811 2.563650
2.563650 6.413811 2.563650
6.413811 6.413811 2.563650
15.999260 6.413811 2.563650
-0.010612 15.999260 2.563650
0.005836 15.999260 2.563650
0.046202 15.999260 2.563650
0.146464 15.999260 2.563650
0.395987 15.999260 2.563650
1.017165 15.999260 2.563650
2.563650 15.999260 2.563650
6.413811 15.999260 2.563650
15.999260 15.999260 2.563650
-0.010612 -0.010612 6.413811
0.005836 -0.010612 6.413811
0.046202 -0.010612 6.413811
0.146464 -0.010612 6.413811
0.395987 -0.010612 6.413811
1.017165 -0.010612 6.413811
2.563650 -0.010612 6.413811
6.413811 -0.010612 6.413811
15.999260 -0.010612 6.413811
-0.010612 0.005836 6.413811
0.005836 0.005836 6.413811
0.046202 0.005836 6.413811
0.146464 0.005836 6.413811
0.395987 0.005836 6.413811
1.017165 0.005836 6.413811
2.563650 0.005836 6.413811
6.413811 0.005836 6.413811
15.999260 0.005836 6.413811
-0.010612 0.046202 6.413811
0.005836 0.046202 6.413811
0.046202 0.046202 6.413811
0.146464 0.046202 6.413811
0.395987 0.046202 6.413811
1.017165 0.046202 6.413811
2.563650 0.046202 6.413811
6.413811 0.046202 6.413811
15.999260 0.046202 6.413811
-0.010612 0.146464 6.413811
0.005836 0.146464 6.413811
0.046202 0.146464 6.413811
0.146464 0.146464 6.413811
0.395987 0.146464 6.413811
1.017165 0.146464 6.413811
2.563650 0.146464 6.413811
6.413811 0.146464 6.413811
15.999260 0.146464 6.413811
-0.010612 0.395987 6.413811
0.005836 0.395987 6.413811
0.046202 0.395987 6.413811
0.146464 0.395987 6.413811
0.395987 0.395987 6.413811
1.017165 0.395987 6.413811
2.563650 0.395987 6.413811
6.413811 0.395987 6.413811
15.999260 0.395987 6.413811
-0.010612 1.017165 6.413811
0.005836 1.017165 6.413811
0.046202 1.017165 6.413811
0.146464 1.017165 6.413811
0.395987 1.017165 6.413811
1.017165 1.017165 6.413811
2.563650 1.017165 6.413811
6.413811 1.017165 6.413811
15.999260 1.017165 6.413811
-0.010612 2.563650 6.413811
0.005836 2.563650 6.413811
0.046202 2.563650 6.413811
0.146464 2.563650 6.413811
0.395987 2.563650 6.413811
1.017165 2.563650 6.413811
2.563650 2.563650 6.413811
6.413811 2.563650 6.413811
15.999260 2.563650 6.413811
-0.010612 6.413811 6.413811
0.005836 6.413811 6.413811
0.046202 6.413811 6.413811
0.146464 6.413811 6.413811
0.395987 6.413811 6.413811
1.017165 6.413811 6.413811
2.563650 6.413811 6.413811
6.413811 6.413811 6.413811
15.999260 6.413811 6.413811
-0.010612 15.999260 6.413811
0.005836 15.999260 6.413811
0.046202 15.999260 6.413811
0.146464 15.999260 6.413811
0.395987 15.999260 6.413811
1.017165 15.999260 6.413811
2.563650 15.999260 6.413811
6.413811 15.999260 6.413811
15.999260 15.999260 6.413811
-0.010612 -0.010612 15.999260
0.005836 -0.010612 15.999260
0.046202 -0.010612 15.999260
0.146464 -0.010612 15.999260
0.395987 -0.010612 15.999260
1.017165 -0.010612 15.999260
2.563650 -0.010612 15.999260
6.413811 -0.010612 15.999260
15.999260 -0.010612 15.999260
-0.010612 0.005836 15.999260
0.005836 0.005836 15.999260
0.046202 0.005836 15.999260
0.146464 0.005836 15.999260
0.395987 0.005836 15.999260
1.017165 0.005836 15.999260
2.563650 0.005836 15.999260
6.413811 0.005836 15.999260
15.999260 0.005836 15.999260
-0.010612 0.046202 15.999260
0.005836 0.046202 15.999260
0.046202 0.046202 15.999260
0.146464 0.046202 15.999260
0.395987 0.046202 15.999260
1.017165 0.046202 15.999260
2.563650 0.046202 15.999260
6.413811 0.046202 15.999260
15.999260 0.046202 15.999260
-0.010612 0.146464 15.999260
0.005836 0.146464 15.999260
0.046202 0.146464 15.999260
0.146464 0.146464 15.999260
0.395987 0.146464 15.999260
1.017165 0.146464 15.999260
2.563650 0.146464 15.999260
6.413811 0.146464 15.999260
15.999260 0.146464 15.999260
-0.010612 0.395987 15.999260
0.005836 0.395987 15.999260
0.046202 0.395987 15.999260
0.146464 0.395987 15.999260
0.395987 0.395987 15.999260
1.017165 0.395987 15.999260
2.563650 0.395987 15.999260
6.413811 0.395987 15.999260
15.999260 0.395987 15.999260
-0.010612 1.017165 15.999260
0.005836 1.017165 15.999260
0.046202 1.017165 15.999260
0.146464 1.017165 15.999260
0.395987 1.017165 15.999260
1.017165 1.017165 15.999260
2.563650 1.017165 15.999260
6.413811 1.017165 15.999260
15.999260 1.017165 15.999260
-0.010612 2.563650 15.999260
0.005836 2.563650 15.999260
0.046202 2.563650 15.999260
0.146464 2.563650 15.999260
0.395987 2.563650 15.999260
1.017165 2.563650 15.999260
2.563650 2.563650 15.999260
6.413811 2.563650 15.999260
15.999260 2.563650 15.999260
-0.010612 6.413811 15.999260
0.005836 6.413811 15.999260
0.046202 6.413811 15.999260
0.146464 6.413811 15.999260
0.395987 6.413811 15.999260
1.017165 6.413811 15.999260
2.563650 6.413811 15.999260
6.413811 6.413811 15.999260
15.999260 6.413811 15.999260
-0.010612 15.999260 15.999260
0.005836 15.999260 15.999260
0.046202 15.999260 15.999260
0.146464 15.999260 15.999260
0.395987 15.999260 15.999260
1.017165 15.999260 15.999260
2.563650 15.999260 15.999260
6.413811 15.999260 15.999260
15.999260 15.999260 15.999260
