post_production/PixelLog_to_AgX_Rec709_65.cube
# PixelLog to AgX (Base) Rec.709 Display Transform 3D LUT
# Architecture: AgX Display Rendering Transform (Troy Sobotka / Blender 4.0+)
# Target Device: Google Pixel 11 Pro Primary Sensor (Tensor G6)
# Transform: Pixel-Log BT.2020 -> Scene-Linear -> BT.2020 to Rec.709 -> AgX Inset -> Log2 EV -> Sigmoid -> Outset
LUT_3D_SIZE 65
DOMAIN_MIN 0.0 0.0 0.0
DOMAIN_MAX 1.0 1.0 1.0
0.000000 0.000000 0.000000
0.000000 0.000000 0.000000
0.000000 0.000000 0.000000
0.000000 0.000000 0.000000
0.000000 0.000000 0.000000
0.049965 0.000000 0.000000
0.096457 0.000000 0.000000
0.137988 0.000000 0.000000
0.176357 0.000000 0.000000
0.212274 0.000000 0.000000
0.246283 0.000000 0.000000
0.278777 0.000000 0.000000
0.310042 0.000000 0.000000
0.340290 0.000000 0.000000
0.369679 0.000000 0.000000
0.398331 0.000000 0.000000
0.426339 0.000000 0.000000
0.453773 0.000000 0.000000
0.480687 0.000000 0.000000
0.507124 0.000000 0.000000
0.533112 0.000000 0.000000
0.558674 0.000000 0.000000
0.583824 0.000000 0.000000
0.608572 0.000000 0.000000
0.632920 0.000000 0.000000
0.656869 0.000000 0.000000
0.680414 0.000000 0.000000
0.703549 0.000000 0.000000
0.726265 0.000000 0.000000
0.748549 0.000000 0.000000
0.770388 0.000000 0.000000
0.791769 0.000000 0.000000
0.812676 0.000000 0.000000
0.831678 0.000000 0.000000
0.849666 0.000000 0.001005
0.867014 0.000000 0.023807
0.883794 0.000000 0.046941
0.900031 0.000000 0.069928
0.915716 0.000000 0.092668
0.930835 0.000000 0.115169
0.945368 0.000000 0.137470
0.959299 0.000000 0.159612
0.972613 0.000000 0.181638
0.985296 0.000000 0.203580
0.997337 0.000000 0.225466
1.000000 0.000000 0.247317
1.000000 0.000000 0.269150
1.000000 0.000000 0.290974
1.000000 0.000000 0.312797
1.000000 0.000000 0.334621
1.000000 0.000000 0.356444
1.000000 0.000000 0.378263
1.000000 0.000000 0.400070
1.000000 0.000000 0.421856
1.000000 0.000000 0.443607
1.000000 0.000000 0.465310
1.000000 0.000000 0.486949
1.000000 0.000000 0.508504
1.000000 0.000000 0.529955
1.000000 0.000000 0.551280
1.000000 0.000000 0.572458
1.000000 0.000000 0.593462
1.000000 0.000000 0.614267
1.000000 0.000000 0.634847
1.000000 0.000000 0.655175
0.000000 0.000000 0.000000
0.000000 0.000000 0.000000
0.000000 0.000000 0.000000
0.000000 0.000000 0.000000
0.000000 0.000000 0.000000
0.034815 0.000000 0.000000
0.083461 0.000000 0.000000
0.127173 0.000000 0.000000
0.167245 0.000000 0.000000
0.204494 0.000000 0.000000
0.239569 0.000000 0.000000
0.272933 0.000000 0.000000
0.304922 0.000000 0.000000
0.335781 0.000000 0.000000
0.365693 0.000000 0.000000
0.394796 0.000000 0.000000
0.423195 0.000000 0.000000
0.450972 0.000000 0.000000
0.478189 0.000000 0.000000
0.504892 0.000000 0.000000
0.531118 0.000000 0.000000
0.556891 0.000000 0.000000
0.582229 0.000000 0.000000
0.607145 0.000000 0.000000
0.631644 0.000000 0.000000
0.655729 0.000000 0.000000
0.679395 0.000000 0.000000
0.702639 0.000000 0.000000
0.725453 0.000000 0.000000
0.747825 0.000000 0.000000
0.769744 0.000000 0.000000
0.791196 0.000000 0.000000
0.812167 0.000000 0.000000
0.831312 0.000000 0.000000
0.849340 0.000000 0.000159
0.866730 0.000000 0.023008
0.883545 0.000000 0.046215
0.899813 0.000000 0.069275
0.915525 0.000000 0.092081
0.930668 0.000000 0.114641
0.945223 0.000000 0.136993
0.959174 0.000000 0.159182
0.972504 0.000000 0.181249
0.985203 0.000000 0.203227
0.997258 0.000000 0.225146
1.000000 0.000000 0.247027
1.000000 0.000000 0.268886
1.000000 0.000000 0.290735
1.000000 0.000000 0.312579
1.000000 0.000000 0.334423
1.000000 0.000000 0.356264
1.000000 0.000000 0.378100
1.000000 0.000000 0.399922
1.000000 0.000000 0.421721
1.000000 0.000000 0.443485
1.000000 0.000000 0.465200
1.000000 0.000000 0.486848
1.000000 0.000000 0.508413
1.000000 0.000000 0.529873
1.000000 0.000000 0.551206
1.000000 0.000000 0.572391
1.000000 0.000000 0.593402
1.000000 0.000000 0.614213
1.000000 0.000000 0.634799
1.000000 0.000000 0.655131
0.000000 0.000000 0.000000
0.000000 0.000000 0.000000
0.000000 0.000000 0.000000
0.000000 0.000000 0.000000
0.000000 0.000000 0.000000
0.019532 0.000000 0.000000
0.069746 0.000000 0.000000
0.115820 0.000000 0.000000
0.157757 0.000000 0.000000
0.196446 0.000000 0.000000
0.232657 0.000000 0.000000
0.266941 0.000000 0.000000
0.299690 0.000000 0.000000
0.331186 0.000000 0.000000
0.361639 0.000000 0.000000
0.391207 0.000000 0.000000
0.420010 0.000000 0.000000
0.448138 0.000000 0.000000
0.475664 0.000000 0.000000
0.502640 0.000000 0.000000
0.529106 0.000000 0.000000
0.555093 0.000000 0.000000
0.580623 0.000000 0.000000
0.605709 0.000000 0.000000
0.630361 0.000000 0.000000
0.654582 0.000000 0.000000
0.678371 0.000000 0.000000
0.701726 0.000000 0.000000
0.724638 0.000000 0.000000
0.747099 0.000000 0.000000
0.769097 0.000000 0.000000
0.790621 0.000000 0.000000
0.811656 0.000000 0.000000
0.830952 0.000000 0.000000
0.849013 0.000000 0.000000
0.866445 0.000000 0.022206
0.883296 0.000000 0.045486
0.899594 0.000000 0.068619
0.915334 0.000000 0.091492
0.930501 0.000000 0.114111
0.945078 0.000000 0.136515
0.959048 0.000000 0.158751
0.972396 0.000000 0.180859
0.985110 0.000000 0.202874
0.997178 0.000000 0.224826
1.000000 0.000000 0.246736
1.000000 0.000000 0.268622
1.000000 0.000000 0.290495
1.000000 0.000000 0.312361
1.000000 0.000000 0.334225
1.000000 0.000000 0.356084
1.000000 0.000000 0.377936
1.000000 0.000000 0.399773
1.000000 0.000000 0.421586
1.000000 0.000000 0.443363
1.000000 0.000000 0.465089
1.000000 0.000000 0.486748
1.000000 0.000000 0.508322
1.000000 0.000000 0.529791
1.000000 0.000000 0.551132
1.000000 0.000000 0.572324
1.000000 0.000000 0.593341
1.000000 0.000000 0.614159
1.000000 0.000000 0.634750
1.000000 0.000000 0.655087
0.000000 0.000000 0.000000
0.000000 0.000000 0.000000
0.000000 0.000000 0.000000
0.000000 0.000000 0.000000
0.000000 0.000000 0.000000
0.000000 0.000000 0.000000
0.055314 0.000000 0.000000
0.103879 0.000000 0.000000
0.147858 0.000000 0.000000
0.188108 0.000000 0.000000
0.225536 0.000000 0.000000
0.260795 0.000000 0.000000
0.294341 0.000000 0.000000
0.326501 0.000000 0.000000
0.357516 0.000000 0.000000
0.387564 0.000000 0.000000
0.416781 0.000000 0.000000
0.445270 0.000000 0.000000
0.473111 0.000000 0.000000
0.500365 0.000000 0.000000
0.527077 0.000000 0.000000
0.553282 0.000000 0.000000
0.579005 0.000000 0.000000
0.604264 0.000000 0.000000
0.629070 0.000000 0.000000
0.653429 0.000000 0.000000
0.677342 0.000000 0.000000
0.700807 0.000000 0.000000
0.723819 0.000000 0.000000
0.746369 0.000000 0.000000
0.768448 0.000000 0.000000
0.790044 0.000000 0.000000
0.811143 0.000000 0.000000
0.830597 0.000000 0.000000
0.848685 0.000000 0.000000
0.866160 0.000000 0.021402
0.883046 0.000000 0.044755
0.899375 0.000000 0.067962
0.915143 0.000000 0.090901
0.930334 0.000000 0.113579
0.944933 0.000000 0.136037
0.958922 0.000000 0.158319
0.972288 0.000000 0.180468
0.985017 0.000000 0.202520
0.997099 0.000000 0.224505
1.000000 0.000000 0.246445
1.000000 0.000000 0.268358
1.000000 0.000000 0.290255
1.000000 0.000000 0.312143
1.000000 0.000000 0.334027
1.000000 0.000000 0.355904
1.000000 0.000000 0.377773
1.000000 0.000000 0.399625
1.000000 0.000000 0.421452
1.000000 0.000000 0.443241
1.000000 0.000000 0.464978
1.000000 0.000000 0.486648
1.000000 0.000000 0.508231
1.000000 0.000000 0.529709
1.000000 0.000000 0.551058
1.000000 0.000000 0.572257
1.000000 0.000000 0.593281
1.000000 0.000000 0.614105
1.000000 0.000000 0.634701
1.000000 0.000000 0.655044
0.000000 0.000000 0.000000
0.000000 0.000000 0.000000
0.000000 0.000000 0.000000
0.000000 0.000000 0.000000
0.000000 0.000000 0.000000
0.000000 0.000000 0.000000
0.040293 0.000000 0.000000
0.091292 0.000000 0.000000
0.137511 0.000000 0.000000
0.179458 0.000000 0.000000
0.218193 0.000000 0.000000
0.254485 0.000000 0.000000
0.288870 0.000000 0.000000
0.321723 0.000000 0.000000
0.353321 0.000000 0.000000
0.383865 0.000000 0.000000
0.413509 0.000000 0.000000
0.442368 0.000000 0.000000
0.470531 0.000000 0.000000
0.498068 0.000000 0.000000
0.525030 0.000000 0.000000
0.551456 0.000000 0.000000
0.577376 0.000000 0.000000
0.602810 0.000000 0.000000
0.627772 0.000000 0.000000
0.652270 0.000000 0.000000
0.676308 0.000000 0.000000
0.699885 0.000000 0.000000
0.722997 0.000000 0.000000
0.745637 0.000000 0.000000
0.767797 0.000000 0.000000
0.789465 0.000000 0.000000
0.810630 0.000000 0.000000
0.830254 0.000000 0.000000
0.848356 0.000000 0.000000
0.865874 0.000000 0.020596
0.882795 0.000000 0.044022
0.899155 0.000000 0.067302
0.914951 0.000000 0.090309
0.930167 0.000000 0.113047
0.944788 0.000000 0.135557
0.958796 0.000000 0.157886
0.972179 0.000000 0.180076
0.984923 0.000000 0.202166
0.997019 0.000000 0.224184
1.000000 0.000000 0.246154
1.000000 0.000000 0.268093
1.000000 0.000000 0.290014
1.000000 0.000000 0.311925
1.000000 0.000000 0.333828
1.000000 0.000000 0.355724
1.000000 0.000000 0.377609
1.000000 0.000000 0.399476
1.000000 0.000000 0.421317
1.000000 0.000000 0.443119
1.000000 0.000000 0.464868
1.000000 0.000000 0.486548
1.000000 0.000000 0.508140
1.000000 0.000000 0.529626
1.000000 0.000000 0.550984
1.000000 0.000000 0.572190
1.000000 0.000000 0.593221
1.000000 0.000000 0.614051
1.000000 0.000000 0.634653
1.000000 0.000000 0.655000
0.000000 0.000000 0.000000
0.000000 0.000000 0.000000
0.000000 0.000000 0.000000
0.000000 0.000000 0.000000
0.000000 0.000000 0.000000
0.000000 0.000000 0.000000
0.025083 0.000000 0.000000
0.078010 0.000000 0.000000
0.126673 0.000000 0.000000
0.170471 0.000000 0.000000
0.210611 0.000000 0.000000
0.248003 0.000000 0.000000
0.283270 0.000000 0.000000
0.316849 0.000000 0.000000
0.349052 0.000000 0.000000
0.380108 0.000000 0.000000
0.410191 0.000000 0.000000
0.439429 0.000000 0.000000
0.467923 0.000000 0.000000
0.495748 0.000000 0.000000
0.522964 0.000000 0.000000
0.549615 0.000000 0.000000
0.575734 0.000000 0.000000
0.601345 0.000000 0.000000
0.626466 0.000000 0.000000
0.651105 0.000000 0.000000
0.675269 0.000000 0.000000
0.698959 0.000000 0.000000
0.722172 0.000000 0.000000
0.744903 0.000000 0.000000
0.767144 0.000000 0.000000
0.788885 0.000000 0.000000
0.810114 0.000000 0.000000
0.829926 0.000000 0.000000
0.848026 0.000000 0.000000
0.865588 0.000000 0.019787
0.882545 0.000000 0.043286
0.898936 0.000000 0.066640
0.914758 0.000000 0.089715
0.929999 0.000000 0.112513
0.944642 0.000000 0.135076
0.958670 0.000000 0.157452
0.972070 0.000000 0.179684
0.984830 0.000000 0.201811
0.996939 0.000000 0.223862
1.000000 0.000000 0.245862
1.000000 0.000000 0.267828
1.000000 0.000000 0.289774
1.000000 0.000000 0.311707
1.000000 0.000000 0.333630
1.000000 0.000000 0.355544
1.000000 0.000000 0.377445
1.000000 0.000000 0.399328
1.000000 0.000000 0.421182
1.000000 0.000000 0.442996
1.000000 0.000000 0.464757
1.000000 0.000000 0.486447
1.000000 0.000000 0.508050
1.000000 0.000000 0.529544
1.000000 0.000000 0.550910
1.000000 0.000000 0.572123
1.000000 0.000000 0.593161
1.000000 0.000000 0.613996
1.000000 0.000000 0.634604
1.000000 0.000000 0.654956
0.000000 0.000000 0.000000
0.000000 0.000000 0.000000
0.000000 0.000000 0.000000
0.000000 0.000000 0.000000
0.000000 0.000000 0.000000
0.000000 0.000000 0.000000
0.002117 0.000000 0.000000
0.063961 0.000000 0.000000
0.115263 0.000000 0.000000
0.161091 0.000000 0.000000
0.202753 0.000000 0.000000
0.241319 0.000000 0.000000
0.277520 0.000000 0.000000
0.311859 0.000000 0.000000
0.344693 0.000000 0.000000
0.376282 0.000000 0.000000
0.406817 0.000000 0.000000
0.436445 0.000000 0.000000
0.465278 0.000000 0.000000
0.493399 0.000000 0.000000
0.520874 0.000000 0.000000
0.547754 0.000000 0.000000
0.574076 0.000000 0.000000
0.599867 0.000000 0.000000
0.625148 0.000000 0.000000
0.649930 0.000000 0.000000
0.674222 0.000000 0.000000
0.698025 0.000000 0.000000
0.721341 0.000000 0.000000
0.744163 0.000000 0.000000
0.766486 0.000000 0.000000
0.788300 0.000000 0.000000
0.809596 0.000000 0.000000
0.829621 0.000000 0.000000
0.847694 0.000000 0.000000
0.865300 0.000000 0.018974
0.882293 0.000000 0.042546
0.898715 0.000000 0.065975
0.914565 0.000000 0.089118
0.929831 0.000000 0.111976
0.944496 0.000000 0.134593
0.958544 0.000000 0.157016
0.971961 0.000000 0.179290
0.984736 0.000000 0.201454
0.996859 0.000000 0.223539
1.000000 0.000000 0.245569
1.000000 0.000000 0.267562
1.000000 0.000000 0.289532
1.000000 0.000000 0.311487
1.000000 0.000000 0.333431
1.000000 0.000000 0.355363
1.000000 0.000000 0.377281
1.000000 0.000000 0.399179
1.000000 0.000000 0.421047
1.000000 0.000000 0.442874
1.000000 0.000000 0.464645
1.000000 0.000000 0.486346
1.000000 0.000000 0.507959
1.000000 0.000000 0.529462
1.000000 0.000000 0.550836
1.000000 0.000000 0.572056
1.000000 0.000000 0.593100
1.000000 0.000000 0.613942
1.000000 0.000000 0.634555
1.000000 0.000000 0.654912
0.000000 0.043622 0.000000
0.000000 0.042196 0.000000
0.000000 0.040767 0.000000
0.000000 0.039336 0.000000
0.000000 0.037902 0.000000
0.000000 0.036467 0.000000
0.000000 0.035027 0.000000
0.045312 0.031357 0.000000
0.099684 0.027266 0.000000
0.148061 0.023273 0.000000
0.191664 0.019308 0.000000
0.231767 0.015298 0.000000
0.269237 0.011179 0.000000
0.304664 0.006877 0.000000
0.338469 0.002246 0.000000
0.370989 0.000000 0.000000
0.402642 0.000000 0.000000
0.433210 0.000000 0.000000
0.462413 0.000000 0.000000
0.490858 0.000000 0.000000
0.518617 0.000000 0.000000
0.545746 0.000000 0.000000
0.572288 0.000000 0.000000
0.598274 0.000000 0.000000
0.623728 0.000000 0.000000
0.648665 0.000000 0.000000
0.673095 0.000000 0.000000
0.697022 0.000000 0.000000
0.720447 0.000000 0.000000
0.743368 0.000000 0.000000
0.765779 0.000000 0.000000
0.787673 0.000000 0.000000
0.809040 0.000000 0.000000
0.829337 0.000000 0.000000
0.847338 0.000000 0.000000
0.864991 0.000000 0.018102
0.882022 0.000000 0.041751
0.898478 0.000000 0.065260
0.914358 0.000000 0.088476
0.929651 0.000000 0.111400
0.944339 0.000000 0.134074
0.958408 0.000000 0.156548
0.971844 0.000000 0.178868
0.984636 0.000000 0.201072
0.996773 0.000000 0.223193
1.000000 0.000000 0.245255
1.000000 0.000000 0.267277
1.000000 0.000000 0.289274
1.000000 0.000000 0.311252
1.000000 0.000000 0.333217
1.000000 0.000000 0.355169
1.000000 0.000000 0.377105
1.000000 0.000000 0.399019
1.000000 0.000000 0.420902
1.000000 0.000000 0.442742
1.000000 0.000000 0.464526
1.000000 0.000000 0.486239
1.000000 0.000000 0.507861
1.000000 0.000000 0.529374
1.000000 0.000000 0.550756
1.000000 0.000000 0.571984
1.000000 0.000000 0.593035
1.000000 0.000000 0.613884
1.000000 0.000000 0.634503
1.000000 0.000000 0.654865
0.000000 0.081281 0.000000
0.000000 0.080024 0.000000
0.000000 0.078761 0.000000
0.000000 0.077491 0.000000
0.000000 0.076214 0.000000
0.000000 0.074931 0.000000
0.000000 0.073637 0.000000
0.024091 0.070908 0.000000
0.081345 0.066843 0.000000
0.132622 0.062879 0.000000
0.178345 0.058977 0.000000
0.220034 0.055050 0.000000
0.258731 0.051029 0.000000
0.295135 0.046856 0.000000
0.329726 0.042481 0.000000
0.362849 0.037856 0.000000
0.394754 0.032934 0.000000
0.425631 0.027670 0.000000
0.455622 0.022016 0.000000
0.484840 0.015933 0.000000
0.513368 0.009386 0.000000
0.541272 0.002352 0.000000
0.568608 0.000000 0.000000
0.595542 0.000000 0.000000
0.622156 0.000000 0.000000
0.647265 0.000000 0.000000
0.671848 0.000000 0.000000
0.695912 0.000000 0.000000
0.719460 0.000000 0.000000
0.742490 0.000000 0.000000
0.764999 0.000000 0.000000
0.786981 0.000000 0.000000
0.808426 0.000000 0.000000
0.829108 0.000000 0.000000
0.846945 0.000000 0.000000
0.864651 0.000000 0.017139
0.881725 0.000000 0.040874
0.898217 0.000000 0.064472
0.914130 0.000000 0.087769
0.929452 0.000000 0.110765
0.944166 0.000000 0.133503
0.958259 0.000000 0.156033
0.971716 0.000000 0.178402
0.984525 0.000000 0.200651
0.996679 0.000000 0.222811
1.000000 0.000000 0.244909
1.000000 0.000000 0.266964
1.000000 0.000000 0.288989
1.000000 0.000000 0.310994
1.000000 0.000000 0.332982
1.000000 0.000000 0.354956
1.000000 0.000000 0.376911
1.000000 0.000000 0.398843
1.000000 0.000000 0.420742
1.000000 0.000000 0.442597
1.000000 0.000000 0.464395
1.000000 0.000000 0.486120
1.000000 0.000000 0.507754
1.000000 0.000000 0.529277
1.000000 0.000000 0.550668
1.000000 0.000000 0.571905
1.000000 0.000000 0.592964
1.000000 0.000000 0.613820
1.000000 0.000000 0.634445
1.000000 0.000000 0.654814
0.000000 0.116942 0.000000
0.000000 0.115869 0.000000
0.000000 0.114791 0.000000
0.000000 0.113708 0.000000
0.000000 0.112620 0.000000
0.000000 0.111526 0.000000
0.000000 0.110423 0.000000
0.000000 0.109026 0.000000
0.060511 0.104845 0.000000
0.115324 0.100976 0.000000
0.163634 0.097240 0.000000
0.207218 0.093539 0.000000
0.247353 0.089796 0.000000
0.284884 0.085953 0.000000
0.320378 0.081956 0.000000
0.354236 0.077759 0.000000
0.386749 0.073314 0.000000
0.418132 0.068572 0.000000
0.448549 0.063481 0.000000
0.478125 0.057983 0.000000
0.506961 0.052012 0.000000
0.535133 0.045497 0.000000
0.562703 0.038354 0.000000
0.589720 0.030494 0.000000
0.616224 0.021824 0.000000
0.642243 0.012264 0.000000
0.667795 0.001789 0.000000
0.692889 0.000000 0.000000
0.718080 0.000000 0.000000
0.741520 0.000000 0.000000
0.764138 0.000000 0.000000
0.786216 0.000000 0.000000
0.807748 0.000000 0.000000
0.828724 0.000000 0.000000
0.846511 0.000000 0.000000
0.864275 0.000000 0.016077
0.881396 0.000000 0.039905
0.897930 0.000000 0.063601
0.913879 0.000000 0.086988
0.929233 0.000000 0.110064
0.943976 0.000000 0.132873
0.958094 0.000000 0.155465
0.971574 0.000000 0.177889
0.984404 0.000000 0.200187
0.996575 0.000000 0.222391
1.000000 0.000000 0.244528
1.000000 0.000000 0.266618
1.000000 0.000000 0.288675
1.000000 0.000000 0.310709
1.000000 0.000000 0.332724
1.000000 0.000000 0.354721
1.000000 0.000000 0.376698
1.000000 0.000000 0.398649
1.000000 0.000000 0.420567
1.000000 0.000000 0.442438
1.000000 0.000000 0.464251
1.000000 0.000000 0.485989
1.000000 0.000000 0.507635
1.000000 0.000000 0.529170
1.000000 0.000000 0.550572
1.000000 0.000000 0.571818
1.000000 0.000000 0.592886
1.000000 0.000000 0.613749
1.000000 0.000000 0.634382
1.000000 0.000000 0.654757
0.000000 0.150493 0.000000
0.000000 0.149573 0.000000
0.000000 0.148648 0.000000
0.000000 0.147720 0.000000
0.000000 0.146788 0.000000
0.000000 0.145851 0.000000
0.000000 0.144908 0.000000
0.000000 0.143895 0.000000
0.036742 0.140614 0.000000
0.095748 0.136772 0.000000
0.147284 0.133129 0.000000
0.193184 0.129589 0.000000
0.235051 0.126065 0.000000
0.273919 0.122491 0.000000
0.310476 0.118815 0.000000
0.345196 0.114993 0.000000
0.378416 0.110981 0.000000
0.410386 0.106735 0.000000
0.441291 0.102212 0.000000
0.471276 0.097360 0.000000
0.500451 0.092126 0.000000
0.528903 0.086447 0.000000
0.556701 0.080252 0.000000
0.583900 0.073455 0.000000
0.610544 0.065959 0.000000
0.636670 0.057646 0.000000
0.662309 0.048375 0.000000
0.687487 0.037984 0.000000
0.712227 0.026288 0.000000
0.736547 0.013116 0.000000
0.760450 0.000000 0.000000
0.783936 0.000000 0.000000
0.806999 0.000000 0.000000
0.828061 0.000000 0.000000
0.846031 0.000000 0.000000
0.863861 0.000000 0.014905
0.881034 0.000000 0.038835
0.897613 0.000000 0.062640
0.913602 0.000000 0.086127
0.928992 0.000000 0.109291
0.943767 0.000000 0.132177
0.957913 0.000000 0.154838
0.971418 0.000000 0.177324
0.984270 0.000000 0.199675
0.996460 0.000000 0.221928
1.000000 0.000000 0.244108
1.000000 0.000000 0.266237
1.000000 0.000000 0.288330
1.000000 0.000000 0.310395
1.000000 0.000000 0.332439
1.000000 0.000000 0.354462
1.000000 0.000000 0.376463
1.000000 0.000000 0.398436
1.000000 0.000000 0.420373
1.000000 0.000000 0.442263
1.000000 0.000000 0.464092
1.000000 0.000000 0.485846
1.000000 0.000000 0.507505
1.000000 0.000000 0.529052
1.000000 0.000000 0.550466
1.000000 0.000000 0.571723
1.000000 0.000000 0.592800
1.000000 0.000000 0.613671
1.000000 0.000000 0.634312
1.000000 0.000000 0.654694
0.000000 0.182310 0.000000
0.000000 0.181513 0.000000
0.000000 0.180713 0.000000
0.000000 0.179910 0.000000
0.000000 0.179104 0.000000
0.000000 0.178296 0.000000
0.000000 0.177482 0.000000
0.000000 0.176607 0.000000
0.010115 0.174534 0.000000
0.073208 0.170682 0.000000
0.128819 0.167050 0.000000
0.177601 0.163595 0.000000
0.221574 0.160213 0.000000
0.262047 0.156832 0.000000
0.299866 0.153396 0.000000
0.335601 0.149860 0.000000
0.369652 0.146183 0.000000
0.402310 0.142325 0.000000
0.433790 0.138248 0.000000
0.464258 0.133909 0.000000
0.493838 0.129263 0.000000
0.522628 0.124259 0.000000
0.550707 0.118840 0.000000
0.578134 0.112938 0.000000
0.604960 0.106477 0.000000
0.631222 0.099363 0.000000
0.656953 0.091487 0.000000
0.682182 0.082713 0.000000
0.706931 0.072877 0.000000
0.731224 0.061774 0.000000
0.755084 0.049150 0.000000
0.778535 0.034697 0.000000
0.801603 0.018075 0.000000
0.824296 0.000000 0.000000
0.844213 0.000000 0.000000
0.863404 0.000000 0.013611
0.880635 0.000000 0.037653
0.897264 0.000000 0.061577
0.913297 0.000000 0.085175
0.928726 0.000000 0.108437
0.943536 0.000000 0.131410
0.957713 0.000000 0.154147
0.971245 0.000000 0.176700
0.984122 0.000000 0.199111
0.996334 0.000000 0.221417
1.000000 0.000000 0.243646
1.000000 0.000000 0.265818
1.000000 0.000000 0.287949
1.000000 0.000000 0.310049
1.000000 0.000000 0.332125
1.000000 0.000000 0.354178
1.000000 0.000000 0.376205
1.000000 0.000000 0.398202
1.000000 0.000000 0.420161
1.000000 0.000000 0.442070
1.000000 0.000000 0.463918
1.000000 0.000000 0.485687
1.000000 0.000000 0.507362
1.000000 0.000000 0.528923
1.000000 0.000000 0.550349
1.000000 0.000000 0.571617
1.000000 0.000000 0.592705
1.000000 0.000000 0.613586
1.000000 0.000000 0.634235
1.000000 0.000000 0.654625
0.000000 0.212740 0.000000
0.000000 0.212044 0.000000
0.000000 0.211346 0.000000
0.000000 0.210646 0.000000
0.000000 0.209944 0.000000
0.000000 0.209239 0.000000
0.000000 0.208531 0.000000
0.000000 0.207770 0.000000
0.000000 0.206930 0.000000
0.046832 0.203158 0.000000
0.107600 0.199452 0.000000
0.160030 0.196008 0.000000
0.206606 0.192702 0.000000
0.249024 0.189449 0.000000
0.288350 0.186184 0.000000
0.325285 0.182861 0.000000
0.360313 0.179438 0.000000
0.393777 0.175879 0.000000
0.425931 0.172148 0.000000
0.456964 0.168208 0.000000
0.487022 0.164020 0.000000
0.516216 0.159541 0.000000
0.544634 0.154726 0.000000
0.572346 0.149519 0.000000
0.599405 0.143859 0.000000
0.625855 0.137675 0.000000
0.651730 0.130880 0.000000
0.677061 0.123374 0.000000
0.701870 0.115031 0.000000
0.726178 0.105702 0.000000
0.750006 0.095195 0.000000
0.773374 0.083271 0.000000
0.796306 0.069622 0.000000
0.818831 0.053846 0.000000
0.838714 0.033159 0.000000
0.858464 0.009446 0.007746
0.877812 0.000000 0.033963
0.896879 0.000000 0.060403
0.912961 0.000000 0.084123
0.928433 0.000000 0.107494
0.943281 0.000000 0.130563
0.957493 0.000000 0.153385
0.971056 0.000000 0.176012
0.983959 0.000000 0.198490
0.996195 0.000000 0.220855
1.000000 0.000000 0.243136
1.000000 0.000000 0.265356
1.000000 0.000000 0.287530
1.000000 0.000000 0.309669
1.000000 0.000000 0.331780
1.000000 0.000000 0.353864
1.000000 0.000000 0.375920
1.000000 0.000000 0.397944
1.000000 0.000000 0.419926
1.000000 0.000000 0.441858
1.000000 0.000000 0.463725
1.000000 0.000000 0.485513
1.000000 0.000000 0.507205
1.000000 0.000000 0.528781
1.000000 0.000000 0.550220
1.000000 0.000000 0.571502
1.000000 0.000000 0.592600
1.000000 0.000000 0.613492
1.000000 0.000000 0.634151
1.000000 0.000000 0.654550
0.000000 0.242053 0.000000
0.000000 0.241442 0.000000
0.000000 0.240829 0.000000
0.000000 0.240215 0.000000
0.000000 0.239598 0.000000
0.000000 0.238981 0.000000
0.000000 0.238359 0.000000
0.000000 0.237693 0.000000
0.000000 0.236957 0.000000
0.015968 0.234551 0.000000
0.082749 0.230707 0.000000
0.139899 0.227196 0.000000
0.189750 0.223903 0.000000
0.234555 0.220719 0.000000
0.275699 0.217569 0.000000
0.314065 0.214400 0.000000
0.350245 0.211169 0.000000
0.384655 0.207840 0.000000
0.417595 0.204379 0.000000
0.449288 0.200752 0.000000
0.479903 0.196925 0.000000
0.509571 0.192861 0.000000
0.538391 0.188520 0.000000
0.566443 0.183858 0.000000
0.593788 0.178825 0.000000
0.620476 0.173363 0.000000
0.646546 0.167403 0.000000
0.672028 0.160868 0.000000
0.696948 0.153662 0.000000
0.721327 0.145672 0.000000
