post_production/PixelLog_to_AgX_Rec709_33.cube
# PixelLog to AgX (Base) Rec.709 Display Transform 3D LUT
# Architecture: AgX Display Rendering Transform (Troy Sobotka / Blender 4.0+)
# Target Device: Google Pixel 11 Pro Primary Sensor (Tensor G6)
# Transform: Pixel-Log BT.2020 -> Scene-Linear -> BT.2020 to Rec.709 -> AgX Inset -> Log2 EV -> Sigmoid -> Outset
LUT_3D_SIZE 33
DOMAIN_MIN 0.0 0.0 0.0
DOMAIN_MAX 1.0 1.0 1.0
0.000000 0.000000 0.000000
0.000000 0.000000 0.000000
0.000000 0.000000 0.000000
0.096457 0.000000 0.000000
0.176357 0.000000 0.000000
0.246283 0.000000 0.000000
0.310042 0.000000 0.000000
0.369679 0.000000 0.000000
0.426339 0.000000 0.000000
0.480687 0.000000 0.000000
0.533112 0.000000 0.000000
0.583824 0.000000 0.000000
0.632920 0.000000 0.000000
0.680414 0.000000 0.000000
0.726265 0.000000 0.000000
0.770388 0.000000 0.000000
0.812676 0.000000 0.000000
0.849666 0.000000 0.001005
0.883794 0.000000 0.046941
0.915716 0.000000 0.092668
0.945368 0.000000 0.137470
0.972613 0.000000 0.181638
0.997337 0.000000 0.225466
1.000000 0.000000 0.269150
1.000000 0.000000 0.312797
1.000000 0.000000 0.356444
1.000000 0.000000 0.400070
1.000000 0.000000 0.443607
1.000000 0.000000 0.486949
1.000000 0.000000 0.529955
1.000000 0.000000 0.572458
1.000000 0.000000 0.614267
1.000000 0.000000 0.655175
0.000000 0.000000 0.000000
0.000000 0.000000 0.000000
0.000000 0.000000 0.000000
0.069746 0.000000 0.000000
0.157757 0.000000 0.000000
0.232657 0.000000 0.000000
0.299690 0.000000 0.000000
0.361639 0.000000 0.000000
0.420010 0.000000 0.000000
0.475664 0.000000 0.000000
0.529106 0.000000 0.000000
0.580623 0.000000 0.000000
0.630361 0.000000 0.000000
0.678371 0.000000 0.000000
0.724638 0.000000 0.000000
0.769097 0.000000 0.000000
0.811656 0.000000 0.000000
0.849013 0.000000 0.000000
0.883296 0.000000 0.045486
0.915334 0.000000 0.091492
0.945078 0.000000 0.136515
0.972396 0.000000 0.180859
0.997178 0.000000 0.224826
1.000000 0.000000 0.268622
1.000000 0.000000 0.312361
1.000000 0.000000 0.356084
1.000000 0.000000 0.399773
1.000000 0.000000 0.443363
1.000000 0.000000 0.486748
1.000000 0.000000 0.529791
1.000000 0.000000 0.572324
1.000000 0.000000 0.614159
1.000000 0.000000 0.655087
0.000000 0.000000 0.000000
0.000000 0.000000 0.000000
0.000000 0.000000 0.000000
0.040293 0.000000 0.000000
0.137511 0.000000 0.000000
0.218193 0.000000 0.000000
0.288870 0.000000 0.000000
0.353321 0.000000 0.000000
0.413509 0.000000 0.000000
0.470531 0.000000 0.000000
0.525030 0.000000 0.000000
0.577376 0.000000 0.000000
0.627772 0.000000 0.000000
0.676308 0.000000 0.000000
0.722997 0.000000 0.000000
0.767797 0.000000 0.000000
0.810630 0.000000 0.000000
0.848356 0.000000 0.000000
0.882795 0.000000 0.044022
0.914951 0.000000 0.090309
0.944788 0.000000 0.135557
0.972179 0.000000 0.180076
0.997019 0.000000 0.224184
1.000000 0.000000 0.268093
1.000000 0.000000 0.311925
1.000000 0.000000 0.355724
1.000000 0.000000 0.399476
1.000000 0.000000 0.443119
1.000000 0.000000 0.486548
1.000000 0.000000 0.529626
1.000000 0.000000 0.572190
1.000000 0.000000 0.614051
1.000000 0.000000 0.655000
0.000000 0.000000 0.000000
0.000000 0.000000 0.000000
0.000000 0.000000 0.000000
0.002117 0.000000 0.000000
0.115263 0.000000 0.000000
0.202753 0.000000 0.000000
0.277520 0.000000 0.000000
0.344693 0.000000 0.000000
0.406817 0.000000 0.000000
0.465278 0.000000 0.000000
0.520874 0.000000 0.000000
0.574076 0.000000 0.000000
0.625148 0.000000 0.000000
0.674222 0.000000 0.000000
0.721341 0.000000 0.000000
0.766486 0.000000 0.000000
0.809596 0.000000 0.000000
0.847694 0.000000 0.000000
0.882293 0.000000 0.042546
0.914565 0.000000 0.089118
0.944496 0.000000 0.134593
0.971961 0.000000 0.179290
0.996859 0.000000 0.223539
1.000000 0.000000 0.267562
1.000000 0.000000 0.311487
1.000000 0.000000 0.355363
1.000000 0.000000 0.399179
1.000000 0.000000 0.442874
1.000000 0.000000 0.486346
1.000000 0.000000 0.529462
1.000000 0.000000 0.572056
1.000000 0.000000 0.613942
1.000000 0.000000 0.654912
0.000000 0.081281 0.000000
0.000000 0.078761 0.000000
0.000000 0.076214 0.000000
0.000000 0.073637 0.000000
0.081345 0.066843 0.000000
0.178345 0.058977 0.000000
0.258731 0.051029 0.000000
0.329726 0.042481 0.000000
0.394754 0.032934 0.000000
0.455622 0.022016 0.000000
0.513368 0.009386 0.000000
0.568608 0.000000 0.000000
0.622156 0.000000 0.000000
0.671848 0.000000 0.000000
0.719460 0.000000 0.000000
0.764999 0.000000 0.000000
0.808426 0.000000 0.000000
0.846945 0.000000 0.000000
0.881725 0.000000 0.040874
0.914130 0.000000 0.087769
0.944166 0.000000 0.133503
0.971716 0.000000 0.178402
0.996679 0.000000 0.222811
1.000000 0.000000 0.266964
1.000000 0.000000 0.310994
1.000000 0.000000 0.354956
1.000000 0.000000 0.398843
1.000000 0.000000 0.442597
1.000000 0.000000 0.486120
1.000000 0.000000 0.529277
1.000000 0.000000 0.571905
1.000000 0.000000 0.613820
1.000000 0.000000 0.654814
0.000000 0.150493 0.000000
0.000000 0.148648 0.000000
0.000000 0.146788 0.000000
0.000000 0.144908 0.000000
0.036742 0.140614 0.000000
0.147284 0.133129 0.000000
0.235051 0.126065 0.000000
0.310476 0.118815 0.000000
0.378416 0.110981 0.000000
0.441291 0.102212 0.000000
0.500451 0.092126 0.000000
0.556701 0.080252 0.000000
0.610544 0.065959 0.000000
0.662309 0.048375 0.000000
0.712227 0.026288 0.000000
0.760450 0.000000 0.000000
0.806999 0.000000 0.000000
0.846031 0.000000 0.000000
0.881034 0.000000 0.038835
0.913602 0.000000 0.086127
0.943767 0.000000 0.132177
0.971418 0.000000 0.177324
0.996460 0.000000 0.221928
1.000000 0.000000 0.266237
1.000000 0.000000 0.310395
1.000000 0.000000 0.354462
1.000000 0.000000 0.398436
1.000000 0.000000 0.442263
1.000000 0.000000 0.485846
1.000000 0.000000 0.529052
1.000000 0.000000 0.571723
1.000000 0.000000 0.613671
1.000000 0.000000 0.654694
0.000000 0.212740 0.000000
0.000000 0.211346 0.000000
0.000000 0.209944 0.000000
0.000000 0.208531 0.000000
0.000000 0.206930 0.000000
0.107600 0.199452 0.000000
0.206606 0.192702 0.000000
0.288350 0.186184 0.000000
0.360313 0.179438 0.000000
0.425931 0.172148 0.000000
0.487022 0.164020 0.000000
0.544634 0.154726 0.000000
0.599405 0.143859 0.000000
0.651730 0.130880 0.000000
0.701870 0.115031 0.000000
0.750006 0.095195 0.000000
0.796306 0.069622 0.000000
0.838714 0.033159 0.000000
0.877812 0.000000 0.033963
0.912961 0.000000 0.084123
0.943281 0.000000 0.130563
0.971056 0.000000 0.176012
0.996195 0.000000 0.220855
1.000000 0.000000 0.265356
1.000000 0.000000 0.309669
1.000000 0.000000 0.353864
1.000000 0.000000 0.397944
1.000000 0.000000 0.441858
1.000000 0.000000 0.485513
1.000000 0.000000 0.528781
1.000000 0.000000 0.571502
1.000000 0.000000 0.613492
1.000000 0.000000 0.654550
0.000000 0.270456 0.000000
0.000000 0.269375 0.000000
0.000000 0.268289 0.000000
0.000000 0.267197 0.000000
0.000000 0.265961 0.000000
0.053052 0.261118 0.000000
0.170489 0.254103 0.000000
0.261641 0.247848 0.000000
0.339274 0.241694 0.000000
0.408657 0.235290 0.000000
0.472384 0.228371 0.000000
0.531893 0.220678 0.000000
0.588031 0.211918 0.000000
0.641316 0.201729 0.000000
0.692074 0.189633 0.000000
0.740510 0.174969 0.000000
0.786769 0.156778 0.000000
0.829003 0.131614 0.000000
0.867081 0.096731 0.021205
0.903567 0.049909 0.073059
0.939301 0.000000 0.125203
0.970616 0.000000 0.174415
0.995873 0.000000 0.219550
1.000000 0.000000 0.264285
1.000000 0.000000 0.308788
1.000000 0.000000 0.353138
1.000000 0.000000 0.397346
1.000000 0.000000 0.441367
1.000000 0.000000 0.485111
1.000000 0.000000 0.528452
1.000000 0.000000 0.571234
1.000000 0.000000 0.613275
1.000000 0.000000 0.654375
0.000000 0.325116 0.000000
0.000000 0.324263 0.000000
0.000000 0.323408 0.000000
0.000000 0.322548 0.000000
0.000000 0.321576 0.000000
0.000000 0.320396 0.000000
0.121618 0.312385 0.000000
0.227851 0.305948 0.000000
0.313778 0.300026 0.000000
0.388413 0.294131 0.000000
0.455730 0.287976 0.000000
0.517800 0.281327 0.000000
0.575805 0.273949 0.000000
0.630455 0.265573 0.000000
0.682188 0.255865 0.000000
0.731276 0.244385 0.000000
0.777893 0.230534 0.000000
0.820549 0.211843 0.000000
0.858276 0.185942 0.009910
0.893840 0.153360 0.061282
0.927731 0.110620 0.111943
0.960517 0.050121 0.162900
0.993542 0.000000 0.216022
1.000000 0.000000 0.262983
1.000000 0.000000 0.307717
1.000000 0.000000 0.352257
1.000000 0.000000 0.396622
1.000000 0.000000 0.440772
1.000000 0.000000 0.484623
1.000000 0.000000 0.528053
1.000000 0.000000 0.570909
1.000000 0.000000 0.613012
1.000000 0.000000 0.654163
0.000000 0.377577 0.000000
0.000000 0.376898 0.000000
0.000000 0.376216 0.000000
0.000000 0.375532 0.000000
0.000000 0.374759 0.000000
0.000000 0.373821 0.000000
0.049157 0.369108 0.000000
0.182711 0.361825 0.000000
0.281593 0.355774 0.000000
0.363821 0.350090 0.000000
0.436113 0.344392 0.000000
0.501651 0.338431 0.000000
0.562160 0.331995 0.000000
0.618651 0.324865 0.000000
0.671739 0.316788 0.000000
0.721806 0.307448 0.000000
0.769090 0.296433 0.000000
0.812652 0.282090 0.000000
0.850373 0.261397 0.000000
0.885643 0.236453 0.050558
0.918801 0.205590 0.100940
0.950064 0.165559 0.150718
0.979908 0.110015 0.200924
1.000000 0.023510 0.253218
1.000000 0.000000 0.306416
1.000000 0.000000 0.351187
1.000000 0.000000 0.395742
1.000000 0.000000 0.440049
1.000000 0.000000 0.484031
1.000000 0.000000 0.527570
1.000000 0.000000 0.570516
1.000000 0.000000 0.612694
1.000000 0.000000 0.653906
0.000000 0.428345 0.000000
0.000000 0.427800 0.000000
0.000000 0.427254 0.000000
0.000000 0.426705 0.000000
0.000000 0.426087 0.000000
0.000000 0.425336 0.000000
0.000000 0.424425 0.000000
0.117441 0.416536 0.000000
0.238950 0.409825 0.000000
0.332822 0.404044 0.000000
0.412247 0.398544 0.000000
0.482567 0.393007 0.000000
0.546455 0.387209 0.000000
0.605407 0.380955 0.000000
0.660312 0.374036 0.000000
0.711720 0.366210 0.000000
0.759977 0.357176 0.000000
0.805300 0.346540 0.000000
0.842825 0.328760 0.000000
0.878133 0.308552 0.039919
0.911049 0.284524 0.090637
0.941694 0.254915 0.140227
0.970266 0.216762 0.189495
0.997216 0.164502 0.239302
1.000000 0.085340 0.290975
1.000000 0.000000 0.348113
1.000000 0.000000 0.394674
1.000000 0.000000 0.439173
1.000000 0.000000 0.483314
1.000000 0.000000 0.526984
1.000000 0.000000 0.570040
1.000000 0.000000 0.612308
1.000000 0.000000 0.653596
0.000000 0.477711 0.000000
0.000000 0.477272 0.000000
0.000000 0.476832 0.000000
0.000000 0.476391 0.000000
0.000000 0.475894 0.000000
0.000000 0.475291 0.000000
0.000000 0.474559 0.000000
0.008730 0.471504 0.000000
0.178378 0.462932 0.000000
0.291959 0.456605 0.000000
0.382186 0.451027 0.000000
0.459326 0.445679 0.000000
0.527861 0.440283 0.000000
0.590124 0.434634 0.000000
0.647451 0.428547 0.000000
0.700652 0.421821 0.000000
0.750233 0.414223 0.000000
0.796517 0.405463 0.000000
0.835316 0.390764 0.000000
0.870903 0.373735 0.028797
0.903863 0.354121 0.080296
0.934297 0.330839 0.130223
0.962315 0.302196 0.179355
0.988142 0.265429 0.228373
1.000000 0.215472 0.277985
1.000000 0.141166 0.329291
1.000000 0.007198 0.385359
1.000000 0.000000 0.438108
1.000000 0.000000 0.482442
1.000000 0.000000 0.526274
1.000000 0.000000 0.569462
1.000000 0.000000 0.611841
1.000000 0.000000 0.653219
0.000000 0.525824 0.000000
0.000000 0.525470 0.000000
0.000000 0.525116 0.000000
0.000000 0.524761 0.000000
0.000000 0.524360 0.000000
0.000000 0.523875 0.000000
0.000000 0.523286 0.000000
0.000000 0.522572 0.000000
0.080780 0.516174 0.000000
0.234567 0.508328 0.000000
0.342684 0.502275 0.000000
0.430065 0.496861 0.000000
0.505200 0.491648 0.000000
0.572008 0.486386 0.000000
0.632591 0.480881 0.000000
0.688178 0.474957 0.000000
0.739525 0.468420 0.000000
0.787112 0.461043 0.000000
0.827611 0.448905 0.000000
0.863701 0.434101 0.016718
0.896920 0.417515 0.069432
0.927400 0.398439 0.120107
0.955221 0.375786 0.169572
0.980529 0.347936 0.218489
1.000000 0.312266 0.267409
1.000000 0.264037 0.316919
1.000000 0.193110 0.367966
1.000000 0.069597 0.423103
1.000000 0.000000 0.481384
1.000000 0.000000 0.525411
1.000000 0.000000 0.568761
1.000000 0.000000 0.611274
1.000000 0.000000 0.652763
0.000000 0.572741 0.000000
0.000000 0.572456 0.000000
0.000000 0.572170 0.000000
0.000000 0.571884 0.000000
0.000000 0.571562 0.000000
0.000000 0.571171 0.000000
0.000000 0.570697 0.000000
0.000000 0.570123 0.000000
0.000000 0.569427 0.000000
0.144572 0.560054 0.000000
0.287593 0.552710 0.000000
0.391683 0.546865 0.000000
0.476672 0.541595 0.000000
0.549920 0.536512 0.000000
0.614967 0.531383 0.000000
0.673760 0.526026 0.000000
0.727456 0.520269 0.000000
0.776778 0.513924 0.000000
0.819482 0.504061 0.000000
0.856330 0.490852 0.003185
0.890009 0.476398 0.057614
0.920737 0.460257 0.109451
0.948597 0.441667 0.159632
0.973709 0.419577 0.208882
0.996264 0.392424 0.257727
1.000000 0.357687 0.306611
1.000000 0.310848 0.356034
1.000000 0.242436 0.406829
1.000000 0.125917 0.461220
1.000000 0.000000 0.524363
1.000000 0.000000 0.567910
1.000000 0.000000 0.610586
1.000000 0.000000 0.652210
0.000000 0.618449 0.000000
0.000000 0.618219 0.000000
0.000000 0.617990 0.000000
0.000000 0.617760 0.000000
0.000000 0.617500 0.000000
0.000000 0.617186 0.000000
0.000000 0.616806 0.000000
0.000000 0.616344 0.000000
0.000000 0.615785 0.000000
0.000000 0.614443 0.000000
0.202681 0.603015 0.000000
0.338379 0.596022 0.000000
0.439283 0.590350 0.000000
0.522109 0.585214 0.000000
0.593471 0.580262 0.000000
0.656658 0.575273 0.000000
0.713510 0.570072 0.000000
0.765141 0.564492 0.000000
0.810673 0.556770 0.000000
0.848606 0.544721 0.000000
0.882956 0.531767 0.044367
0.914124 0.517715 0.097850
0.942216 0.501995 0.149142
0.967352 0.483867 0.199090
0.989703 0.462312 0.248271
1.000000 0.435813 0.297103
1.000000 0.401926 0.345947
1.000000 0.356289 0.395232
1.000000 0.289885 0.445710
1.000000 0.178310 0.499389
1.000000 0.000000 0.566876
1.000000 0.000000 0.609751
1.000000 0.000000 0.651538
0.000000 0.662886 0.000000
0.000000 0.662702 0.000000
0.000000 0.662517 0.000000
0.000000 0.662333 0.000000
0.000000 0.662125 0.000000
0.000000 0.661873 0.000000
0.000000 0.661568 0.000000
0.000000 0.661198 0.000000
0.000000 0.660750 0.000000
0.000000 0.660207 0.000000
0.037226 0.655422 0.000000
0.257093 0.644908 0.000000
0.387475 0.638177 0.000000
0.485663 0.632660 0.000000
0.566396 0.627658 0.000000
0.635795 0.622843 0.000000
0.696972 0.618005 0.000000
0.751705 0.612973 0.000000
0.801082 0.607584 0.000000
0.840328 0.596188 0.000000
0.875598 0.584247 0.029099
0.907408 0.571673 0.084855
0.935914 0.558010 0.137719
0.961258 0.542700 0.188745
0.983613 0.525030 0.238616
1.000000 0.504010 0.287792
1.000000 0.478162 0.336603
1.000000 0.445097 0.385346
1.000000 0.400574 0.434394
1.000000 0.335890 0.484437
1.000000 0.228054 0.537333
1.000000 0.000000 0.603353
1.000000 0.000000 0.650723
0.000000 0.705954 0.000000
0.000000 0.705807 0.000000
0.000000 0.705660 0.000000
0.000000 0.705512 0.000000
0.000000 0.705346 0.000000
0.000000 0.705144 0.000000
0.000000 0.704900 0.000000
0.000000 0.704605 0.000000
0.000000 0.704247 0.000000
0.000000 0.703814 0.000000
0.000000 0.703288 0.000000
0.104730 0.695379 0.000000
0.308964 0.685581 0.000000
0.435201 0.679064 0.000000
0.530899 0.673694 0.000000
0.609502 0.668832 0.000000
0.676795 0.664165 0.000000
0.735783 0.659490 0.000000
0.788202 0.654642 0.000000
0.831242 0.645574 0.000000
0.867753 0.634250 0.011001
0.900438 0.622672 0.069894
0.929555 0.610472 0.124927
0.955282 0.597192 0.177476
0.977815 0.582297 0.228409
0.997383 0.565101 0.278277
1.000000 0.544637 0.327441
1.000000 0.519459 0.376169
1.000000 0.487230 0.424704
1.000000 0.443798 0.473374
1.000000 0.380697 0.522821
1.000000 0.275896 0.574799
1.000000 0.021160 0.638367
0.000000 0.747531 0.000000
0.000000 0.747413 0.000000
0.000000 0.747296 0.000000
0.000000 0.747178 0.000000
0.000000 0.747046 0.000000
0.000000 0.746886 0.000000
0.000000 0.746692 0.000000
0.000000 0.746457 0.000000
0.000000 0.746172 0.000000
0.000000 0.745828 0.000000
0.000000 0.745410 0.000000
0.000000 0.744903 0.000000
0.165376 0.734180 0.000000
0.358979 0.724880 0.000000
0.481734 0.718551 0.000000
0.574997 0.713330 0.000000
0.651350 0.708616 0.000000
0.716356 0.704111 0.000000
0.772950 0.699615 0.000000
0.820948 0.693063 0.000000
0.859207 0.682078 0.000000
0.893051 0.671078 0.052185
0.923004 0.659870 0.110212
0.949302 0.648036 0.164858
0.972179 0.635145 0.217289
0.991890 0.620684 0.268214
1.000000 0.603987 0.318078
1.000000 0.584112 0.367172
1.000000 0.559645 0.415708
1.000000 0.528291 0.463889
1.000000 0.485979 0.512007
1.000000 0.424421 0.560666
1.000000 0.322269 0.611542
0.000000 0.787475 0.000000
0.000000 0.787382 0.000000
0.000000 0.787289 0.000000
0.000000 0.787196 0.000000
0.000000 0.787091 0.000000
0.000000 0.786964 0.000000
0.000000 0.786811 0.000000
0.000000 0.786625 0.000000
0.000000 0.786400 0.000000
0.000000 0.786127 0.000000
0.000000 0.785796 0.000000
0.000000 0.785396 0.000000
0.000000 0.784910 0.000000
0.221630 0.771575 0.000000
0.407541 0.762646 0.000000
0.527148 0.756493 0.000000
0.617911 0.751427 0.000000
0.691835 0.746876 0.000000
0.754342 0.742547 0.000000
0.808329 0.738246 0.000000
0.849686 0.727991 0.000000
0.885048 0.717163 0.030585
0.916110 0.706536 0.092815
0.943194 0.695686 0.150346
0.966594 0.684222 0.204834
0.986605 0.671733 0.257249
1.000000 0.657731 0.308176
1.000000 0.641568 0.357981
1.000000 0.622327 0.406897
1.000000 0.598621 0.455095
1.000000 0.568202 0.502745
1.000000 0.527071 0.550109
1.000000 0.467088 0.597758
0.000000 0.825638 0.000000
0.000000 0.825565 0.000000
0.000000 0.825492 0.000000
0.000000 0.825418 0.000000
0.000000 0.825336 0.000000
0.000000 0.825236 0.000000
0.000000 0.825115 0.000000
0.000000 0.824969 0.000000
0.000000 0.824792 0.000000
0.000000 0.824577 0.000000
0.000000 0.824317 0.000000
0.000000 0.824002 0.000000
0.000000 0.823620 0.000000
0.000000 0.823157 0.000000
0.274957 0.807350 0.000000
0.454883 0.798718 0.000000
0.571447 0.792740 0.000000
0.659556 0.787840 0.000000
0.730833 0.783466 0.000000
0.790613 0.779329 0.000000
0.838770 0.772235 0.000000
0.876181 0.761177 0.003293
0.908691 0.750724 0.071630
0.936824 0.740455 0.133197
0.960951 0.729960 0.190506
0.981429 0.718874 0.244961
0.998620 0.706811 0.297383
1.000000 0.693297 0.348263
1.000000 0.677707 0.397904
1.000000 0.659147 0.446497
1.000000 0.636263 0.494180
1.000000 0.606851 0.541094
1.000000 0.566984 0.587477
0.000000 0.861869 0.000000
0.000000 0.861811 0.000000
0.000000 0.861754 0.000000
0.000000 0.861697 0.000000
0.000000 0.861632 0.000000
0.000000 0.861554 0.000000
0.000000 0.861460 0.000000
0.000000 0.861345 0.000000
0.000000 0.861207 0.000000
0.000000 0.861039 0.000000
0.000000 0.860836 0.000000
0.000000 0.860590 0.000000
0.000000 0.860292 0.000000
0.000000 0.859930 0.000000
0.000000 0.859492 0.000000
0.326217 0.841312 0.000000
0.501117 0.832939 0.000000
0.614581 0.827141 0.000000
0.699820 0.822422 0.000000
0.768205 0.818239 0.000000
0.825024 0.814312 0.000000
0.866135 0.803431 0.000000
0.900520 0.792672 0.044920
0.930029 0.782587 0.112330
0.955130 0.772665 0.173569
0.976265 0.762528 0.230816
0.993861 0.751837 0.285280
1.000000 0.740222 0.337666
1.000000 0.727229 0.388398
1.000000 0.712252 0.437733
1.000000 0.694424 0.485826
1.000000 0.672423 0.532789
1.000000 0.644097 0.578740
0.000000 0.896020 0.000000
0.000000 0.895976 0.000000
0.000000 0.895931 0.000000
0.000000 0.895887 0.000000
0.000000 0.895837 0.000000
0.000000 0.895776 0.000000
0.000000 0.895703 0.000000
0.000000 0.895614 0.000000
0.000000 0.895507 0.000000
0.000000 0.895376 0.000000
0.000000 0.895219 0.000000
0.000000 0.895028 0.000000
0.000000 0.894797 0.000000
0.000000 0.894517 0.000000
0.000000 0.894177 0.000000
0.000000 0.893765 0.000000
0.375921 0.873292 0.000000
0.546273 0.865158 0.000000
0.656466 0.859553 0.000000
0.738573 0.855029 0.000000
0.803808 0.851054 0.000000
0.854441 0.844357 0.000000
0.891305 0.832690 0.009723
0.922599 0.822321 0.086061
0.948986 0.812583 0.152957
0.971008 0.803004 0.214081
0.989183 0.793235 0.271331
1.000000 0.782956 0.325773
1.000000 0.771814 0.378029
1.000000 0.759373 0.428473
1.000000 0.745049 0.477324
1.000000 0.728000 0.524712
1.000000 0.706945 0.570728
0.000000 0.927957 0.000000
0.000000 0.927923 0.000000
0.000000 0.927889 0.000000
0.000000 0.927855 0.000000
0.000000 0.927816 0.000000
0.000000 0.927769 0.000000
0.000000 0.927713 0.000000
0.000000 0.927645 0.000000
0.000000 0.927562 0.000000
0.000000 0.927462 0.000000
0.000000 0.927341 0.000000
0.000000 0.927194 0.000000
0.000000 0.927016 0.000000
0.000000 0.926801 0.000000
0.000000 0.926540 0.000000
0.000000 0.926224 0.000000
0.000000 0.923558 0.000000
0.424365 0.903139 0.000000
0.590320 0.895240 0.000000
0.696985 0.889840 0.000000
0.775672 0.885528 0.000000
0.837499 0.881778 0.000000
0.880710 0.871304 0.000000
0.914270 0.859966 0.051539
0.942333 0.849961 0.127019
0.965533 0.840557 0.193693
0.984496 0.831322 0.254804
0.999812 0.821931 0.312045
1.000000 0.812082 0.366378
1.000000 0.801437 0.418367
1.000000 0.789577 0.468346
1.000000 0.775940 0.516508
1.000000 0.759714 0.562965
0.000000 0.957562 0.000000
0.000000 0.957536 0.000000
0.000000 0.957510 0.000000
0.000000 0.957484 0.000000
0.000000 0.957455 0.000000
0.000000 0.957419 0.000000
0.000000 0.957376 0.000000
0.000000 0.957324 0.000000
0.000000 0.957261 0.000000
0.000000 0.957185 0.000000
0.000000 0.957092 0.000000
0.000000 0.956980 0.000000
0.000000 0.956845 0.000000
0.000000 0.956681 0.000000
0.000000 0.956482 0.000000
0.000000 0.956241 0.000000
0.000000 0.955949 0.000000
0.046199 0.949959 0.000000
0.471704 0.930725 0.000000
0.633182 0.923068 0.000000
0.736005 0.917890 0.000000
0.810973 0.913806 0.000000
0.868340 0.909493 0.000000
0.904736 0.896048 0.003302
0.934935 0.885116 0.092982
0.959677 0.875449 0.168020
0.979693 0.866372 0.234637
0.995688 0.857486 0.295748
1.000000 0.848486 0.352905
1.000000 0.839082 0.406995
1.000000 0.828952 0.458541
1.000000 0.817697 0.507849
1.000000 0.804775 0.555094
0.000000 0.984742 0.000000
0.000000 0.984723 0.000000
0.000000 0.984703 0.000000
0.000000 0.984683 0.000000
0.000000 0.984661 0.000000
0.000000 0.984634 0.000000
0.000000 0.984602 0.000000
0.000000 0.984562 0.000000
0.000000 0.984515 0.000000
0.000000 0.984457 0.000000
0.000000 0.984388 0.000000
0.000000 0.984303 0.000000
0.000000 0.984201 0.000000
0.000000 0.984077 0.000000
0.000000 0.983927 0.000000
0.000000 0.983746 0.000000
0.000000 0.983526 0.000000
0.000000 0.983259 0.000000
0.111421 0.974314 0.000000
0.517996 0.955953 0.000000
0.674752 0.948549 0.000000
0.773380 0.943611 0.000000
0.844329 0.939770 0.000000
0.893797 0.931696 0.000000
0.926518 0.918580 0.045601
0.953239 0.908018 0.134336
0.974639 0.898671 0.209202
0.991547 0.889919 0.275818
1.000000 0.881388 0.336872
1.000000 0.872787 0.393816
1.000000 0.863840 0.447489
1.000000 0.854239 0.498384
1.000000 0.843603 0.546792
0.000000 1.000000 0.000000
0.000000 1.000000 0.000000
0.000000 1.000000 0.000000
0.000000 1.000000 0.000000
0.000000 1.000000 0.000000
0.000000 1.000000 0.000000
0.000000 1.000000 0.000000
0.000000 1.000000 0.000000
0.000000 1.000000 0.000000
0.000000 1.000000 0.000000
0.000000 1.000000 0.000000
0.000000 1.000000 0.000000
0.000000 1.000000 0.000000
0.000000 1.000000 0.000000
0.000000 1.000000 0.000000
0.000000 1.000000 0.000000
0.000000 1.000000 0.000000
0.000000 1.000000 0.000000
0.000000 1.000000 0.000000
0.171153 0.996440 0.000000
0.563229 0.978758 0.000000
0.714897 0.971624 0.000000
0.808959 0.966943 0.000000
0.875605 0.963359 0.000000
0.916942 0.951494 0.000000
0.945983 0.938813 0.087541
0.969166 0.928585 0.175795
0.987280 0.919546 0.250623
1.000000 0.911118 0.317210
1.000000 0.902945 0.378088
1.000000 0.894749 0.434647
1.000000 0.886264 0.487694
1.000000 0.877198 0.537707
0.000000 1.000000 0.000000
0.000000 1.000000 0.000000
0.000000 1.000000 0.000000
0.000000 1.000000 0.000000
0.000000 1.000000 0.000000
0.000000 1.000000 0.000000
0.000000 1.000000 0.000000
0.000000 1.000000 0.000000
0.000000 1.000000 0.000000
0.000000 1.000000 0.000000
0.000000 1.000000 0.000000
0.000000 1.000000 0.000000
0.000000 1.000000 0.000000
0.000000 1.000000 0.000000
0.000000 1.000000 0.000000
0.000000 1.000000 0.000000
0.000000 1.000000 0.000000
