post_production/PixelLog_to_ACEScg_65.cube
# PixelLog to ACEScg (AP1) Scene-Linear 3D LUT
# For ACEScg VFX pipelines and DaVinci Resolve Free ACES grading
# Input: Pixel-Log BT.2020 [0, 1] -> Inverse -> BT.2020 to ACEScg (AP1) Linear
LUT_3D_SIZE 5
DOMAIN_MIN 0.0 0.0 0.0
DOMAIN_MAX 1.0 1.0 1.0
0.000000 0.000000 0.000000
0.025674 0.000000 0.000000
0.212535 0.008737 0.000000
1.068297 0.106714 0.018902
4.987394 0.555415 0.150686
0.006359 0.047085 0.000000
0.049645 0.052041 0.000000
0.236506 0.073434 0.000000
1.092268 0.171411 0.026638
5.011366 0.620112 0.158422
0.109839 0.326373 0.023518
0.153126 0.331329 0.024974
0.339987 0.352723 0.031257
1.195749 0.450700 0.060033
5.114846 0.899401 0.191817
0.583746 1.605421 0.176456
0.627032 1.610377 0.177912
0.813894 1.631771 0.184195
1.669655 1.729748 0.212971
5.588753 2.178449 0.344755
2.754078 7.463027 0.876860
2.797364 7.467983 0.878316
2.984225 7.489377 0.884599
3.839987 7.587354 0.913375
7.759084 8.036055 1.045159
0.000000 0.000000 0.043799
0.029019 0.000000 0.045254
0.215880 0.009687 0.051538
1.071642 0.107664 0.080314
4.990739 0.556365 0.212097
0.009704 0.048034 0.051535
0.052990 0.052990 0.052990
0.239852 0.074384 0.059274
1.095613 0.172361 0.088050
5.014711 0.621062 0.219833
0.113184 0.327323 0.084930
0.156471 0.332279 0.086385
0.343332 0.353673 0.092669
1.199094 0.451650 0.121445
5.118191 0.900351 0.253228
0.587091 1.606371 0.237868
0.630378 1.611327 0.239323
0.817239 1.632721 0.245607
1.673000 1.730698 0.274383
5.592098 2.179398 0.406166
2.757423 7.463977 0.938272
2.800709 7.468933 0.939727
2.987570 7.490327 0.946011
3.843332 7.588304 0.974786
7.762429 8.037005 1.106570
0.000173 0.000000 0.308903
0.043459 0.000000 0.310358
0.230321 0.013787 0.316642
1.086082 0.111764 0.345418
5.005180 0.560465 0.477201
0.024144 0.052134 0.316639
0.067431 0.057090 0.318094
0.254292 0.078484 0.324378
1.110053 0.176461 0.353154
5.029151 0.625162 0.484937
0.127625 0.331423 0.350034
0.170911 0.336379 0.351489
0.357773 0.357773 0.357773
1.213534 0.455750 0.386549
5.132632 0.904451 0.518332
0.601531 1.610471 0.502972
0.644818 1.615427 0.504427
0.831679 1.636821 0.510711
1.687440 1.734798 0.539487
5.606538 2.183498 0.671270
2.771863 7.468077 1.203376
2.815149 7.473033 1.204831
3.002011 7.494427 1.211115
3.857772 7.592404 1.239891
7.776870 8.041105 1.371674
0.066304 0.006213 1.522990
0.109591 0.011169 1.524446
0.296452 0.032563 1.530729
1.152214 0.130540 1.559505
5.071311 0.579241 1.691289
0.090276 0.070911 1.530726
0.133562 0.075867 1.532182
0.320423 0.097260 1.538465
1.176185 0.195237 1.567241
5.095283 0.643938 1.699025
0.193756 0.350199 1.564121
0.237043 0.355155 1.565577
0.423904 0.376549 1.571860
1.279666 0.474526 1.600636
5.198763 0.923227 1.732420
0.667663 1.629247 1.717059
0.710949 1.634203 1.718515
0.897811 1.655597 1.724798
1.753572 1.753574 1.753574
5.672670 2.202275 1.885357
2.837995 7.486853 2.417463
2.881281 7.491809 2.418919
3.068142 7.513203 2.425202
3.923904 7.611180 2.453978
7.843001 8.059881 2.585761
0.369165 0.092203 7.083099
0.412451 0.097158 7.084555
0.599313 0.118552 7.090838
1.455074 0.216529 7.119614
5.374172 0.665230 7.251397
0.393136 0.156900 7.090835
0.436423 0.161856 7.092290
0.623284 0.183250 7.098574
1.479045 0.281227 7.127350
5.398143 0.729927 7.259133
0.496617 0.436189 7.124230
0.539904 0.441144 7.125685
0.726765 0.462538 7.131969
1.582526 0.560515 7.160745
5.501624 1.009216 7.292528
0.970524 1.715236 7.277168
1.013810 1.720192 7.278623
1.200671 1.741586 7.284907
2.056433 1.839563 7.313683
5.975530 2.288264 7.445466
3.140855 7.572843 7.977572
3.184142 7.577799 7.979027
3.371003 7.599192 7.985311
4.226764 7.697169 8.014087
8.145862 8.145870 8.145870
