post_production/PixelLog_to_DWG_Intermediate_65.cube
# PixelLog to DaVinci Wide Gamut / DaVinci Intermediate 3D LUT
# For DaVinci Resolve Free & Studio (enables built-in CST and DWG grading)
# Input: Pixel-Log BT.2020 [0, 1] -> Inverse -> BT.2020 to DWG -> DaVinci Intermediate Log
LUT_3D_SIZE 9
DOMAIN_MIN 0.0 0.0 0.0
DOMAIN_MAX 1.0 1.0 1.0
0.000000 0.000000 0.000000
0.048932 0.000000 0.000000
0.202190 0.000000 0.000000
0.304748 0.000000 0.000000
0.394131 0.000000 0.076824
0.478508 0.079883 0.190328
0.560742 0.191209 0.283272
0.642015 0.283482 0.369088
0.722845 0.369033 0.451954
0.000000 0.023336 0.000000
0.054048 0.031842 0.000000
0.203414 0.045708 0.000000
0.305214 0.070398 0.000000
0.394331 0.109368 0.092854
0.478598 0.162939 0.196085
0.560784 0.228022 0.285700
0.642034 0.300446 0.370174
0.722854 0.376924 0.452451
0.000000 0.186057 0.000000
0.062661 0.187958 0.000000
0.205576 0.191289 0.000000
0.306045 0.198085 0.015832
0.394689 0.211308 0.116678
0.478760 0.235035 0.205700
0.560858 0.272866 0.289928
0.642068 0.325409 0.372096
0.722870 0.389771 0.453338
0.000000 0.290338 0.000000
0.079027 0.291051 0.017933
0.210061 0.292320 0.048771
0.307802 0.294986 0.094986
0.395453 0.300475 0.154625
0.479105 0.311342 0.223740
0.561017 0.331413 0.298444
0.642142 0.364699 0.376097
0.722905 0.412929 0.455213
0.000000 0.380314 0.139442
0.107326 0.380619 0.145652
0.219064 0.381165 0.155967
0.311466 0.382324 0.175148
0.397068 0.384762 0.207274
0.479840 0.389798 0.254342
0.561357 0.399831 0.314647
0.642300 0.418554 0.384181
0.722978 0.450074 0.459115
0.024730 0.464936 0.240239
0.150375 0.465073 0.242676
0.236086 0.465319 0.246918
0.318906 0.465844 0.255462
0.400444 0.466957 0.271711
0.481397 0.469302 0.299846
0.562080 0.474151 0.342716
0.642637 0.483836 0.399648
0.723136 0.501990 0.467012
0.152506 0.547279 0.329000
0.207455 0.547342 0.330060
0.265298 0.547455 0.331937
0.333259 0.547696 0.335846
0.407325 0.548211 0.343755
0.484653 0.549305 0.358922
0.563610 0.551608 0.385515
0.643354 0.556375 0.426674
0.723471 0.565906 0.482158
0.249438 0.628600 0.413120
0.274917 0.628630 0.413599
0.309333 0.628682 0.414455
0.358669 0.628794 0.416264
0.420699 0.629034 0.420035
0.491301 0.629544 0.427679
0.566813 0.630629 0.442387
0.644873 0.632913 0.468317
0.724186 0.637642 0.508722
0.336788 0.709454 0.495240
0.348703 0.709467 0.495461
0.367225 0.709492 0.495856
0.398477 0.709544 0.496698
0.444654 0.709656 0.498477
0.504262 0.709894 0.502186
0.573358 0.710403 0.509712
0.648051 0.711483 0.524216
0.725699 0.713759 0.549847
0.000000 0.000000 0.033478
0.065525 0.000000 0.049605
0.206325 0.000000 0.073549
0.306335 0.000000 0.111639
0.394815 0.000000 0.164418
0.478816 0.105585 0.228946
0.560884 0.200903 0.301045
0.642081 0.287642 0.377353
0.722876 0.370905 0.455809
0.000000 0.063998 0.056788
0.069914 0.069914 0.069914
0.207502 0.079776 0.090046
0.306794 0.098220 0.123411
0.395014 0.129366 0.171719
0.478906 0.175434 0.232975
0.560926 0.234957 0.303101
0.642100 0.303999 0.378357
0.722885 0.378663 0.456288
0.000000 0.196212 0.088946
0.077367 0.197941 0.098784
0.209583 0.200977 0.114443
0.307612 0.207194 0.141742
0.395370 0.219387 0.183690
0.479068 0.241539 0.239848
0.561000 0.277455 0.306698
0.642134 0.328225 0.380138
0.722901 0.391313 0.457144
0.000000 0.294241 0.136046
0.091746 0.294928 0.142452
0.213905 0.296152 0.153068
0.309344 0.298724 0.172736
0.396128 0.304027 0.205499
0.479412 0.314553 0.253208
0.561159 0.334075 0.314007
0.642208 0.366649 0.383850
0.722935 0.414169 0.458953
0.000000 0.381998 0.196375
0.117193 0.382299 0.200044
0.222599 0.382836 0.206331
0.312956 0.383977 0.218647
0.397733 0.386377 0.240990
0.480145 0.391339 0.277142
0.561498 0.401233 0.328134
0.642366 0.419730 0.391383
0.723009 0.450948 0.462722
0.045172 0.465696 0.265925
0.157043 0.465832 0.267841
0.239102 0.466076 0.271199
0.320295 0.466597 0.278045
0.401088 0.467703 0.291357
0.481697 0.470031 0.315219
0.562220 0.474847 0.353209
0.642702 0.484472 0.405898
0.723166 0.502526 0.470364
0.159045 0.547628 0.340868
0.211393 0.547691 0.341815
0.267594 0.547804 0.343497
0.334473 0.548044 0.347008
0.407929 0.548558 0.354151
0.484944 0.549648 0.367986
0.563748 0.551944 0.392630
0.643419 0.556695 0.431546
0.723502 0.566199 0.485068
0.252101 0.628763 0.418641
0.277016 0.628792 0.419096
0.310853 0.628844 0.419909
0.359625 0.628956 0.421628
0.421232 0.629195 0.425215
0.491574 0.629705 0.432506
0.566947 0.630788 0.446600
0.644937 0.633069 0.471628
0.724216 0.637791 0.510992
0.337962 0.709529 0.497816
0.349752 0.709543 0.498031
0.368107 0.709567 0.498417
0.399134 0.709619 0.499239
0.445079 0.709731 0.500976
0.504504 0.709969 0.504600
0.573484 0.710478 0.511962
0.648114 0.711557 0.526180
0.725729 0.713831 0.551391
0.000000 0.000000 0.192305
0.090040 0.000000 0.196115
0.213370 0.000000 0.202633
0.309127 0.006816 0.215362
0.396033 0.068465 0.238339
0.479369 0.140227 0.275265
0.561139 0.216358 0.326979
0.642199 0.294726 0.390750
0.722931 0.374188 0.462400
0.000000 0.111994 0.197958
0.093535 0.115790 0.201573
0.214472 0.122284 0.207772
0.309574 0.134972 0.219931
0.396230 0.157885 0.242031
0.479458 0.194735 0.277882
0.561180 0.246377 0.328591
0.642218 0.310096 0.391635
0.722940 0.381716 0.462850
0.000000 0.212318 0.207412
0.099538 0.213803 0.210723
0.216422 0.216422 0.216422
0.310371 0.221816 0.227674
0.396582 0.232510 0.248356
0.479618 0.252303 0.282427
0.561254 0.285230 0.331428
0.642252 0.333102 0.393207
0.722956 0.394026 0.463655
0.000000 0.300910 0.225185
0.111343 0.301555 0.227990
0.220478 0.302705 0.232850
0.312058 0.305124 0.242555
0.397332 0.310123 0.260742
0.479961 0.320086 0.291543
0.561413 0.338696 0.337254
0.642326 0.370064 0.396495
0.722990 0.416360 0.465356
0.000000 0.384958 0.255426
0.132892 0.385250 0.257540
0.228667 0.385773 0.261236
0.315580 0.386883 0.268735
0.398919 0.389219 0.283192
0.480690 0.394052 0.308754
0.561751 0.403707 0.348738
0.642484 0.421811 0.403204
0.723064 0.452501 0.468908
0.074232 0.467047 0.300552
0.168059 0.467182 0.301937
0.244315 0.467423 0.304380
0.322745 0.467937 0.309425
0.402237 0.469029 0.319475
0.482235 0.471328 0.338228
0.562471 0.476088 0.369785
0.642820 0.485605 0.416276
0.723221 0.503482 0.476130
0.169865 0.548253 0.359326
0.218118 0.548316 0.360123
0.271599 0.548428 0.361539
0.336619 0.548667 0.364506
0.409006 0.549177 0.370591
0.485465 0.550261 0.382542
0.563996 0.552544 0.404320
0.643536 0.557269 0.439773
0.723556 0.566723 0.490104
0.256724 0.629053 0.427890
0.280685 0.629082 0.428307
0.313530 0.629134 0.429053
0.361321 0.629246 0.430630
0.422182 0.629484 0.433929
0.492064 0.629993 0.440661
0.567187 0.631073 0.453771
0.645052 0.633348 0.477327
0.724270 0.638058 0.514953
0.340039 0.709665 0.502291
0.351612 0.709678 0.502497
0.369673 0.709703 0.502868
0.400304 0.709755 0.503655
0.445838 0.709866 0.505322
0.504937 0.710104 0.508802
0.573709 0.710612 0.515887
0.648225 0.711690 0.529619
0.725782 0.713962 0.554110
0.000000 0.100846 0.295891
0.128804 0.105055 0.297338
0.227034 0.112221 0.299888
0.314866 0.126095 0.305147
0.398594 0.150798 0.315592
0.480541 0.189782 0.334985
0.561681 0.243366 0.367389
0.642451 0.308459 0.414738
0.723049 0.380887 0.475260
0.000000 0.173013 0.298049
0.131239 0.175161 0.299467
0.228002 0.178914 0.301966
0.315289 0.186524 0.307125
0.398786 0.201174 0.317387
0.480629 0.227017 0.336481
0.561722 0.267324 0.368492
0.642470 0.322072 0.415444
0.723058 0.387969 0.475659
0.000000 0.240250 0.301819
0.135477 0.241393 0.303187
0.229720 0.243415 0.305601
0.316044 0.247618 0.310590
0.399130 0.256087 0.320536
0.480788 0.272209 0.339116
0.561796 0.300166 0.370445
0.642505 0.342841 0.416701
0.723074 0.399610 0.476372
0.004978 0.313908 0.309461
0.144013 0.314479 0.310734
0.233304 0.315498 0.312984
0.317644 0.317644 0.317644
0.399862 0.322096 0.326975
0.481127 0.331036 0.344544
0.561954 0.347954 0.374508
0.642578 0.377022 0.419342
0.723108 0.420903 0.477882
0.054158 0.391028 0.324167
0.160250 0.391303 0.325276
0.240590 0.391797 0.327239
0.320988 0.392845 0.331322
0.401412 0.395055 0.339564
0.481848 0.399634 0.355300
0.562290 0.408813 0.382710
0.642735 0.426130 0.424781
0.723181 0.455748 0.481043
0.118104 0.469883 0.350092
0.188367 0.470014 0.350961
0.254676 0.470249 0.352504
0.327807 0.470749 0.355733
0.404654 0.471813 0.362327
0.483376 0.474053 0.375193
0.563007 0.478694 0.398378
0.643071 0.487989 0.435558
0.723338 0.505499 0.487505
0.189859 0.549578 0.390493
0.231218 0.549640 0.391086
0.279690 0.549751 0.392145
0.341071 0.549987 0.394374
0.411274 0.550491 0.398993
0.486572 0.551561 0.408249
0.564524 0.553816 0.425691
0.643785 0.558486 0.455483
0.723673 0.567837 0.500135
0.265986 0.629672 0.445323
0.288133 0.629701 0.445677
0.319040 0.629753 0.446309
0.364860 0.629864 0.447651
0.424187 0.630101 0.450466
0.493104 0.630607 0.456249
0.567700 0.631680 0.467656
0.645298 0.633942 0.488581
0.724387 0.638626 0.522961
0.344352 0.709954 0.511275
0.355486 0.709968 0.511465
0.372948 0.709992 0.511805
0.402765 0.710044 0.512529
0.447444 0.710155 0.514063
0.505859 0.710392 0.517271
0.574191 0.710899 0.523827
0.648464 0.711974 0.536623
0.725897 0.714239 0.559704
0.105751 0.211838 0.385629
0.182191 0.213331 0.386251
0.251422 0.215961 0.387358
0.326190 0.221378 0.389690
0.403875 0.232114 0.394514
0.483006 0.251975 0.404152
0.562833 0.284990 0.422228
0.642989 0.332950 0.452880
0.723300 0.393940 0.498436
0.108770 0.242993 0.386558
0.183667 0.244106 0.387174
0.252191 0.246078 0.388272
0.326570 0.250178 0.390584
0.404057 0.258452 0.395368
0.483093 0.274243 0.404932
0.562874 0.301731 0.422886
0.643008 0.343889 0.453373
0.723309 0.400223 0.498757
0.113987 0.282898 0.388207
0.186269 0.283663 0.388813
0.253560 0.285023 0.389895
0.327250 0.287877 0.392172
0.404385 0.293737 0.396886
0.483248 0.305282 0.406319
0.562947 0.326426 0.424058
0.643043 0.361082 0.454253
0.723325 0.410651 0.499330
0.124356 0.337296 0.391651
0.191630 0.337753 0.392238
0.256431 0.338571 0.393285
0.328689 0.340300 0.395491
0.405081 0.343908 0.400063
0.483579 0.351238 0.409229
0.563103 0.365401 0.426523
0.643116 0.390531 0.456111
0.723359 0.430014 0.500547
0.143623 0.402952 0.398665
0.202263 0.403198 0.399215
0.262324 0.403639 0.400195
0.331706 0.404577 0.402263
0.406557 0.406557 0.406557
0.484284 0.410673 0.415198
0.563436 0.418977 0.431613
0.643272 0.434819 0.459981
0.723433 0.462380 0.503105
0.175863 0.475707 0.412274
0.221958 0.475831 0.412758
0.273931 0.476054 0.413621
0.337887 0.476527 0.415444
0.409647 0.477535 0.419243
0.485777 0.479658 0.426943
0.564144 0.484064 0.441747
0.643606 0.492918 0.467816
0.723589 0.509690 0.508381
0.223046 0.552359 0.436581
0.254757 0.552419 0.436965
0.295170 0.552527 0.437652
0.350011 0.552757 0.439107
0.415971 0.553248 0.442156
0.488902 0.554291 0.448398
0.565646 0.556490 0.460635
0.644316 0.561045 0.482855
0.723923 0.570182 0.518856
0.283440 0.630985 0.475100
0.302502 0.631014 0.475367
0.329948 0.631065 0.475845
0.372059 0.631175 0.476861
0.428355 0.631409 0.479004
0.495296 0.631908 0.483447
0.568788 0.632969 0.492373
0.645821 0.635204 0.509264
0.724635 0.639833 0.538297
0.353030 0.710571 0.528266
0.363328 0.710584 0.528428
0.379633 0.710608 0.528718
0.407846 0.710660 0.529335
0.450802 0.710770 0.530645
0.507804 0.711006 0.533393
0.575215 0.711510 0.539046
0.648972 0.712579 0.550215
0.726142 0.714832 0.570764
0.212639 0.304008 0.470153
0.247146 0.304635 0.470433
0.290037 0.305752 0.470934
0.346985 0.308103 0.471998
0.414361 0.312966 0.474240
0.488097 0.322677 0.478884
0.565257 0.340873 0.488186
0.644132 0.371686 0.505707
0.723836 0.417410 0.535604
0.213748 0.318169 0.470572
0.247948 0.318718 0.470850
0.290572 0.319696 0.471349
0.347298 0.321759 0.472410
0.414526 0.326045 0.474643
0.488180 0.334671 0.479270
0.565296 0.351059 0.488539
0.644151 0.379389 0.506006
0.723845 0.422472 0.535830
0.215711 0.339644 0.471320
0.249372 0.340092 0.471597
0.291526 0.340892 0.472092
0.347857 0.342584 0.473145
0.414822 0.346116 0.475363
0.488327 0.353300 0.479959
0.565368 0.367207 0.489171
0.644184 0.391957 0.506542
0.723861 0.430998 0.536234
0.219794 0.374718 0.472903
0.252357 0.375040 0.473176
0.293539 0.375615 0.473664
0.349043 0.376836 0.474701
0.415454 0.379402 0.476887
0.488643 0.384694 0.481419
0.565520 0.395199 0.490510
0.644257 0.414688 0.507679
0.723895 0.447218 0.537094
0.228035 0.424688 0.476214
0.258476 0.424888 0.476478
0.297722 0.425248 0.476951
0.351538 0.426013 0.477957
0.416792 0.427632 0.480077
0.489315 0.431016 0.484477
0.565845 0.437913 0.493319
0.644411 0.451315 0.510072
0.723968 0.475312 0.538911
0.243770 0.487188 0.482969
0.270489 0.487299 0.483217
0.306154 0.487499 0.483661
0.356687 0.487924 0.484605
0.419601 0.488829 0.486597
0.490739 0.490739 0.490739
0.566538 0.494715 0.499092
0.644742 0.502752 0.515019
0.724124 0.518137 0.542698
0.271178 0.558076 0.496119
0.292363 0.558133 0.496338
0.322214 0.558235 0.496731
0.366929 0.558453 0.497565
0.425372 0.558918 0.499330
0.493723 0.559907 0.503010
0.568006 0.561993 0.510479
0.645445 0.566322 0.524885
0.724456 0.575032 0.550372
0.313247 0.633742 0.519737
0.327935 0.633769 0.519912
0.350082 0.633819 0.520226
0.385992 0.633926 0.520895
0.436757 0.634154 0.522313
0.499841 0.634641 0.525284
0.571080 0.635675 0.531374
0.646934 0.637854 0.543337
0.725164 0.642371 0.565134
0.369507 0.711878 0.557436
0.378379 0.711891 0.557559
0.392660 0.711915 0.557779
0.417963 0.711966 0.558248
0.457648 0.712075 0.559246
0.511851 0.712309 0.561350
0.577374 0.712806 0.565716
0.650052 0.713862 0.574495
0.726664 0.716088 0.591141
0.303490 0.389517 0.552453
0.319495 0.389797 0.552581
0.343290 0.390297 0.552812
0.381201 0.391361 0.553304
0.433818 0.393601 0.554349
0.498232 0.398242 0.556552
0.570264 0.407538 0.561116
0.646536 0.425048 0.570269
0.724975 0.454932 0.587541
0.303960 0.396060 0.552645
0.319900 0.396323 0.552773
0.343613 0.396794 0.553004
0.381427 0.397794 0.553495
0.433956 0.399904 0.554538
0.498307 0.404282 0.556737
0.570301 0.413082 0.561293
0.646554 0.429765 0.570432
0.724983 0.458507 0.587680
0.304801 0.406886 0.552990
0.320624 0.407123 0.553118
0.344192 0.407548 0.553347
0.381832 0.408452 0.553837
0.434202 0.410361 0.554877
0.498441 0.414335 0.557068
0.570369 0.422366 0.561611
0.646588 0.437744 0.570723
0.724999 0.464641 0.587927
0.306579 0.426889 0.553724
0.322156 0.427085 0.553851
0.345420 0.427437 0.554079
0.382694 0.428187 0.554565
0.434728 0.429773 0.555598
0.498728 0.433091 0.557775
0.570515 0.439858 0.562288
0.646658 0.453030 0.571344
0.725033 0.476681 0.588456
0.310285 0.460088 0.555279
0.325362 0.460231 0.555404
0.348000 0.460489 0.555629
0.384514 0.461038 0.556108
0.435845 0.462203 0.557126
0.499339 0.464654 0.559272
0.570825 0.469716 0.563723
0.646809 0.479797 0.572662
0.725105 0.498598 0.589577
0.317805 0.508230 0.558531
0.331913 0.508321 0.558652
0.353320 0.508485 0.558870
0.388308 0.508834 0.559335
0.438196 0.509577 0.560322
0.500635 0.511149 0.562405
0.571486 0.514438 0.566728
0.647132 0.521149 0.575427
0.725259 0.534224 0.591938
0.332299 0.569361 0.565171
0.344702 0.569412 0.565285
0.363878 0.569503 0.565489
0.395996 0.569700 0.565926
0.443057 0.570118 0.566854
0.503356 0.571008 0.568813
0.572887 0.572887 0.572887
0.647820 0.576801 0.581112
0.725588 0.584719 0.596820
0.357915 0.639409 0.578118
0.367769 0.639436 0.578219
0.383451 0.639483 0.578400
0.410782 0.639584 0.578786
0.452766 0.639800 0.579608
0.508955 0.640262 0.581347
0.575825 0.641242 0.584973
0.649276 0.643311 0.592340
0.726288 0.647605 0.606567
0.397960 0.714623 0.601427
0.404806 0.714636 0.601508
0.416091 0.714659 0.601653
0.436824 0.714709 0.601963
0.470960 0.714815 0.602624
0.520023 0.715042 0.604024
0.581850 0.715527 0.606961
0.652327 0.716557 0.612983
0.727772 0.718727 0.624822
0.388468 0.472249 0.633755
0.395934 0.472377 0.633814
0.408152 0.472607 0.633921
0.430343 0.473096 0.634150
0.466307 0.474136 0.634638
0.517122 0.476329 0.635674
0.580243 0.480873 0.637859
0.651505 0.489986 0.642387
0.727370 0.507194 0.651472
0.388679 0.475292 0.633844
0.396131 0.475416 0.633903
0.408327 0.475639 0.634010
0.430485 0.476115 0.634239
0.466408 0.477126 0.634726
0.517184 0.479258 0.635762
0.580277 0.483680 0.637945
0.651522 0.492565 0.642469
0.727379 0.509389 0.651547
0.389057 0.480547 0.634004
0.396484 0.480665 0.634063
0.408641 0.480878 0.634170
0.430740 0.481331 0.634398
0.466589 0.482293 0.634885
0.517297 0.484324 0.635919
0.580339 0.488544 0.638099
0.651554 0.497045 0.642617
0.727394 0.513222 0.651683
0.389862 0.490986 0.634346
0.397234 0.491093 0.634405
0.409310 0.491286 0.634512
0.431283 0.491696 0.634739
0.466977 0.492569 0.635224
0.517537 0.494414 0.636255
0.580471 0.498256 0.638428
0.651621 0.506038 0.642932
0.727427 0.520985 0.651972
0.391564 0.510369 0.635074
0.398822 0.510458 0.635133
0.410728 0.510618 0.635239
0.432436 0.510960 0.635464
0.467801 0.511688 0.635946
0.518049 0.513230 0.636970
0.580754 0.516455 0.639128
0.651765 0.523044 0.643604
0.727497 0.535899 0.652589
0.395117 0.542759 0.636615
0.402144 0.542824 0.636673
0.413701 0.542942 0.636778
0.434863 0.543194 0.637000
0.469544 0.543732 0.637475
0.519135 0.544872 0.638484
0.581356 0.547273 0.640612
0.652073 0.552234 0.645026
0.727648 0.562129 0.653896
0.402342 0.590094 0.639840
0.408918 0.590136 0.639897
0.419794 0.590211 0.639998
0.439877 0.590372 0.640214
0.473179 0.590716 0.640674
0.521425 0.591449 0.641654
0.582633 0.593001 0.643719
0.652730 0.596247 0.648008
0.727970 0.602875 0.656641
0.416321 0.650604 0.646428
0.422105 0.650628 0.646481
0.431762 0.650671 0.646576
0.449869 0.650762 0.646779
0.480563 0.650956 0.647212
0.526163 0.651372 0.648133
0.585315 0.652255 0.650077
0.654120 0.654120 0.654120
0.728654 0.658005 0.662287
0.441178 0.720268 0.659282
0.445776 0.720280 0.659329
0.453565 0.720302 0.659413
0.468525 0.720349 0.659593
0.494820 0.720450 0.659977
0.535641 0.720666 0.660793
0.590836 0.721125 0.662519
0.657036 0.722102 0.666122
0.730106 0.724162 0.673441
0.470968 0.553747 0.714599
0.474455 0.553807 0.714627
0.480445 0.553913 0.714677
0.492227 0.554140 0.714783
0.513741 0.554625 0.715011
0.548862 0.555654 0.715497
0.598878 0.557825 0.716529
0.661412 0.562325 0.718705
0.732321 0.571356 0.723217
0.471065 0.555166 0.714640
0.474549 0.555224 0.714668
0.480534 0.555329 0.714718
0.492306 0.555554 0.714825
0.513805 0.556032 0.715052
0.548909 0.557048 0.715538
0.598907 0.559190 0.716570
0.661428 0.563633 0.718745
0.732329 0.572558 0.723256
0.471238 0.557668 0.714715
0.474717 0.557725 0.714743
0.480693 0.557827 0.714793
0.492448 0.558046 0.714899
0.513921 0.558513 0.715127
0.548992 0.559506 0.715612
0.598959 0.561599 0.716643
0.661457 0.565945 0.718817
0.732344 0.574684 0.723324
0.471609 0.562830 0.714875
0.475076 0.562885 0.714902
0.481032 0.562982 0.714952
0.492752 0.563191 0.715058
0.514169 0.563636 0.715286
0.549170 0.564582 0.715770
0.599070 0.566578 0.716800
0.661519 0.570727 0.718971
0.732375 0.579095 0.723471
0.472398 0.573098 0.715215
0.475840 0.573148 0.715243
0.481754 0.573236 0.715292
0.493398 0.573425 0.715398
0.514697 0.573829 0.715625
0.549549 0.574689 0.716108
0.599307 0.576505 0.717135
0.661650 0.580289 0.719298
0.732442 0.587959 0.723785
0.474067 0.592204 0.715940
0.477456 0.592245 0.715968
0.483283 0.592319 0.716017
0.494769 0.592477 0.716122
0.515819 0.592814 0.716347
0.550357 0.593533 0.716827
0.599812 0.595054 0.717847
0.661930 0.598239 0.719996
0.732586 0.604747 0.724454
0.477553 0.624229 0.717476
0.480833 0.624260 0.717503
0.486482 0.624314 0.717551
0.497643 0.624431 0.717655
0.518180 0.624681 0.717877
0.552066 0.625213 0.718350
0.600886 0.626343 0.719355
0.662528 0.628720 0.721474
0.732893 0.633636 0.725872
0.484648 0.671196 0.720688
0.487718 0.671216 0.720715
0.493020 0.671251 0.720762
0.503544 0.671326 0.720862
0.523063 0.671486 0.721077
0.555632 0.671828 0.721536
0.603147 0.672556 0.722512
0.663797 0.674098 0.724569
0.733547 0.677324 0.728842
0.498398 0.731422 0.727252
0.501099 0.731433 0.727277
0.505784 0.731453 0.727321
0.515163 0.731495 0.727415
0.532811 0.731586 0.727618
0.562882 0.731780 0.728049
0.607830 0.732194 0.728966
0.666461 0.733074 0.730903
0.734933 0.734933 0.734933
