post_production/PixelLog_to_Rec709_Display.cube
# PixelLog to Rec.709 Display Transform LUT
# Target Device: Google Pixel 11 Pro Primary Sensor
# Color Science: Bespoke asinh Pixel-Log Curve
# Transform: Pixel-Log BT.2020 -> Scene-Linear -> Gamut Compress -> Filmic Knee -> BT.1886
TITLE "PixelLog_to_Rec709_Display"
LUT_3D_SIZE 9
DOMAIN_MIN 0.0 0.0 0.0
DOMAIN_MAX 1.0 1.0 1.0
0.000000 0.000000 0.000000
0.000000 0.000000 0.000000
0.188801 0.000000 0.000000
0.319042 0.000000 0.000000
0.536788 0.000000 0.000000
0.897538 0.000000 0.000000
1.000000 0.000000 0.000000
1.000000 0.000000 0.213529
1.000000 0.000000 0.462143
0.000000 0.070244 0.000000
0.067378 0.062941 0.000000
0.185093 0.030077 0.000000
0.321497 0.000000 0.000000
0.541032 0.000000 0.000000
0.899165 0.000000 0.000000
1.000000 0.000000 0.000000
1.000000 0.000000 0.214564
1.000000 0.000000 0.462641
0.000000 0.167040 0.000000
0.000000 0.165989 0.000000
0.167905 0.162700 0.000000
0.323634 0.149897 0.000000
0.548887 0.059994 0.000000
0.901899 0.000000 0.000000
1.000000 0.000000 0.000000
1.000000 0.000000 0.217132
1.000000 0.000000 0.463861
0.000000 0.302060 0.000000
0.000000 0.302191 0.000000
0.000000 0.302205 0.000000
0.308886 0.300469 0.000000
0.555472 0.286683 0.000000
0.902271 0.202844 0.000000
1.000000 0.000000 0.000000
1.000000 0.000000 0.223649
1.000000 0.000000 0.466877
0.000000 0.518161 0.000000
0.000000 0.518049 0.000000
0.000000 0.517656 0.000000
0.124796 0.515992 0.000000
0.521778 0.508316 0.000000
0.877489 0.474831 0.000000
1.000000 0.355569 0.000000
1.000000 0.000000 0.240380
1.000000 0.000000 0.474292
0.000000 0.792819 0.000000
0.000000 0.792022 0.000000
0.000000 0.790051 0.000000
0.000000 0.785060 0.000000
0.279293 0.772169 0.000000
0.757046 0.738571 0.000000
1.000000 0.657039 0.000000
1.000000 0.509861 0.282016
1.000000 0.423452 0.492131
0.000000 1.000000 0.000000
0.000000 1.000000 0.000000
0.000000 1.000000 0.000000
0.000000 1.000000 0.000000
0.000000 0.988207 0.000000
0.441101 0.959168 0.063176
0.915777 0.895551 0.228813
1.000000 0.781393 0.371176
1.000000 0.660321 0.532458
0.000000 1.000000 0.405012
0.000000 1.000000 0.405394
0.000000 1.000000 0.406328
0.000000 1.000000 0.408630
0.000000 1.000000 0.414242
0.000000 1.000000 0.427536
0.605090 1.000000 0.457111
0.985027 0.967283 0.515446
1.000000 0.864173 0.610553
0.000000 1.000000 0.648705
0.000000 1.000000 0.648808
0.000000 1.000000 0.649058
0.131393 1.000000 0.649679
0.237529 1.000000 0.651214
0.366848 1.000000 0.654968
0.538231 1.000000 0.663927
0.758359 1.000000 0.684119
1.000000 0.992449 0.724469
0.000000 0.000000 0.000000
0.000000 0.000000 0.000000
0.188214 0.000000 0.066344
0.319109 0.000000 0.062297
0.537066 0.000000 0.024673
0.897615 0.000000 0.000000
1.000000 0.000000 0.000000
1.000000 0.000000 0.234580
1.000000 0.000000 0.465583
0.000000 0.069951 0.063005
0.062513 0.062513 0.062513
0.184312 0.028245 0.060874
0.321468 0.000000 0.053826
0.541251 0.000000 0.000000
0.899214 0.000000 0.000000
1.000000 0.000000 0.000000
1.000000 0.000000 0.235403
1.000000 0.000000 0.466066
0.000000 0.167241 0.043135
0.000000 0.166166 0.040828
0.166556 0.162821 0.033450
0.323396 0.149881 0.000000
0.548977 0.058932 0.000000
0.901886 0.000000 0.000000
1.000000 0.000000 0.000000
1.000000 0.000000 0.237459
1.000000 0.000000 0.467251
0.000000 0.302341 0.000000
0.000000 0.302459 0.000000
0.000000 0.302441 0.000000
0.308197 0.300635 0.000000
0.555308 0.286723 0.000000
0.902138 0.202697 0.000000
1.000000 0.000000 0.000000
1.000000 0.000000 0.242753
1.000000 0.000000 0.470181
0.000000 0.518294 0.000000
0.000000 0.518176 0.000000
0.000000 0.517769 0.000000
0.120511 0.516075 0.000000
0.521270 0.508340 0.000000
0.877188 0.474780 0.000000
1.000000 0.355513 0.000000
1.000000 0.000000 0.256770
1.000000 0.000000 0.477394
0.000000 0.792730 0.000000
0.000000 0.791933 0.000000
0.000000 0.789960 0.000000
0.000000 0.784964 0.000000
0.277981 0.772065 0.000000
0.756642 0.738460 0.000000
1.000000 0.656949 0.000000
1.000000 0.509849 0.293498
1.000000 0.423520 0.494804
0.000000 1.000000 0.000000
0.000000 1.000000 0.000000
0.000000 1.000000 0.000000
0.000000 1.000000 0.000000
0.000000 0.988071 0.000000
0.440687 0.959043 0.125222
0.915548 0.895453 0.243770
1.000000 0.781343 0.376904
1.000000 0.660326 0.534378
0.000000 1.000000 0.409008
0.000000 1.000000 0.409381
0.000000 1.000000 0.410292
0.000000 1.000000 0.412538
0.000000 1.000000 0.418016
0.000000 1.000000 0.431011
0.604990 1.000000 0.459997
0.984936 0.967239 0.517422
1.000000 0.864158 0.611563
0.000000 1.000000 0.649382
0.000000 1.000000 0.649484
0.000000 1.000000 0.649733
0.131546 1.000000 0.650351
0.237588 1.000000 0.651877
0.366869 1.000000 0.655613
0.538229 1.000000 0.664529
0.758341 1.000000 0.684632
1.000000 0.992436 0.724831
0.000000 0.000000 0.000000
0.000000 0.000000 0.000000
0.186684 0.000000 0.156242
0.319231 0.000000 0.164468
0.537726 0.000000 0.176500
0.897794 0.000000 0.180488
1.000000 0.000000 0.177411
1.000000 0.000000 0.277378
1.000000 0.000000 0.473871
0.000000 0.069189 0.153751
0.047003 0.061406 0.155325
0.182300 0.022697 0.158871
0.321359 0.000000 0.166013
0.541766 0.000000 0.176187
0.899325 0.000000 0.178382
1.000000 0.000000 0.175822
1.000000 0.000000 0.277865
1.000000 0.000000 0.474320
0.000000 0.167717 0.159509
0.000000 0.166586 0.160617
0.163104 0.163105 0.163104
0.322778 0.149831 0.168015
0.549180 0.056181 0.174197
0.901845 0.000000 0.172805
1.000000 0.000000 0.172037
1.000000 0.000000 0.279100
1.000000 0.000000 0.475421
0.000000 0.303021 0.162043
0.000000 0.303105 0.162378
0.000000 0.303010 0.163065
0.306472 0.301034 0.164017
0.554893 0.286816 0.163325
0.901804 0.202334 0.156741
1.000000 0.000000 0.163454
1.000000 0.000000 0.282397
1.000000 0.000000 0.478147
0.000000 0.518615 0.121811
0.000000 0.518483 0.121362
0.000000 0.518041 0.120254
0.108943 0.516272 0.117508
0.520016 0.508395 0.111154
0.876448 0.474655 0.104091
1.000000 0.355376 0.148776
1.000000 0.000000 0.291766
1.000000 0.000000 0.484885
0.000000 0.792512 0.000000
0.000000 0.791713 0.000000
0.000000 0.789735 0.000000
0.000000 0.784728 0.000000
0.274728 0.771808 0.000000
0.755649 0.738187 0.000000
1.000000 0.656726 0.159864
1.000000 0.509819 0.319275
1.000000 0.423687 0.501274
0.000000 1.000000 0.094767
0.000000 1.000000 0.097731
0.000000 1.000000 0.104522
0.000000 0.999978 0.119178
0.000000 0.987736 0.147693
0.439669 0.958736 0.197271
0.914985 0.895211 0.275864
1.000000 0.781221 0.390457
1.000000 0.660337 0.539046
0.000000 1.000000 0.418583
0.000000 1.000000 0.418934
0.000000 1.000000 0.419792
0.000000 1.000000 0.421908
0.000000 1.000000 0.427075
0.000000 1.000000 0.439371
0.604745 1.000000 0.466969
0.984713 0.967131 0.522225
1.000000 0.864120 0.614032
0.000000 1.000000 0.651038
0.000000 1.000000 0.651138
0.000000 1.000000 0.651384
0.131922 1.000000 0.651994
0.237732 1.000000 0.653502
0.366920 1.000000 0.657192
0.538224 1.000000 0.666002
0.758296 1.000000 0.685886
1.000000 0.992403 0.725718
0.000000 0.000000 0.000000
0.059350 0.000000 0.249395
0.182334 0.000000 0.256572
0.319291 0.000000 0.271824
0.539220 0.000000 0.298305
0.898172 0.000000 0.326216
1.000000 0.000000 0.331252
1.000000 0.000000 0.355976
1.000000 0.000000 0.493587
0.000000 0.067026 0.253527
0.000000 0.058273 0.256350
0.176695 0.000000 0.262849
0.320859 0.000000 0.276719
0.542913 0.000000 0.300895
0.899537 0.000000 0.326246
1.000000 0.000000 0.330325
1.000000 0.000000 0.356032
1.000000 0.000000 0.493957
0.000000 0.168806 0.268264
0.000000 0.167537 0.270492
0.153562 0.163725 0.275641
0.321035 0.149631 0.286696
0.549571 0.048182 0.306010
0.901691 0.000000 0.325928
1.000000 0.000000 0.328073
1.000000 0.000000 0.356207
1.000000 0.000000 0.494868
0.000000 0.304640 0.291466
0.000000 0.304645 0.292738
0.000000 0.304364 0.295679
0.301975 0.301976 0.301975
0.553784 0.287019 0.312770
0.900939 0.201427 0.323236
1.000000 0.000000 0.322682
1.000000 0.000000 0.356874
1.000000 0.000000 0.497134
0.000000 0.519379 0.305658
0.000000 0.519213 0.305933
0.000000 0.518689 0.306558
0.067420 0.516739 0.307840
0.516856 0.508516 0.309724
0.874594 0.474338 0.310177
1.000000 0.355038 0.311222
1.000000 0.000000 0.359817
1.000000 0.000000 0.502788
0.000000 0.791965 0.271467
0.000000 0.791160 0.271499
0.000000 0.789170 0.271586
0.000000 0.784136 0.271850
0.266428 0.771169 0.272833
0.753180 0.737510 0.277333
1.000000 0.656175 0.298858
1.000000 0.509747 0.373063
1.000000 0.424102 0.516830
0.000000 1.000000 0.262963
0.000000 1.000000 0.263521
0.000000 1.000000 0.264886
0.000000 0.999118 0.268246
0.000000 0.986905 0.276437
0.437134 0.957976 0.295819
0.913588 0.894612 0.338677
1.000000 0.780918 0.421484
1.000000 0.660365 0.550384
0.000000 1.000000 0.441086
0.000000 1.000000 0.441389
0.000000 1.000000 0.442131
0.000000 1.000000 0.443961
0.000000 1.000000 0.448446
0.000000 1.000000 0.459190
0.604138 1.000000 0.483653
0.984159 0.966865 0.533876
1.000000 0.864026 0.620097
0.000000 1.000000 0.655120
0.000000 1.000000 0.655218
0.000000 1.000000 0.655456
0.132849 1.000000 0.656047
0.238088 1.000000 0.657509
0.367048 1.000000 0.661086
0.538211 1.000000 0.669639
0.758185 1.000000 0.688986
1.000000 0.992321 0.727913
0.000000 0.000000 0.388426
0.000000 0.000000 0.392766
0.167698 0.000000 0.402814
0.317984 0.000000 0.424549
0.542092 0.000000 0.463900
0.898719 0.000000 0.509775
1.000000 0.000000 0.517942
1.000000 0.000000 0.486094
1.000000 0.000000 0.538186
0.000000 0.059659 0.399005
0.000000 0.047237 0.402979
0.158341 0.000000 0.412196
0.318232 0.000000 0.432209
0.544975 0.000000 0.468617
0.899695 0.000000 0.510871
1.000000 0.000000 0.517066
1.000000 0.000000 0.485671
1.000000 0.000000 0.538398
0.000000 0.170966 0.421266
0.000000 0.169372 0.424502
0.121227 0.164777 0.432033
0.315421 0.148691 0.448488
0.549868 0.000000 0.478633
0.900987 0.000000 0.512995
1.000000 0.000000 0.514877
1.000000 0.000000 0.484668
1.000000 0.000000 0.538923
0.000000 0.308270 0.460014
0.000000 0.308089 0.462025
0.000000 0.307374 0.466718
0.289413 0.304022 0.477015
0.550553 0.287362 0.495445
0.898560 0.199128 0.515402
1.000000 0.000000 0.509277
1.000000 0.000000 0.482384
1.000000 0.000000 0.540248
0.000000 0.521090 0.499558
0.000000 0.520842 0.500125
0.000000 0.520127 0.501434
0.000000 0.517749 0.504215
0.508715 0.508715 0.508715
0.869881 0.473518 0.510350
1.000000 0.354210 0.495278
1.000000 0.000000 0.477925
1.000000 0.041675 0.543671
0.000000 0.790572 0.488092
0.000000 0.789755 0.487938
0.000000 0.787736 0.487557
0.000000 0.782640 0.486586
0.244194 0.769563 0.484070
0.747024 0.735824 0.477823
1.000000 0.654812 0.466941
1.000000 0.509574 0.473313
1.000000 0.425130 0.552788
0.000000 1.000000 0.430023
0.000000 1.000000 0.430097
0.000000 1.000000 0.430282
0.000000 0.996988 0.430760
0.000000 0.984847 0.432060
0.430793 0.956094 0.435913
0.910125 0.893129 0.448361
1.000000 0.780169 0.487047
1.000000 0.660436 0.577165
0.000000 1.000000 0.490842
0.000000 1.000000 0.491054
0.000000 1.000000 0.491573
0.000000 1.000000 0.492859
0.000000 1.000000 0.496028
0.000000 1.000000 0.503735
0.602631 1.000000 0.521858
0.982785 0.966203 0.561321
1.000000 0.863793 0.634795
0.000000 1.000000 0.665103
0.000000 1.000000 0.665193
0.000000 1.000000 0.665413
0.135118 1.000000 0.665959
0.238973 1.000000 0.667309
0.367365 1.000000 0.670618
0.538180 1.000000 0.678550
0.757910 1.000000 0.696598
1.000000 0.992117 0.733324
0.000000 0.000000 0.625063
0.000000 0.000000 0.630048
0.084825 0.000000 0.641668
0.306238 0.000000 0.667174
0.544558 0.000000 0.714546
0.897889 0.000000 0.770144
1.000000 0.000000 0.773293
1.000000 0.000000 0.685850
1.000000 0.000000 0.630240
0.000000 0.000000 0.637427
0.000000 0.000000 0.642041
0.000000 0.000000 0.652808
0.303448 0.000000 0.676490
0.545718 0.000000 0.720577
0.898021 0.000000 0.771737
1.000000 0.000000 0.772176
1.000000 0.000000 0.684902
1.000000 0.000000 0.630183
0.000000 0.173386 0.663987
0.000000 0.171068 0.667827
0.000000 0.164684 0.676803
0.293427 0.143745 0.696611
0.546626 0.000000 0.733275
0.897440 0.000000 0.774932
1.000000 0.000000 0.769354
1.000000 0.000000 0.682608
1.000000 0.000000 0.630049
0.000000 0.315135 0.712160
0.000000 0.314559 0.714636
0.000000 0.312915 0.720430
0.248140 0.307562 0.732866
0.539820 0.287328 0.755339
0.891367 0.193197 0.779195
1.000000 0.000000 0.761958
1.000000 0.000000 0.677106
1.000000 0.000000 0.629763
0.000000 0.524281 0.764842
0.000000 0.523857 0.765536
0.000000 0.522730 0.767131
0.000000 0.519433 0.770476
0.486743 0.508653 0.775576
0.857591 0.471297 0.774983
1.000000 0.352247 0.742351
1.000000 0.000000 0.664601
1.000000 0.093231 0.629320
0.000000 0.786928 0.755652
0.000000 0.786086 0.755315
0.000000 0.784007 0.754476
0.000000 0.778782 0.752329
0.172141 0.765482 0.746678
0.731623 0.731623 0.731623
1.000000 0.651476 0.695597
1.000000 0.509182 0.640176
1.000000 0.427666 0.629657
0.000000 0.999454 0.649536
0.000000 0.998641 0.649297
0.000000 0.996651 0.648714
0.000000 0.991748 0.647291
0.000000 0.979786 0.643899
0.414780 0.951469 0.636354
0.901575 0.889489 0.622557
1.000000 0.778333 0.610426
1.000000 0.660618 0.636675
0.000000 1.000000 0.590162
0.000000 1.000000 0.590234
0.000000 1.000000 0.590410
0.000000 1.000000 0.590850
0.000000 1.000000 0.591959
0.000000 1.000000 0.594802
0.598911 1.000000 0.602268
0.979387 0.964571 0.622003
1.000000 0.863219 0.669202
0.000000 1.000000 0.688935
0.000000 1.000000 0.689008
0.000000 1.000000 0.689186
0.140559 1.000000 0.689629
0.241162 1.000000 0.690724
0.368160 1.000000 0.693417
0.538108 1.000000 0.699920
0.757229 1.000000 0.714955
1.000000 0.991612 0.746491
0.000000 0.000000 1.000000
0.000000 0.000000 1.000000
0.000000 0.000000 1.000000
0.218400 0.000000 1.000000
0.527277 0.000000 1.000000
0.885157 0.000000 1.000000
1.000000 0.000000 1.000000
1.000000 0.000000 0.975933
1.000000 0.000000 0.797752
0.000000 0.000000 1.000000
0.000000 0.000000 1.000000
0.000000 0.000000 1.000000
0.205437 0.000000 1.000000
0.525279 0.000000 1.000000
0.883780 0.000000 1.000000
1.000000 0.000000 1.000000
1.000000 0.000000 0.974382
1.000000 0.000000 0.797324
0.000000 0.165262 1.000000
0.000000 0.161416 1.000000
0.000000 0.151090 1.000000
0.164341 0.117551 1.000000
0.519314 0.000000 1.000000
0.879843 0.000000 1.000000
1.000000 0.000000 1.000000
1.000000 0.000000 0.970613
1.000000 0.000000 0.796283
0.000000 0.322646 1.000000
0.000000 0.321438 1.000000
0.000000 0.318330 1.000000
0.000000 0.309746 1.000000
0.498855 0.283262 1.000000
0.867202 0.177760 1.000000
1.000000 0.000000 1.000000
1.000000 0.000000 0.961461
1.000000 0.000000 0.793766
0.000000 0.527133 1.000000
0.000000 0.526402 1.000000
0.000000 0.524555 1.000000
0.000000 0.519657 1.000000
0.421018 0.505862 1.000000
0.824228 0.465002 1.000000
1.000000 0.347980 1.000000
1.000000 0.000000 0.939976
1.000000 0.149420 0.787908
0.000000 0.777051 1.000000
0.000000 0.776168 1.000000
0.000000 0.773998 1.000000
0.000000 0.768581 1.000000
0.000000 0.754992 1.000000
0.692871 0.721234 1.000000
1.000000 0.643529 1.000000
1.000000 0.508427 0.893912
1.000000 0.433849 0.775587
0.000000 0.986517 0.949731
0.000000 0.985734 0.949208
0.000000 0.983816 0.947929
0.000000 0.979092 0.944782
0.000000 0.967571 0.937131
0.373150 0.940319 0.919175
0.880732 0.880732 0.880732
1.000000 0.773940 0.815600
1.000000 0.661101 0.755824
0.000000 1.000000 0.764745
0.000000 1.000000 0.764643
0.000000 1.000000 0.764393
0.000000 1.000000 0.763782
0.000000 1.000000 0.762308
0.000000 1.000000 0.758925
0.589844 1.000000 0.752091
0.971070 0.960596 0.742639
1.000000 0.861825 0.744239
0.000000 1.000000 0.742918
0.000000 1.000000 0.742956
0.065450 1.000000 0.743048
0.153017 1.000000 0.743277
0.246531 1.000000 0.743847
0.370159 1.000000 0.745266
0.537963 1.000000 0.748785
0.755567 1.000000 0.757416
1.000000 0.990369 0.777558
0.000000 0.000000 1.000000
0.000000 0.000000 1.000000
0.000000 0.000000 1.000000
0.000000 0.000000 1.000000
0.388174 0.000000 1.000000
0.815418 0.000000 1.000000
1.000000 0.000000 1.000000
1.000000 0.000000 1.000000
1.000000 0.000000 1.000000
0.000000 0.000000 1.000000
0.000000 0.000000 1.000000
0.000000 0.000000 1.000000
0.000000 0.000000 1.000000
0.381184 0.000000 1.000000
0.812307 0.000000 1.000000
1.000000 0.000000 1.000000
1.000000 0.000000 1.000000
1.000000 0.000000 1.000000
0.000000 0.097440 1.000000
0.000000 0.086939 1.000000
0.000000 0.046869 1.000000
0.000000 0.000000 1.000000
0.363101 0.000000 1.000000
0.804508 0.000000 1.000000
1.000000 0.000000 1.000000
1.000000 0.000000 1.000000
1.000000 0.000000 1.000000
0.000000 0.314077 1.000000
0.000000 0.312235 1.000000
0.000000 0.307637 1.000000
0.000000 0.295732 1.000000
0.311408 0.262824 1.000000
0.784304 0.142641 1.000000
1.000000 0.000000 1.000000
1.000000 0.000000 1.000000
1.000000 0.000000 1.000000
0.000000 0.517365 1.000000
0.000000 0.516324 1.000000
0.000000 0.513755 1.000000
0.000000 0.507287 1.000000
0.000000 0.490755 1.000000
0.730901 0.448085 1.000000
1.000000 0.341342 1.000000
1.000000 0.000000 1.000000
1.000000 0.223738 1.000000
0.000000 0.750413 1.000000
0.000000 0.749523 1.000000
0.000000 0.747342 1.000000
0.000000 0.741942 1.000000
0.000000 0.728642 1.000000
0.594100 0.696654 1.000000
1.000000 0.626006 1.000000
1.000000 0.507804 1.000000
1.000000 0.448477 1.000000
0.000000 0.956686 1.000000
0.000000 0.955973 1.000000
0.000000 0.954229 1.000000
0.000000 0.949933 1.000000
0.000000 0.939464 1.000000
0.247330 0.914730 1.000000
0.831438 0.860725 1.000000
1.000000 0.764039 1.000000
1.000000 0.662482 0.963262
0.000000 1.000000 1.000000
0.000000 1.000000 1.000000
0.000000 1.000000 1.000000
0.000000 1.000000 1.000000
0.000000 1.000000 1.000000
0.000000 1.000000 1.000000
0.568441 1.000000 0.995465
0.951219 0.951220 0.951219
1.000000 0.858559 0.889572
0.066257 1.000000 0.853752
0.089218 1.000000 0.853729
0.125091 1.000000 0.853674
0.179347 1.000000 0.853537
0.259426 1.000000 0.853203
0.375255 1.000000 0.852415
0.537797 1.000000 0.850705
0.751618 1.000000 0.847783
0.994614 0.987364 0.846175
0.000000 0.000000 1.000000
0.000000 0.000000 1.000000
0.000000 0.000000 1.000000
0.000000 0.000000 1.000000
0.000000 0.000000 1.000000
0.564920 0.000000 1.000000
1.000000 0.000000 1.000000
1.000000 0.000000 1.000000
1.000000 0.000000 1.000000
0.000000 0.000000 1.000000
0.000000 0.000000 1.000000
0.000000 0.000000 1.000000
0.000000 0.000000 1.000000
0.000000 0.000000 1.000000
0.560996 0.000000 1.000000
1.000000 0.000000 1.000000
1.000000 0.000000 1.000000
1.000000 0.000000 1.000000
0.000000 0.000000 1.000000
0.000000 0.000000 1.000000
0.000000 0.000000 1.000000
0.000000 0.000000 1.000000
0.000000 0.000000 1.000000
0.551356 0.000000 1.000000
1.000000 0.000000 1.000000
1.000000 0.000000 1.000000
1.000000 0.000000 1.000000
0.000000 0.276374 1.000000
0.000000 0.274671 1.000000
0.000000 0.270466 1.000000
0.000000 0.259836 1.000000
0.000000 0.231987 1.000000
0.527359 0.145073 1.000000
1.000000 0.000000 1.000000
1.000000 0.000000 1.000000
1.000000 0.195070 1.000000
0.000000 0.475432 1.000000
0.000000 0.474485 1.000000
0.000000 0.472165 1.000000
0.000000 0.466437 1.000000
0.000000 0.452405 1.000000
0.467112 0.418969 1.000000
0.982781 0.346003 1.000000
1.000000 0.238401 1.000000
1.000000 0.324163 1.000000
0.000000 0.690688 1.000000
0.000000 0.689962 1.000000
0.000000 0.688187 1.000000
0.000000 0.683819 1.000000
0.000000 0.673199 1.000000
0.304819 0.648300 1.000000
0.892392 0.595476 1.000000
1.000000 0.512232 1.000000
1.000000 0.480908 1.000000
0.000000 0.895786 1.000000
0.000000 0.895226 1.000000
0.000000 0.893857 1.000000
0.000000 0.890486 1.000000
0.000000 0.882272 1.000000
0.000000 0.862879 1.000000
0.722963 0.820567 1.000000
1.000000 0.744907 1.000000
1.000000 0.666825 1.000000
0.000000 1.000000 1.000000
0.000000 1.000000 1.000000
0.000000 1.000000 1.000000
0.000000 1.000000 1.000000
0.000000 1.000000 1.000000
0.000000 1.000000 1.000000
0.522014 0.984672 1.000000
0.906694 0.930791 1.000000
1.000000 0.851584 1.000000
0.175772 1.000000 1.000000
0.182480 1.000000 1.000000
0.197609 1.000000 1.000000
0.229393 1.000000 1.000000
0.289028 1.000000 1.000000
0.388480 1.000000 1.000000
0.538479 1.000000 1.000000
0.742896 1.000000 1.000000
0.980400 0.980400 0.980400
