post_production/PixelLog_to_DWG_Intermediate_65.cube
# PixelLog to DaVinci Wide Gamut / DaVinci Intermediate 3D LUT
# For DaVinci Resolve Free & Studio (enables built-in CST and DWG grading)
# Input: Pixel-Log BT.2020 [0, 1] -> Inverse -> BT.2020 to DWG -> DaVinci Intermediate Log
LUT_3D_SIZE 5
DOMAIN_MIN 0.0 0.0 0.0
DOMAIN_MAX 1.0 1.0 1.0
0.000000 0.000000 0.000000
0.202190 0.000000 0.000000
0.394131 0.000000 0.076824
0.560742 0.191209 0.283272
0.722845 0.369033 0.451954
0.000000 0.186057 0.000000
0.205576 0.191289 0.000000
0.394689 0.211308 0.116678
0.560858 0.272866 0.289928
0.722870 0.389771 0.453338
0.000000 0.380314 0.139442
0.219064 0.381165 0.155967
0.397068 0.384762 0.207274
0.561357 0.399831 0.314647
0.722978 0.450074 0.459115
0.152506 0.547279 0.329000
0.265298 0.547455 0.331937
0.407325 0.548211 0.343755
0.563610 0.551608 0.385515
0.723471 0.565906 0.482158
0.336788 0.709454 0.495240
0.367225 0.709492 0.495856
0.444654 0.709656 0.498477
0.573358 0.710403 0.509712
0.725699 0.713759 0.549847
0.000000 0.000000 0.192305
0.213370 0.000000 0.202633
0.396033 0.068465 0.238339
0.561139 0.216358 0.326979
0.722931 0.374188 0.462400
0.000000 0.212318 0.207412
0.216422 0.216422 0.216422
0.396582 0.232510 0.248356
0.561254 0.285230 0.331428
0.722956 0.394026 0.463655
0.000000 0.384958 0.255426
0.228667 0.385773 0.261236
0.398919 0.389219 0.283192
0.561751 0.403707 0.348738
0.723064 0.452501 0.468908
0.169865 0.548253 0.359326
0.271599 0.548428 0.361539
0.409006 0.549177 0.370591
0.563996 0.552544 0.404320
0.723556 0.566723 0.490104
0.340039 0.709665 0.502291
0.369673 0.709703 0.502868
0.445838 0.709866 0.505322
0.573709 0.710612 0.515887
0.725782 0.713962 0.554110
0.105751 0.211838 0.385629
0.251422 0.215961 0.387358
0.403875 0.232114 0.394514
0.562833 0.284990 0.422228
0.723300 0.393940 0.498436
0.113987 0.282898 0.388207
0.253560 0.285023 0.389895
0.404385 0.293737 0.396886
0.562947 0.326426 0.424058
0.723325 0.410651 0.499330
0.143623 0.402952 0.398665
0.262324 0.403639 0.400195
0.406557 0.406557 0.406557
0.563436 0.418977 0.431613
0.723433 0.462380 0.503105
0.223046 0.552359 0.436581
0.295170 0.552527 0.437652
0.415971 0.553248 0.442156
0.565646 0.556490 0.460635
0.723923 0.570182 0.518856
0.353030 0.710571 0.528266
0.379633 0.710608 0.528718
0.450802 0.710770 0.530645
0.575215 0.711510 0.539046
0.726142 0.714832 0.570764
0.303490 0.389517 0.552453
0.343290 0.390297 0.552812
0.433818 0.393601 0.554349
0.570264 0.407538 0.561116
0.724975 0.454932 0.587541
0.304801 0.406886 0.552990
0.344192 0.407548 0.553347
0.434202 0.410361 0.554877
0.570369 0.422366 0.561611
0.724999 0.464641 0.587927
0.310285 0.460088 0.555279
0.348000 0.460489 0.555629
0.435845 0.462203 0.557126
0.570825 0.469716 0.563723
0.725105 0.498598 0.589577
0.332299 0.569361 0.565171
0.363878 0.569503 0.565489
0.443057 0.570118 0.566854
0.572887 0.572887 0.572887
0.725588 0.584719 0.596820
0.397960 0.714623 0.601427
0.416091 0.714659 0.601653
0.470960 0.714815 0.602624
0.581850 0.715527 0.606961
0.727772 0.718727 0.624822
0.470968 0.553747 0.714599
0.480445 0.553913 0.714677
0.513741 0.554625 0.715011
0.598878 0.557825 0.716529
0.732321 0.571356 0.723217
0.471238 0.557668 0.714715
0.480693 0.557827 0.714793
0.513921 0.558513 0.715127
0.598959 0.561599 0.716643
0.732344 0.574684 0.723324
0.472398 0.573098 0.715215
0.481754 0.573236 0.715292
0.514697 0.573829 0.715625
0.599307 0.576505 0.717135
0.732442 0.587959 0.723785
0.477553 0.624229 0.717476
0.486482 0.624314 0.717551
0.518180 0.624681 0.717877
0.600886 0.626343 0.719355
0.732893 0.633636 0.725872
0.498398 0.731422 0.727252
0.505784 0.731453 0.727321
0.532811 0.731586 0.727618
0.607830 0.732194 0.728966
0.734933 0.734933 0.734933
