post_production/PixelLog_to_ACEScg_65.cube
# PixelLog to ACEScg (AP1) Scene-Linear 3D LUT
# For ACEScg VFX pipelines and DaVinci Resolve Free ACES grading
# Input: Pixel-Log BT.2020 [0, 1] -> Inverse -> BT.2020 to ACEScg (AP1) Linear
LUT_3D_SIZE 65
DOMAIN_MIN 0.0 0.0 0.0
DOMAIN_MAX 1.0 1.0 1.0
0.000000 0.000000 0.000000
0.000000 0.000000 0.000000
0.000000 0.000000 0.000000
0.000000 0.000000 0.000000
0.000000 0.000000 0.000000
0.000000 0.000000 0.000000
0.000000 0.000000 0.000000
0.000000 0.000000 0.000000
0.000000 0.000000 0.000000
0.000299 0.000000 0.000000
0.002976 0.000000 0.000000
0.005919 0.000000 0.000000
0.009157 0.000000 0.000000
0.012717 0.000000 0.000000
0.016632 0.000000 0.000000
0.020938 0.000000 0.000000
0.025674 0.000000 0.000000
0.030882 0.000000 0.000000
0.036610 0.000000 0.000000
0.042909 0.000000 0.000000
0.049836 0.000000 0.000000
0.057455 0.000000 0.000000
0.065834 0.000000 0.000000
0.075049 0.000000 0.000000
0.085184 0.000000 0.000000
0.096329 0.000000 0.000000
0.108586 0.000000 0.000000
0.122067 0.000000 0.000000
0.136892 0.000077 0.000000
0.153196 0.001943 0.000000
0.171127 0.003996 0.000000
0.190848 0.006254 0.000000
0.212535 0.008737 0.000000
0.236386 0.011468 0.000000
0.262617 0.014471 0.000000
0.291466 0.017774 0.000000
0.323192 0.021406 0.000000
0.358084 0.025401 0.000000
0.396456 0.029794 0.000000
0.438658 0.034626 0.000000
0.485069 0.039940 0.000000
0.536112 0.045784 0.001007
0.592246 0.052211 0.002894
0.653982 0.059279 0.004970
0.721876 0.067052 0.007253
0.796545 0.075601 0.009764
0.878663 0.085003 0.012526
0.968975 0.095343 0.015562
1.068297 0.106714 0.018902
1.177528 0.119220 0.022575
1.297657 0.132974 0.026615
1.429771 0.148100 0.031057
1.575067 0.164735 0.035943
1.734859 0.183029 0.041316
1.910593 0.203149 0.047225
2.103861 0.225277 0.053724
2.316411 0.249612 0.060871
2.550167 0.276375 0.068732
2.807245 0.305808 0.077376
3.089973 0.338177 0.086883
3.400907 0.373777 0.097338
3.742864 0.412928 0.108837
4.118939 0.455985 0.121483
4.532534 0.503338 0.135391
4.987394 0.555415 0.150686
0.000000 0.000000 0.000000
0.000000 0.000000 0.000000
0.000000 0.000000 0.000000
0.000000 0.000000 0.000000
0.000000 0.000000 0.000000
0.000000 0.000000 0.000000
0.000000 0.000000 0.000000
0.000000 0.000000 0.000000
0.000000 0.000000 0.000000
0.001338 0.000000 0.000000
0.004014 0.000000 0.000000
0.006958 0.000000 0.000000
0.010195 0.000000 0.000000
0.013755 0.000000 0.000000
0.017670 0.000000 0.000000
0.021976 0.000000 0.000000
0.026712 0.000000 0.000000
0.031920 0.000000 0.000000
0.037648 0.000000 0.000000
0.043947 0.000000 0.000000
0.050875 0.000000 0.000000
0.058493 0.000000 0.000000
0.066872 0.000000 0.000000
0.076087 0.000000 0.000000
0.086222 0.000000 0.000000
0.097367 0.000000 0.000000
0.109625 0.000000 0.000000
0.123105 0.001181 0.000000
0.137930 0.002879 0.000000
0.154235 0.004745 0.000000
0.172166 0.006798 0.000000
0.191886 0.009056 0.000000
0.213573 0.011539 0.000000
0.237425 0.014270 0.000000
0.263656 0.017273 0.000000
0.292504 0.020576 0.000000
0.324230 0.024208 0.000000
0.359122 0.028203 0.000000
0.397495 0.032596 0.000000
0.439696 0.037428 0.000000
0.486108 0.042742 0.000000
0.537150 0.048586 0.001342
0.593285 0.055013 0.003229
0.655020 0.062081 0.005305
0.722915 0.069854 0.007588
0.797583 0.078403 0.010099
0.879702 0.087805 0.012861
0.970013 0.098145 0.015897
1.069335 0.109516 0.019237
1.178566 0.122022 0.022910
1.298695 0.135776 0.026950
1.430810 0.150902 0.031392
1.576105 0.167537 0.036278
1.735897 0.185831 0.041651
1.911632 0.205951 0.047560
2.104899 0.228079 0.054059
2.317449 0.252414 0.061206
2.551205 0.279177 0.069067
2.808284 0.308610 0.077711
3.091011 0.340979 0.087218
3.401946 0.376579 0.097674
3.743903 0.415730 0.109172
4.119977 0.458787 0.121818
4.533572 0.506140 0.135726
4.988432 0.558217 0.151021
0.000000 0.000000 0.000000
0.000000 0.000000 0.000000
0.000000 0.000000 0.000000
0.000000 0.000000 0.000000
0.000000 0.000000 0.000000
0.000000 0.000000 0.000000
0.000000 0.000000 0.000000
0.000000 0.000000 0.000000
0.000000 0.000000 0.000000
0.002376 0.000000 0.000000
0.005052 0.000000 0.000000
0.007996 0.000000 0.000000
0.011233 0.000000 0.000000
0.014793 0.000000 0.000000
0.018709 0.000000 0.000000
0.023015 0.000000 0.000000
0.027750 0.000000 0.000000
0.032958 0.000000 0.000000
0.038686 0.000000 0.000000
0.044985 0.000000 0.000000
0.051913 0.000000 0.000000
0.059532 0.000000 0.000000
0.067911 0.000000 0.000000
0.077126 0.000000 0.000000
0.087260 0.000000 0.000000
0.098405 0.001037 0.000000
0.110663 0.002440 0.000000
0.124143 0.003983 0.000000
0.138968 0.005681 0.000000
0.155273 0.007547 0.000000
0.173204 0.009600 0.000000
0.192924 0.011858 0.000000
0.214611 0.014341 0.000000
0.238463 0.017072 0.000000
0.264694 0.020075 0.000000
0.293542 0.023378 0.000000
0.325268 0.027010 0.000000
0.360160 0.031005 0.000000
0.398533 0.035398 0.000000
0.440734 0.040230 0.000000
0.487146 0.045544 0.000000
0.538188 0.051388 0.001677
0.594323 0.057815 0.003565
0.656058 0.064883 0.005640
0.723953 0.072656 0.007923
0.798621 0.081205 0.010434
0.880740 0.090607 0.013196
0.971051 0.100947 0.016232
1.070373 0.112318 0.019572
1.179604 0.124824 0.023245
1.299733 0.138578 0.027285
1.431848 0.153704 0.031727
1.577143 0.170339 0.036613
1.736935 0.188633 0.041986
1.912670 0.208753 0.047895
2.105937 0.230881 0.054394
2.318487 0.255216 0.061541
2.552244 0.281979 0.069402
2.809322 0.311412 0.078046
3.092049 0.343781 0.087553
3.402984 0.379381 0.098009
3.744941 0.418532 0.109507
4.121015 0.461589 0.122153
4.534610 0.508942 0.136061
4.989471 0.561019 0.151356
0.000000 0.000000 0.000000
0.000000 0.000000 0.000000
0.000000 0.000000 0.000000
0.000000 0.000000 0.000000
0.000000 0.000000 0.000000
0.000000 0.000000 0.000000
0.000000 0.000000 0.000000
0.000000 0.000000 0.000000
0.000980 0.000000 0.000000
0.003414 0.000000 0.000000
0.006090 0.000000 0.000000
0.009034 0.000000 0.000000
0.012271 0.000000 0.000000
0.015831 0.000000 0.000000
0.019747 0.000000 0.000000
0.024053 0.000000 0.000000
0.028788 0.000000 0.000000
0.033996 0.000000 0.000000
0.039724 0.000000 0.000000
0.046023 0.000000 0.000000
0.052951 0.000000 0.000000
0.060570 0.000000 0.000000
0.068949 0.000347 0.000000
0.078164 0.001402 0.000000
0.088298 0.002563 0.000000
0.099443 0.003839 0.000000
0.111701 0.005242 0.000000
0.125181 0.006785 0.000000
0.140006 0.008483 0.000000
0.156311 0.010349 0.000000
0.174242 0.012402 0.000000
0.193962 0.014660 0.000000
0.215650 0.017143 0.000000
0.239501 0.019874 0.000000
0.265732 0.022877 0.000000
0.294580 0.026180 0.000000
0.326306 0.029812 0.000000
0.361198 0.033807 0.000000
0.399571 0.038200 0.000000
0.441772 0.043032 0.000000
0.488184 0.048346 0.000296
0.539226 0.054190 0.002012
0.595361 0.060617 0.003900
0.657096 0.067685 0.005975
0.724991 0.075458 0.008259
0.799660 0.084007 0.010769
0.881778 0.093409 0.013531
0.972089 0.103749 0.016567
1.071411 0.115120 0.019907
1.180642 0.127626 0.023580
1.300771 0.141380 0.027620
1.432886 0.156506 0.032062
1.578182 0.173141 0.036948
1.737974 0.191435 0.042321
1.913708 0.211555 0.048230
2.106976 0.233683 0.054729
2.319526 0.258018 0.061876
2.553282 0.284781 0.069737
2.810360 0.314214 0.078381
3.093087 0.346583 0.087888
3.404022 0.382183 0.098344
3.745979 0.421334 0.109842
4.122053 0.464391 0.122488
4.535649 0.511743 0.136396
4.990509 0.563821 0.151691
0.000000 0.000000 0.000000
0.000000 0.000000 0.000000
0.000000 0.000000 0.000000
0.000000 0.000000 0.000000
0.000000 0.000000 0.000000
0.000000 0.000000 0.000000
0.000000 0.000000 0.000000
0.000000 0.000000 0.000000
0.002018 0.000000 0.000000
0.004452 0.000000 0.000000
0.007129 0.000000 0.000000
0.010072 0.000000 0.000000
0.013309 0.000000 0.000000
0.016870 0.000000 0.000000
0.020785 0.000000 0.000000
0.025091 0.000000 0.000000
0.029827 0.000000 0.000000
0.035035 0.000000 0.000000
0.040762 0.000000 0.000000
0.047062 0.000524 0.000000
0.053989 0.001318 0.000000
0.061608 0.002190 0.000000
0.069987 0.003149 0.000000
0.079202 0.004204 0.000000
0.089336 0.005365 0.000000
0.100482 0.006641 0.000000
0.112739 0.008044 0.000000
0.126219 0.009587 0.000000
0.141045 0.011285 0.000000
0.157349 0.013151 0.000000
0.175280 0.015204 0.000000
0.195000 0.017462 0.000000
0.216688 0.019945 0.000000
0.240539 0.022676 0.000000
0.266770 0.025679 0.000000
0.295618 0.028982 0.000000
0.327345 0.032614 0.000000
0.362236 0.036609 0.000000
0.400609 0.041002 0.000000
0.442810 0.045834 0.000000
0.489222 0.051148 0.000631
0.540264 0.056992 0.002347
0.596399 0.063419 0.004235
0.658134 0.070487 0.006311
0.726029 0.078260 0.008594
0.800698 0.086809 0.011104
0.882816 0.096211 0.013866
0.973127 0.106551 0.016902
1.072449 0.117922 0.020242
1.181680 0.130428 0.023915
1.301810 0.144182 0.027955
1.433924 0.159308 0.032397
1.579220 0.175943 0.037283
1.739012 0.194237 0.042656
1.914746 0.214357 0.048565
2.108014 0.236485 0.055064
2.320564 0.260820 0.062211
2.554320 0.287583 0.070072
2.811398 0.317016 0.078716
3.094125 0.349385 0.088223
3.405060 0.384985 0.098679
3.747017 0.424136 0.110177
4.123091 0.467193 0.122823
4.536687 0.514545 0.136731
4.991547 0.566623 0.152026
0.000000 0.000000 0.000000
0.000000 0.000000 0.000000
0.000000 0.000000 0.000000
0.000000 0.000000 0.000000
0.000000 0.000000 0.000000
0.000000 0.000000 0.000000
0.000000 0.000000 0.000000
0.000844 0.000000 0.000000
0.003057 0.000000 0.000000
0.005490 0.000000 0.000000
0.008167 0.000000 0.000000
0.011110 0.000000 0.000000
0.014348 0.000000 0.000000
0.017908 0.000000 0.000000
0.021823 0.000318 0.000000
0.026129 0.000811 0.000000
0.030865 0.001353 0.000000
0.036073 0.001949 0.000000
0.041801 0.002605 0.000000
0.048100 0.003326 0.000000
0.055027 0.004120 0.000000
0.062646 0.004992 0.000000
0.071025 0.005951 0.000000
0.080240 0.007006 0.000000
0.090374 0.008166 0.000000
0.101520 0.009443 0.000000
0.113777 0.010846 0.000000
0.127258 0.012389 0.000000
0.142083 0.014087 0.000000
0.158387 0.015953 0.000000
0.176318 0.018006 0.000000
0.196038 0.020264 0.000000
0.217726 0.022747 0.000000
0.241577 0.025478 0.000000
0.267808 0.028481 0.000000
0.296656 0.031784 0.000000
0.328383 0.035416 0.000000
0.363274 0.039411 0.000000
0.401647 0.043804 0.000000
0.443848 0.048636 0.000000
0.490260 0.053950 0.000966
0.541302 0.059794 0.002682
0.597437 0.066221 0.004570
0.659173 0.073289 0.006646
0.727067 0.081062 0.008929
0.801736 0.089611 0.011439
0.883854 0.099013 0.014201
0.974166 0.109352 0.017238
1.073487 0.120724 0.020577
1.182719 0.133230 0.024250
1.302848 0.146984 0.028290
1.434962 0.162109 0.032732
1.580258 0.178745 0.037618
1.740050 0.197039 0.042991
1.915784 0.217159 0.048900
2.109052 0.239287 0.055399
2.321602 0.263622 0.062546
2.555358 0.290385 0.070407
2.812436 0.319818 0.079051
3.095163 0.352187 0.088558
3.406098 0.387787 0.099014
3.748055 0.426938 0.110512
4.124130 0.469995 0.123158
4.537725 0.517347 0.137066
4.992585 0.569425 0.152361
0.000000 0.000000 0.000000
0.000000 0.000000 0.000000
0.000000 0.000000 0.000000
0.000000 0.000000 0.000000
0.000000 0.000066 0.000000
0.000000 0.000280 0.000000
0.000000 0.000495 0.000000
0.001885 0.000726 0.000000
0.004098 0.000979 0.000000
0.006531 0.001258 0.000000
0.009208 0.001564 0.000000
0.012151 0.001901 0.000000
0.015389 0.002272 0.000000
0.018949 0.002679 0.000000
0.022864 0.003128 0.000000
0.027170 0.003621 0.000000
0.031906 0.004163 0.000000
0.037114 0.004759 0.000000
0.042842 0.005415 0.000000
0.049141 0.006136 0.000000
0.056068 0.006929 0.000000
0.063687 0.007802 0.000000
0.072066 0.008761 0.000000
0.081281 0.009816 0.000000
0.091415 0.010976 0.000000
0.102561 0.012252 0.000000
0.114818 0.013656 0.000000
0.128299 0.015199 0.000000
0.143124 0.016896 0.000000
0.159428 0.018763 0.000000
0.177359 0.020816 0.000000
0.197079 0.023074 0.000000
0.218767 0.025557 0.000000
0.242618 0.028288 0.000000
0.268849 0.031291 0.000000
0.297698 0.034594 0.000000
0.329424 0.038226 0.000000
0.364315 0.042221 0.000000
0.402688 0.046614 0.000000
0.444890 0.051446 0.000000
0.491301 0.056759 0.001302
0.542344 0.062603 0.003018
0.598478 0.069030 0.004906
0.660214 0.076098 0.006982
0.728108 0.083872 0.009265
0.802777 0.092421 0.011775
0.884895 0.101822 0.014537
0.975207 0.112162 0.017573
1.074528 0.123534 0.020913
1.183760 0.136040 0.024586
1.303889 0.149793 0.028626
1.436003 0.164919 0.033068
1.581299 0.181554 0.037954
1.741091 0.199849 0.043327
1.916825 0.219969 0.049236
2.110093 0.242096 0.055735
2.322643 0.266431 0.062882
2.556399 0.293194 0.070743
2.813477 0.322627 0.079387
3.096204 0.354997 0.088894
3.407139 0.390596 0.099350
3.749096 0.429747 0.110848
4.125171 0.472804 0.123494
4.538766 0.520157 0.137402
4.993626 0.572234 0.152697
0.000000 0.002214 0.000000
0.000000 0.002429 0.000000
0.000000 0.002644 0.000000
0.000000 0.002858 0.000000
0.000000 0.003073 0.000000
0.000000 0.003288 0.000000
0.000987 0.003503 0.000000
0.002999 0.003733 0.000000
0.005212 0.003987 0.000000
0.007646 0.004265 0.000000
0.010322 0.004572 0.000000
0.013266 0.004909 0.000000
0.016503 0.005279 0.000000
0.020063 0.005687 0.000000
0.023978 0.006135 0.000000
0.028284 0.006628 0.000000
0.033020 0.007170 0.000000
0.038228 0.007767 0.000000
0.043956 0.008422 0.000000
0.050255 0.009144 0.000000
0.057183 0.009937 0.000000
0.064802 0.010809 0.000000
0.073181 0.011768 0.000000
0.082395 0.012823 0.000000
0.092530 0.013984 0.000000
0.103675 0.015260 0.000000
0.115933 0.016663 0.000000
0.129413 0.018206 0.000000
0.144238 0.019904 0.000000
0.160543 0.021770 0.000000
0.178474 0.023823 0.000000
0.198194 0.026081 0.000000
0.219881 0.028564 0.000000
0.243733 0.031295 0.000000
0.269964 0.034298 0.000000
0.298812 0.037601 0.000000
0.330538 0.041233 0.000000
0.365430 0.045228 0.000000
0.403803 0.049622 0.000000
0.446004 0.054453 0.000101
0.492416 0.059767 0.001661
0.543458 0.065611 0.003378
0.599593 0.072038 0.005265
0.661328 0.079106 0.007341
0.729223 0.086879 0.009624
0.803891 0.095428 0.012135
0.886010 0.104830 0.014896
0.976321 0.115170 0.017933
1.075643 0.126541 0.021273
1.184874 0.139047 0.024946
1.305003 0.152801 0.028985
1.437118 0.167927 0.033428
1.582413 0.184562 0.038314
1.742205 0.202856 0.043687
1.917940 0.222976 0.049596
2.111207 0.245104 0.056095
2.323757 0.269439 0.063242
2.557513 0.296202 0.071102
2.814592 0.325635 0.079747
3.097319 0.358004 0.089254
3.408254 0.393604 0.099709
3.750211 0.432755 0.111208
4.126285 0.475812 0.123854
4.539880 0.523165 0.137761
4.994740 0.575242 0.153056
0.000000 0.005522 0.000000
0.000000 0.005736 0.000000
0.000000 0.005951 0.000000
0.000000 0.006166 0.000000
0.000000 0.006380 0.000000
0.000333 0.006595 0.000000
0.002212 0.006810 0.000000
0.004225 0.007041 0.000000
0.006437 0.007294 0.000000
0.008871 0.007573 0.000000
0.011548 0.007879 0.000000
0.014491 0.008216 0.000000
0.017728 0.008587 0.000000
0.021289 0.008994 0.000000
0.025204 0.009443 0.000000
0.029510 0.009936 0.000000
0.034246 0.010478 0.000000
0.039454 0.011074 0.000000
0.045181 0.011730 0.000000
0.051481 0.012451 0.000000
0.058408 0.013244 0.000000
0.066027 0.014116 0.000000
0.074406 0.015076 0.000000
0.083621 0.016131 0.000000
0.093755 0.017291 0.000000
0.104901 0.018567 0.000000
0.117158 0.019970 0.000000
0.130638 0.021514 0.000000
0.145464 0.023211 0.000000
0.161768 0.025078 0.000000
0.179699 0.027131 0.000000
0.199419 0.029389 0.000000
0.221107 0.031872 0.000000
0.244958 0.034602 0.000000
0.271189 0.037606 0.000000
0.300037 0.040908 0.000000
0.331764 0.044541 0.000000
0.366655 0.048536 0.000000
0.405028 0.052929 0.000000
0.447229 0.057761 0.000496
0.493641 0.063074 0.002057
0.544683 0.068918 0.003773
0.600818 0.075345 0.005661
0.662553 0.082413 0.007737
0.730448 0.090187 0.010020
0.805117 0.098735 0.012530
0.887235 0.108137 0.015292
0.977546 0.118477 0.018329
1.076868 0.129849 0.021668
1.186099 0.142354 0.025341
1.306229 0.156108 0.029381
1.438343 0.171234 0.033823
1.583639 0.187869 0.038709
1.743431 0.206164 0.044082
1.919165 0.226284 0.049991
2.112433 0.248411 0.056490
2.324983 0.272746 0.063637
2.558739 0.299509 0.071498
2.815817 0.328942 0.080142
3.098544 0.361312 0.089649
3.409479 0.396911 0.100105
3.751436 0.436062 0.111603
4.127510 0.479119 0.124249
4.541106 0.526472 0.138157
4.995966 0.578549 0.153452
0.000000 0.009159 0.000000
0.000000 0.009374 0.000000
0.000000 0.009589 0.000000
0.000000 0.009803 0.000000
0.000000 0.010018 0.000000
0.001680 0.010232 0.000000
0.003560 0.010448 0.000000
0.005572 0.010678 0.000000
0.007785 0.010931 0.000000
0.010219 0.011210 0.000000
0.012895 0.011517 0.000000
0.015839 0.011854 0.000000
0.019076 0.012224 0.000000
0.022636 0.012632 0.000000
0.026552 0.013080 0.000000
0.030858 0.013573 0.000000
0.035593 0.014115 0.000000
0.040801 0.014711 0.000000
0.046529 0.015367 0.000000
0.052828 0.016088 0.000000
0.059756 0.016882 0.000000
0.067375 0.017754 0.000000
0.075754 0.018713 0.000000
0.084969 0.019768 0.000000
0.095103 0.020929 0.000000
0.106248 0.022205 0.000000
0.118506 0.023608 0.000000
0.131986 0.025151 0.000000
0.146811 0.026849 0.000000
0.163116 0.028715 0.000000
0.181047 0.030768 0.000000
0.200767 0.033026 0.000000
0.222455 0.035509 0.000000
0.246306 0.038240 0.000000
0.272537 0.041243 0.000000
0.301385 0.044546 0.000000
0.333111 0.048178 0.000000
0.368003 0.052173 0.000000
0.406376 0.056566 0.000000
0.448577 0.061398 0.000931
0.494989 0.066712 0.002492
0.546031 0.072556 0.004208
0.602166 0.078983 0.006096
0.663901 0.086051 0.008172
0.731796 0.093824 0.010455
0.806464 0.102373 0.012965
0.888583 0.111775 0.015727
0.978894 0.122115 0.018763
1.078216 0.133486 0.022103
1.187447 0.145992 0.025776
1.307576 0.159746 0.029816
1.439691 0.174872 0.034258
1.584987 0.191507 0.039144
1.744778 0.209801 0.044517
1.920513 0.229921 0.050426
2.113780 0.252049 0.056925
2.326330 0.276384 0.064072
2.560087 0.303147 0.071933
2.817165 0.332580 0.080577
3.099892 0.364949 0.090084
3.410827 0.400549 0.100540
3.752784 0.439700 0.112038
4.128858 0.482757 0.124684
4.542454 0.530110 0.138592
4.997314 0.582187 0.153887
0.000000 0.013160 0.000000
0.000000 0.013374 0.000000
0.000000 0.013589 0.000000
0.000000 0.013804 0.000000
0.001288 0.014018 0.000000
0.003162 0.014233 0.000000
0.005042 0.014448 0.000000
0.007054 0.014678 0.000000
0.009267 0.014932 0.000000
0.011701 0.015210 0.000000
0.014378 0.015517 0.000000
0.017321 0.015854 0.000000
0.020558 0.016225 0.000000
0.024118 0.016632 0.000000
0.028034 0.017080 0.000000
0.032340 0.017573 0.000000
0.037075 0.018116 0.000000
0.042284 0.018712 0.000000
0.048011 0.019368 0.000000
0.054310 0.020089 0.000000
0.061238 0.020882 0.000000
0.068857 0.021754 0.000000
0.077236 0.022714 0.000000
0.086451 0.023769 0.000000
0.096585 0.024929 0.000000
0.107731 0.026205 0.000000
0.119988 0.027608 0.000000
0.133468 0.029152 0.000000
0.148294 0.030849 0.000000
0.164598 0.032716 0.000000
0.182529 0.034769 0.000000
0.202249 0.037026 0.000000
0.223937 0.039509 0.000000
0.247788 0.042240 0.000000
0.274019 0.045243 0.000000
0.302867 0.048546 0.000000
0.334593 0.052179 0.000000
0.369485 0.056173 0.000000
0.407858 0.060567 0.000000
0.450059 0.065398 0.001409
0.496471 0.070712 0.002970
0.547513 0.076556 0.004686
0.603648 0.082983 0.006574
0.665383 0.090051 0.008650
0.733278 0.097824 0.010933
0.807947 0.106373 0.013444
0.890065 0.115775 0.016205
0.980376 0.126115 0.019242
1.079698 0.137486 0.022582
1.188929 0.149992 0.026255
1.309058 0.163746 0.030294
1.441173 0.178872 0.034737
1.586469 0.195507 0.039622
1.746261 0.213802 0.044995
1.921995 0.233922 0.050905
2.115263 0.256049 0.057404
2.327813 0.280384 0.064551
2.561569 0.307147 0.072411
2.818647 0.336580 0.081056
3.101374 0.368950 0.090563
3.412309 0.404549 0.101018
3.754266 0.443700 0.112517
4.130340 0.486757 0.125163
4.543936 0.534110 0.139070
4.998796 0.586187 0.154365
0.000000 0.017559 0.000000
0.000000 0.017774 0.000000
0.000000 0.017988 0.000000
0.001043 0.018203 0.000000
0.002918 0.018418 0.000000
0.004793 0.018632 0.000000
0.006672 0.018848 0.000000
0.008685 0.019078 0.000000
0.010897 0.019331 0.000000
0.013331 0.019610 0.000000
0.016008 0.019916 0.000000
0.018951 0.020253 0.000000
0.022188 0.020624 0.000000
0.025749 0.021032 0.000000
0.029664 0.021480 0.000000
0.033970 0.021973 0.000000
0.038706 0.022515 0.000000
0.043914 0.023111 0.000000
0.049641 0.023767 0.000000
0.055941 0.024488 0.000000
0.062868 0.025281 0.000000
0.070487 0.026154 0.000000
0.078866 0.027113 0.000000
0.088081 0.028168 0.000000
0.098215 0.029328 0.000000
0.109361 0.030604 0.000000
0.121618 0.032008 0.000000
0.135098 0.033551 0.000000
0.149924 0.035249 0.000000
0.166228 0.037115 0.000000
0.184159 0.039168 0.000000
0.203879 0.041426 0.000000
0.225567 0.043909 0.000000
0.249418 0.046640 0.000000
0.275649 0.049643 0.000000
0.304497 0.052946 0.000000
0.336224 0.056578 0.000000
0.371115 0.060573 0.000000
0.409488 0.064966 0.000516
0.451689 0.069798 0.001935
0.498101 0.075112 0.003496
0.549143 0.080956 0.005212
0.605278 0.087382 0.007100
0.667013 0.094451 0.009176
0.734908 0.102224 0.011459
0.809577 0.110773 0.013970
0.891695 0.120175 0.016731
0.982006 0.130514 0.019768
1.081328 0.141886 0.023108
1.190559 0.154392 0.026781
1.310689 0.168145 0.030820
1.442803 0.183271 0.035263
1.588099 0.199906 0.040148
1.747891 0.218201 0.045522
1.923625 0.238321 0.051431
2.116893 0.260448 0.057930
2.329443 0.284784 0.065077
2.563199 0.311546 0.072937
2.820277 0.340980 0.081582
3.103004 0.373349 0.091089
3.413939 0.408948 0.101544
3.755896 0.448099 0.113043
4.131970 0.491156 0.125689
4.545566 0.538509 0.139596
5.000426 0.590587 0.154891
0.000000 0.022398 0.000000
0.000000 0.022612 0.000000
0.000961 0.022827 0.000000
0.002836 0.023041 0.000000
0.004711 0.023256 0.000000
0.006585 0.023471 0.000000
0.008465 0.023686 0.000000
0.010477 0.023916 0.000000
0.012690 0.024170 0.000000
0.015124 0.024448 0.000000
0.017800 0.024755 0.000000
0.020744 0.025092 0.000000
0.023981 0.025462 0.000000
0.027541 0.025870 0.000000
0.031457 0.026318 0.000000
0.035763 0.026811 0.000000
0.040498 0.027353 0.000000
0.045706 0.027950 0.000000
0.051434 0.028606 0.000000
0.057733 0.029327 0.000000
0.064661 0.030120 0.000000
0.072280 0.030992 0.000000
0.080659 0.031951 0.000000
0.089874 0.033006 0.000000
0.100008 0.034167 0.000000
0.111153 0.035443 0.000000
0.123411 0.036846 0.000000
0.136891 0.038390 0.000000
0.151716 0.040087 0.000000
0.168021 0.041954 0.000000
0.185952 0.044007 0.000000
0.205672 0.046264 0.000000
0.227360 0.048747 0.000000
0.251211 0.051478 0.000000
0.277442 0.054481 0.000000
0.306290 0.057784 0.000000
0.338016 0.061417 0.000000
0.372908 0.065411 0.000000
0.411281 0.069805 0.001095
0.453482 0.074636 0.002514
0.499894 0.079950 0.004075
0.550936 0.085794 0.005791
0.607071 0.092221 0.007679
0.668806 0.099289 0.009754
0.736701 0.107062 0.012037
0.811369 0.115611 0.014548
0.893488 0.125013 0.017310
0.983799 0.135353 0.020346
1.083121 0.146724 0.023686
1.192352 0.159230 0.027359
1.312481 0.172984 0.031399
1.444596 0.188110 0.035841
1.589891 0.204745 0.040727
1.749683 0.223040 0.046100
1.925418 0.243160 0.052009
2.118685 0.265287 0.058508
2.331235 0.289622 0.065655
2.564992 0.316385 0.073516
2.822070 0.345818 0.082160
3.104797 0.378188 0.091667
3.415732 0.413787 0.102123
3.757689 0.452938 0.113621
4.133763 0.495995 0.126267
4.547359 0.543348 0.140175
5.002219 0.595425 0.155470
0.000000 0.027719 0.000000
0.001058 0.027933 0.000000
0.002933 0.028148 0.000000
0.004807 0.028363 0.000000
0.006682 0.028577 0.000000
0.008557 0.028792 0.000000
0.010437 0.029007 0.000000
0.012449 0.029237 0.000000
0.014662 0.029491 0.000000
0.017095 0.029769 0.000000
0.019772 0.030076 0.000000
0.022715 0.030413 0.000000
0.025953 0.030784 0.000000
0.029513 0.031191 0.000000
0.033428 0.031639 0.000000
0.037734 0.032132 0.000000
0.042470 0.032675 0.000000
0.047678 0.033271 0.000000
0.053406 0.033927 0.000000
0.059705 0.034648 0.000000
0.066632 0.035441 0.000000
0.074251 0.036313 0.000000
0.082630 0.037273 0.000000
0.091845 0.038328 0.000000
0.101979 0.039488 0.000000
0.113125 0.040764 0.000000
0.125382 0.042167 0.000000
0.138863 0.043711 0.000000
0.153688 0.045408 0.000000
0.169992 0.047275 0.000000
0.187923 0.049328 0.000000
0.207643 0.051585 0.000000
0.229331 0.054069 0.000000
0.253182 0.056799 0.000000
