post_production/PixelLog_to_Rec709_Display_65.cube
# PixelLog to Rec.709 Display Transform 3D LUT
# Target Device: Google Pixel 11 Pro Primary Sensor (Tensor G6)
# Transform: Pixel-Log BT.2020 -> Scene-Linear -> BT.2020 to Rec.709 -> Rational Tone Map -> Rec.709 OETF
# Middle Grey (0.40) -> 42.0 IRE | Diffuse White (1.0) -> 90.0 IRE | Highlight Ceiling -> 99.8 IRE
LUT_3D_SIZE 9
DOMAIN_MIN 0.0 0.0 0.0
DOMAIN_MAX 1.0 1.0 1.0
0.000000 0.000000 0.000000
0.000000 0.000000 0.000000
0.221959 0.000000 0.000000
0.421556 0.000000 0.000000
0.725641 0.000000 0.000000
1.000000 0.000000 0.000000
1.000000 0.000000 0.000000
1.000000 0.000000 0.000000
1.000000 0.000000 0.219198
0.000000 0.000000 0.000000
0.028456 0.023565 0.000000
0.210121 0.006953 0.000000
0.422903 0.000000 0.000000
0.732417 0.000000 0.000000
1.000000 0.000000 0.000000
1.000000 0.000000 0.000000
1.000000 0.000000 0.000000
1.000000 0.000000 0.220629
0.000000 0.176321 0.000000
0.000000 0.173048 0.000000
0.175947 0.166037 0.000000
0.418772 0.145760 0.000000
0.739277 0.068243 0.000000
1.000000 0.000000 0.000000
1.000000 0.000000 0.000000
1.000000 0.000000 0.000000
1.000000 0.000000 0.223212
0.000000 0.377520 0.000000
0.000000 0.376884 0.000000
0.004652 0.375151 0.000000
0.383768 0.369014 0.000000
0.734130 0.345810 0.000000
1.000000 0.259172 0.000000
1.000000 0.000000 0.000000
1.000000 0.000000 0.000000
1.000000 0.000000 0.228782
0.000000 0.667954 0.000000
0.000000 0.666696 0.000000
0.000000 0.664120 0.000000
0.180176 0.657352 0.000000
0.659687 0.638077 0.000000
1.000000 0.582318 0.000000
1.000000 0.438420 0.000000
1.000000 0.107984 0.000000
1.000000 0.000000 0.240802
0.000000 0.986220 0.000000
0.000000 0.982942 0.000000
0.000000 0.977010 0.000000
0.000000 0.964152 0.000000
0.362112 0.936166 0.000000
0.903120 0.876077 0.000000
1.000000 0.756352 0.000000
1.000000 0.559586 0.000000
1.000000 0.338772 0.266372
0.000000 1.000000 0.000000
0.000000 1.000000 0.000000
0.000000 1.000000 0.000000
0.000000 1.000000 0.000000
0.000000 1.000000 0.000000
0.494284 1.000000 0.000000
1.000000 0.987454 0.000000
1.000000 0.836048 0.133978
1.000000 0.648307 0.317547
0.000000 1.000000 0.120355
0.000000 1.000000 0.122479
0.000000 1.000000 0.126223
0.000000 1.000000 0.133944
0.000000 1.000000 0.149309
0.000000 1.000000 0.178082
0.594792 1.000000 0.227383
1.000000 1.000000 0.303115
1.000000 0.876810 0.406690
0.000000 1.000000 0.422780
0.000000 1.000000 0.423235
0.000000 1.000000 0.424050
0.000000 1.000000 0.425783
0.000000 1.000000 0.429442
0.000000 1.000000 0.437058
0.295083 1.000000 0.452449
0.695819 1.000000 0.481873
1.000000 1.000000 0.533045
0.000000 0.000000 0.000000
0.000000 0.000000 0.000000
0.220313 0.000000 0.027599
0.421293 0.000000 0.025028
0.725991 0.000000 0.015041
1.000000 0.000000 0.000000
1.000000 0.000000 0.000000
1.000000 0.000000 0.016523
1.000000 0.000000 0.242878
0.000000 0.031598 0.023723
0.023091 0.023091 0.023091
0.207959 0.006326 0.021709
0.422373 0.000000 0.017746
0.732561 0.000000 0.005255
1.000000 0.000000 0.000000
1.000000 0.000000 0.000000
1.000000 0.000000 0.016088
1.000000 0.000000 0.244003
0.000000 0.176618 0.011819
0.000000 0.173286 0.010544
0.172615 0.166169 0.008047
0.417786 0.145661 0.001883
0.739085 0.067508 0.000000
1.000000 0.000000 0.000000
1.000000 0.000000 0.000000
1.000000 0.000000 0.015722
1.000000 0.000000 0.246049
0.000000 0.378020 0.000000
0.000000 0.377341 0.000000
0.000000 0.375534 0.000000
0.381842 0.369251 0.000000
0.733325 0.345801 0.000000
1.000000 0.258848 0.000000
1.000000 0.000000 0.000000
1.000000 0.000000 0.016593
1.000000 0.000000 0.250519
0.000000 0.668103 0.000000
0.000000 0.666819 0.000000
0.000000 0.664197 0.000000
0.174858 0.657342 0.000000
0.658108 0.637924 0.000000
1.000000 0.582005 0.000000
1.000000 0.438093 0.000000
1.000000 0.108047 0.024877
1.000000 0.000000 0.260405
0.000000 0.985744 0.000000
0.000000 0.982463 0.000000
0.000000 0.976523 0.000000
0.000000 0.963654 0.000000
0.359489 0.935655 0.000000
0.901787 0.875575 0.000000
1.000000 0.755940 0.000000
1.000000 0.559384 0.063283
1.000000 0.338837 0.282273
0.000000 1.000000 0.000000
0.000000 1.000000 0.000000
0.000000 1.000000 0.000000
0.000000 1.000000 0.000000
0.000000 1.000000 0.000000
0.493102 1.000000 0.000000
1.000000 0.987069 0.000000
1.000000 0.835810 0.166523
1.000000 0.648235 0.328288
0.000000 1.000000 0.150006
0.000000 1.000000 0.151750
0.000000 1.000000 0.154840
0.000000 1.000000 0.161265
0.000000 1.000000 0.174252
0.000000 1.000000 0.199181
0.594358 1.000000 0.243315
1.000000 1.000000 0.313485
1.000000 0.876714 0.412334
0.000000 1.000000 0.427244
0.000000 1.000000 0.427688
0.000000 1.000000 0.428482
0.000000 1.000000 0.430171
0.000000 1.000000 0.433740
0.000000 1.000000 0.441172
0.294941 1.000000 0.456210
0.695687 1.000000 0.485030
1.000000 1.000000 0.535338
0.000000 0.000000 0.000000
0.000000 0.000000 0.000000
0.217220 0.000000 0.158961
0.420753 0.000000 0.168303
0.726570 0.000000 0.181539
1.000000 0.000000 0.187030
1.000000 0.000000 0.167143
1.000000 0.000000 0.167312
1.000000 0.000000 0.280938
0.000000 0.030883 0.155746
0.013257 0.022216 0.158377
0.203919 0.005176 0.162720
0.421356 0.000000 0.170459
0.732773 0.000000 0.180781
1.000000 0.000000 0.182632
1.000000 0.000000 0.161536
1.000000 0.000000 0.165705
1.000000 0.000000 0.281633
0.000000 0.177131 0.161483
0.000000 0.173693 0.163355
0.166386 0.166386 0.166386
0.415951 0.145461 0.171527
0.738700 0.066170 0.177100
1.000000 0.000000 0.173694
1.000000 0.000000 0.151489
1.000000 0.000000 0.163103
1.000000 0.000000 0.282920
0.000000 0.378898 0.161278
0.000000 0.378142 0.161818
0.000000 0.376204 0.162543
0.378314 0.369660 0.163092
0.731846 0.345774 0.160987
1.000000 0.258261 0.151026
1.000000 0.000000 0.130419
1.000000 0.000000 0.158733
1.000000 0.000000 0.285825
0.000000 0.668357 0.118546
0.000000 0.667025 0.117717
0.000000 0.664323 0.116193
0.164960 0.657314 0.112823
0.655255 0.637643 0.105521
1.000000 0.581439 0.092513
1.000000 0.437505 0.089702
1.000000 0.108162 0.154415
1.000000 0.000000 0.292615
0.000000 0.984888 0.000000
0.000000 0.981599 0.000000
0.000000 0.975647 0.000000
0.000000 0.962757 0.000000
0.354742 0.934736 0.000000
0.899392 0.874674 0.000000
1.000000 0.755202 0.045797
1.000000 0.559024 0.162686
1.000000 0.338954 0.308925
0.000000 1.000000 0.000000
0.000000 1.000000 0.000000
0.000000 1.000000 0.000000
0.000000 1.000000 0.000000
0.000000 1.000000 0.000000
0.490977 1.000000 0.014509
1.000000 0.986380 0.101076
1.000000 0.835383 0.215054
1.000000 0.648107 0.346771
0.000000 1.000000 0.194438
0.000000 1.000000 0.195755
0.000000 1.000000 0.198096
0.000000 1.000000 0.203007
0.000000 1.000000 0.213098
0.000000 1.000000 0.233029
0.593579 1.000000 0.269823
1.000000 1.000000 0.331332
1.000000 0.876541 0.422275
0.000000 1.000000 0.435143
0.000000 1.000000 0.435566
0.000000 1.000000 0.436325
0.000000 1.000000 0.437938
0.000000 1.000000 0.441349
0.000000 1.000000 0.448460
0.294686 1.000000 0.462885
0.695451 1.000000 0.490645
1.000000 1.000000 0.539430
0.000000 0.000000 0.000000
0.000000 0.000000 0.000000
0.209994 0.000000 0.316364
0.419306 0.000000 0.334263
0.727599 0.000000 0.363294
1.000000 0.000000 0.392941
1.000000 0.000000 0.385183
1.000000 0.000000 0.333978
1.000000 0.000000 0.349471
0.000000 0.029247 0.313772
0.000000 0.020242 0.318745
0.194562 0.002624 0.327154
0.418896 0.000000 0.343016
0.733031 0.000000 0.368352
1.000000 0.000000 0.392669
1.000000 0.000000 0.381289
1.000000 0.000000 0.331524
1.000000 0.000000 0.349528
0.000000 0.178132 0.332211
0.000000 0.174469 0.336220
0.151906 0.166760 0.342963
0.411747 0.144950 0.355529
0.737701 0.063236 0.374870
1.000000 0.000000 0.390881
1.000000 0.000000 0.374178
1.000000 0.000000 0.327310
1.000000 0.000000 0.349683
0.000000 0.380687 0.357475
0.000000 0.379770 0.359806
0.000000 0.377553 0.363647
0.370462 0.370462 0.370462
0.728553 0.345669 0.379578
1.000000 0.256990 0.382659
1.000000 0.000000 0.358806
1.000000 0.000000 0.319115
1.000000 0.000000 0.350225
0.000000 0.668837 0.365705
0.000000 0.667406 0.365917
0.000000 0.664535 0.366158
0.142033 0.657205 0.366118
0.649074 0.637007 0.363983
1.000000 0.580217 0.353800
1.000000 0.436252 0.327486
1.000000 0.108414 0.305150
1.000000 0.000000 0.352243
0.000000 0.983043 0.304898
0.000000 0.979739 0.304241
0.000000 0.973762 0.303068
0.000000 0.960831 0.300608
0.344434 0.932766 0.295638
0.894269 0.872748 0.286800
1.000000 0.753629 0.277306
1.000000 0.558255 0.289237
1.000000 0.339206 0.359619
0.000000 1.000000 0.207716
0.000000 1.000000 0.208202
0.000000 1.000000 0.209085
0.000000 1.000000 0.211017
0.000000 1.000000 0.215321
0.486425 1.000000 0.225135
1.000000 0.984911 0.247623
1.000000 0.834473 0.295893
1.000000 0.647833 0.383366
0.000000 1.000000 0.268798
0.000000 1.000000 0.269615
0.000000 1.000000 0.271074
0.000000 1.000000 0.274164
0.000000 1.000000 0.280632
0.000000 1.000000 0.293858
0.591915 1.000000 0.319732
1.000000 1.000000 0.366673
1.000000 0.876173 0.442763
0.000000 1.000000 0.451552
0.000000 1.000000 0.451935
0.000000 1.000000 0.452622
0.000000 1.000000 0.454084
0.000000 1.000000 0.457178
0.000000 1.000000 0.463645
0.294142 1.000000 0.476827
0.694945 1.000000 0.502428
1.000000 1.000000 0.548068
0.000000 0.000000 0.507357
0.000000 0.000000 0.515403
0.191487 0.000000 0.529092
0.414886 0.000000 0.555280
0.728860 0.000000 0.598744
1.000000 0.000000 0.646621
1.000000 0.000000 0.640304
1.000000 0.000000 0.542438
1.000000 0.000000 0.463422
0.000000 0.025272 0.526552
0.000000 0.015566 0.533810
0.170835 0.000000 0.546139
0.412336 0.000000 0.569634
0.732702 0.000000 0.608175
1.000000 0.000000 0.648490
1.000000 0.000000 0.636321
1.000000 0.000000 0.538883
1.000000 0.000000 0.462648
0.000000 0.179846 0.556056
0.000000 0.175713 0.562037
0.114126 0.167159 0.572156
0.401474 0.143472 0.591261
0.734782 0.056647 0.621773
1.000000 0.000000 0.649995
1.000000 0.000000 0.628863
1.000000 0.000000 0.532663
1.000000 0.000000 0.461321
0.000000 0.384116 0.600790
0.000000 0.382866 0.604520
0.000000 0.380077 0.610743
0.352218 0.371857 0.622108
0.720924 0.345242 0.638167
1.000000 0.254201 0.646766
1.000000 0.000000 0.612061
1.000000 0.000000 0.520074
1.000000 0.000000 0.458746
0.000000 0.669590 0.634609
0.000000 0.667957 0.635217
0.000000 0.664743 0.636078
0.080261 0.656763 0.637007
0.635503 0.635503 0.635503
1.000000 0.577550 0.621699
1.000000 0.433588 0.575301
1.000000 0.108987 0.496335
1.000000 0.000000 0.454355
0.000000 0.979047 0.585282
0.000000 0.975713 0.584085
0.000000 0.969689 0.581917
0.000000 0.956681 0.577224
0.321622 0.928541 0.567067
0.883313 0.868640 0.545757
1.000000 0.750287 0.506694
1.000000 0.556630 0.458637
1.000000 0.339746 0.449240
0.000000 1.000000 0.448103
0.000000 1.000000 0.447547
0.000000 1.000000 0.446566
0.000000 1.000000 0.444541
0.000000 1.000000 0.440545
0.476655 1.000000 0.433440
1.000000 0.981787 0.423894
1.000000 0.832540 0.421379
1.000000 0.647252 0.451639
0.000000 1.000000 0.384698
0.000000 1.000000 0.385005
0.000000 1.000000 0.385559
0.000000 1.000000 0.386747
0.000000 1.000000 0.389309
0.000000 1.000000 0.394858
0.588364 1.000000 0.406909
1.000000 1.000000 0.432622
1.000000 0.875389 0.483509
0.000000 1.000000 0.484664
0.000000 1.000000 0.484972
0.000000 1.000000 0.485524
0.000000 1.000000 0.486700
0.000000 1.000000 0.489196
0.000000 1.000000 0.494442
0.292981 1.000000 0.505249
0.693866 1.000000 0.526652
1.000000 1.000000 0.566039
0.000000 0.000000 0.817208
0.000000 0.000000 0.827367
0.133360 0.000000 0.844648
0.399406 0.000000 0.877672
0.727492 0.000000 0.932226
1.000000 0.000000 0.989884
1.000000 0.000000 0.972265
1.000000 0.000000 0.817919
1.000000 0.000000 0.639262
0.000000 0.014720 0.842006
0.000000 0.003627 0.851174
0.094143 0.000000 0.866739
0.392342 0.000000 0.896349
0.728193 0.000000 0.944636
1.000000 0.000000 0.992464
1.000000 0.000000 0.967189
1.000000 0.000000 0.812907
1.000000 0.000000 0.637489
0.000000 0.181658 0.880331
0.000000 0.176562 0.887880
0.000000 0.166263 0.900638
0.373473 0.138616 0.924656
0.725156 0.041283 0.962718
1.000000 0.000000 0.994726
1.000000 0.000000 0.957644
1.000000 0.000000 0.804078
1.000000 0.000000 0.634381
0.000000 0.389734 0.939141
0.000000 0.387829 0.943816
0.000000 0.383910 0.951598
0.305857 0.373516 0.965481
0.702097 0.343479 0.984189
1.000000 0.247960 0.991256
1.000000 0.000000 0.935946
1.000000 0.000000 0.785942
1.000000 0.000000 0.628049
0.000000 0.670040 0.984801
0.000000 0.668021 0.985374
0.000000 0.664156 0.986100
0.000000 0.654942 0.986445
0.604931 0.631692 0.982549
1.000000 0.571640 0.959991
1.000000 0.427983 0.887501
1.000000 0.110356 0.750536
1.000000 0.000000 0.615866
0.000000 0.970305 0.923609
0.000000 0.966922 0.921715
0.000000 0.960821 0.918282
0.000000 0.947693 0.910835
0.268472 0.919469 0.894616
0.859912 0.859912 0.859912
1.000000 0.743252 0.792171
1.000000 0.553233 0.688936
1.000000 0.340912 0.595209
0.000000 1.000000 0.728575
0.000000 1.000000 0.727251
0.000000 1.000000 0.724895
0.000000 1.000000 0.719947
0.000000 1.000000 0.709778
0.455597 1.000000 0.689854
0.990153 0.975205 0.654735
1.000000 0.828465 0.605932
1.000000 0.646032 0.569369
0.000000 1.000000 0.555767
0.000000 1.000000 0.555581
0.000000 1.000000 0.555251
0.000000 1.000000 0.554569
0.000000 1.000000 0.553216
0.000000 1.000000 0.550780
0.580810 1.000000 0.547394
1.000000 1.000000 0.546407
1.000000 0.873726 0.559968
0.000000 1.000000 0.548210
0.000000 1.000000 0.548390
0.000000 1.000000 0.548714
0.000000 1.000000 0.549406
0.000000 1.000000 0.550884
0.000000 1.000000 0.554034
0.290518 1.000000 0.560707
0.691573 1.000000 0.574618
1.000000 1.000000 0.602388
0.000000 0.000000 1.000000
0.000000 0.000000 1.000000
0.000000 0.000000 1.000000
0.337604 0.000000 1.000000
0.707937 0.000000 1.000000
1.000000 0.000000 1.000000
1.000000 0.000000 1.000000
1.000000 0.000000 1.000000
1.000000 0.000000 0.894186
0.000000 0.000000 1.000000
0.000000 0.000000 1.000000
0.000000 0.000000 1.000000
0.320188 0.000000 1.000000
0.702697 0.000000 1.000000
1.000000 0.000000 1.000000
1.000000 0.000000 1.000000
1.000000 0.000000 1.000000
1.000000 0.000000 0.891257
0.000000 0.177935 1.000000
0.000000 0.170920 1.000000
0.000000 0.157070 1.000000
0.281346 0.120844 1.000000
0.690090 0.009088 1.000000
1.000000 0.000000 1.000000
1.000000 0.000000 1.000000
1.000000 0.000000 1.000000
1.000000 0.000000 0.886086
0.000000 0.395009 1.000000
0.000000 0.391999 1.000000
0.000000 0.386225 1.000000
0.153705 0.372378 1.000000
0.651634 0.336544 1.000000
1.000000 0.233762 1.000000
1.000000 0.000000 1.000000
1.000000 0.000000 1.000000
1.000000 0.000000 0.875406
0.000000 0.666582 1.000000
0.000000 0.663927 1.000000
0.000000 0.658989 1.000000
0.000000 0.647771 1.000000
0.532615 0.621377 1.000000
1.000000 0.558351 1.000000
1.000000 0.416463 1.000000
1.000000 0.113880 1.000000
1.000000 0.000000 0.854204
0.000000 0.951005 1.000000
0.000000 0.947570 1.000000
0.000000 0.941395 1.000000
0.000000 0.928184 1.000000
0.113178 0.900069 1.000000
0.810075 0.841601 1.000000
1.000000 0.728738 1.000000
1.000000 0.546332 0.999536
1.000000 0.343451 0.815463
0.000000 1.000000 1.000000
0.000000 1.000000 1.000000
0.000000 1.000000 1.000000
0.000000 1.000000 1.000000
0.000000 1.000000 1.000000
0.409625 1.000000 1.000000
0.961572 0.961572 0.961572
1.000000 0.820021 0.866101
1.000000 0.643524 0.755839
0.000000 1.000000 0.797951
0.000000 1.000000 0.797276
0.000000 1.000000 0.796070
0.000000 1.000000 0.793528
0.000000 1.000000 0.788253
0.000000 1.000000 0.777683
0.564851 1.000000 0.758022
1.000000 1.000000 0.726825
1.000000 0.870241 0.692358
0.000000 1.000000 0.661440
0.000000 1.000000 0.661432
0.000000 1.000000 0.661420
0.000000 1.000000 0.661398
0.000000 1.000000 0.661369
0.000000 1.000000 0.661391
0.285345 1.000000 0.661780
0.686735 1.000000 0.663905
1.000000 1.000000 0.672339
0.000000 0.000000 1.000000
0.000000 0.000000 1.000000
0.000000 0.000000 1.000000
0.000000 0.000000 1.000000
0.606343 0.000000 1.000000
1.000000 0.000000 1.000000
1.000000 0.000000 1.000000
1.000000 0.000000 1.000000
1.000000 0.000000 1.000000
0.000000 0.000000 1.000000
0.000000 0.000000 1.000000
0.000000 0.000000 1.000000
0.000000 0.000000 1.000000
0.592954 0.000000 1.000000
1.000000 0.000000 1.000000
1.000000 0.000000 1.000000
1.000000 0.000000 1.000000
1.000000 0.000000 1.000000
0.000000 0.146314 1.000000
0.000000 0.136151 1.000000
0.000000 0.116237 1.000000
0.000000 0.063725 1.000000
0.567037 0.000000 1.000000
1.000000 0.000000 1.000000
1.000000 0.000000 1.000000
1.000000 0.000000 1.000000
1.000000 0.000000 1.000000
0.000000 0.386246 1.000000
0.000000 0.381871 1.000000
0.000000 0.373799 1.000000
0.000000 0.355645 1.000000
0.504431 0.312975 1.000000
1.000000 0.202519 1.000000
1.000000 0.000000 1.000000
1.000000 0.000000 1.000000
1.000000 0.000000 1.000000
0.000000 0.645944 1.000000
0.000000 0.642562 1.000000
0.000000 0.636422 1.000000
0.000000 0.623037 1.000000
0.338737 0.593581 1.000000
0.915380 0.529013 1.000000
1.000000 0.394264 1.000000
1.000000 0.123593 1.000000
1.000000 0.000000 1.000000
0.000000 0.908963 1.000000
0.000000 0.905582 1.000000
0.000000 0.899528 1.000000
0.000000 0.886669 1.000000
0.000000 0.859649 1.000000
0.704555 0.804511 1.000000
1.000000 0.700118 1.000000
1.000000 0.533140 1.000000
1.000000 0.349051 1.000000
0.000000 1.000000 1.000000
0.000000 1.000000 1.000000
0.000000 1.000000 1.000000
0.000000 1.000000 1.000000
0.000000 1.000000 1.000000
0.303875 1.000000 1.000000
0.903099 0.934348 1.000000
1.000000 0.803150 1.000000
1.000000 0.638604 1.000000
0.000000 1.000000 1.000000
0.000000 1.000000 1.000000
0.000000 1.000000 1.000000
0.000000 1.000000 1.000000
0.000000 1.000000 1.000000
0.000000 1.000000 1.000000
0.531594 1.000000 1.000000
0.990943 0.990943 0.990943
1.000000 0.863103 0.901346
0.000000 1.000000 0.845546
0.000000 1.000000 0.845302
0.000000 1.000000 0.844865
0.000000 1.000000 0.843937
0.000000 1.000000 0.841992
0.000000 1.000000 0.837999
0.274719 1.000000 0.830188
0.676693 1.000000 0.816399
1.000000 1.000000 0.797028
0.000000 0.000000 1.000000
0.000000 0.000000 1.000000
0.000000 0.000000 1.000000
0.000000 0.000000 1.000000
0.125600 0.000000 1.000000
0.862169 0.000000 1.000000
1.000000 0.000000 1.000000
1.000000 0.000000 1.000000
1.000000 0.000000 1.000000
0.000000 0.000000 1.000000
0.000000 0.000000 1.000000
0.000000 0.000000 1.000000
0.000000 0.000000 1.000000
0.068551 0.000000 1.000000
0.849640 0.000000 1.000000
1.000000 0.000000 1.000000
1.000000 0.000000 1.000000
1.000000 0.000000 1.000000
0.000000 0.038176 1.000000
0.000000 0.025211 1.000000
0.000000 0.002233 1.000000
0.000000 0.000000 1.000000
0.000000 0.000000 1.000000
0.827171 0.000000 1.000000
1.000000 0.000000 1.000000
1.000000 0.000000 1.000000
1.000000 0.000000 1.000000
0.000000 0.333060 1.000000
0.000000 0.328084 1.000000
0.000000 0.319067 1.000000
0.000000 0.299432 1.000000
0.000000 0.255627 1.000000
0.779433 0.148276 1.000000
1.000000 0.000000 1.000000
1.000000 0.000000 1.000000
1.000000 0.000000 1.000000
0.000000 0.581596 1.000000
0.000000 0.578104 1.000000
0.000000 0.571846 1.000000
0.000000 0.558528 1.000000
0.000000 0.530414 1.000000
0.679776 0.472367 1.000000
1.000000 0.358603 1.000000
1.000000 0.150091 1.000000
1.000000 0.000000 1.000000
0.000000 0.825562 1.000000
0.000000 0.822603 1.000000
0.000000 0.817322 1.000000
0.000000 0.806167 1.000000
0.000000 0.782959 1.000000
0.478256 0.736298 1.000000
1.000000 0.649281 1.000000
1.000000 0.511204 1.000000
1.000000 0.361570 1.000000
0.000000 1.000000 1.000000
0.000000 1.000000 1.000000
0.000000 1.000000 1.000000
0.000000 1.000000 1.000000
0.000000 0.987576 1.000000
0.000000 0.951710 1.000000
0.788693 0.883992 1.000000
1.000000 0.771933 1.000000
1.000000 0.629915 1.000000
0.000000 1.000000 1.000000
0.000000 1.000000 1.000000
0.000000 1.000000 1.000000
0.000000 1.000000 1.000000
0.000000 1.000000 1.000000
0.000000 1.000000 1.000000
0.464050 1.000000 1.000000
0.937003 0.964291 1.000000
1.000000 0.849189 1.000000
0.000000 1.000000 1.000000
0.000000 1.000000 1.000000
0.000000 1.000000 1.000000
0.000000 1.000000 1.000000
0.000000 1.000000 1.000000
0.000000 1.000000 1.000000
0.254007 1.000000 1.000000
0.656566 1.000000 1.000000
0.997970 0.997970 0.997970
