post_production/PixelLog_to_Rec709_Display.cube
# PixelLog to Rec.709 Display Transform LUT
# Target Device: Google Pixel 11 Pro Primary Sensor
# Color Science: Bespoke asinh Pixel-Log Curve
# Transform: Pixel-Log BT.2020 -> Scene-Linear -> Gamut Compress -> Filmic Knee -> BT.1886
TITLE "PixelLog_to_Rec709_Display"
LUT_3D_SIZE 5
DOMAIN_MIN 0.0 0.0 0.0
DOMAIN_MAX 1.0 1.0 1.0
0.000000 0.000000 0.000000
0.188801 0.000000 0.000000
0.536788 0.000000 0.000000
1.000000 0.000000 0.000000
1.000000 0.000000 0.462143
0.000000 0.167040 0.000000
0.167905 0.162700 0.000000
0.548887 0.059994 0.000000
1.000000 0.000000 0.000000
1.000000 0.000000 0.463861
0.000000 0.518161 0.000000
0.000000 0.517656 0.000000
0.521778 0.508316 0.000000
1.000000 0.355569 0.000000
1.000000 0.000000 0.474292
0.000000 1.000000 0.000000
0.000000 1.000000 0.000000
0.000000 0.988207 0.000000
0.915777 0.895551 0.228813
1.000000 0.660321 0.532458
0.000000 1.000000 0.648705
0.000000 1.000000 0.649058
0.237529 1.000000 0.651214
0.538231 1.000000 0.663927
1.000000 0.992449 0.724469
0.000000 0.000000 0.000000
0.186684 0.000000 0.156242
0.537726 0.000000 0.176500
1.000000 0.000000 0.177411
1.000000 0.000000 0.473871
0.000000 0.167717 0.159509
0.163104 0.163105 0.163104
0.549180 0.056181 0.174197
1.000000 0.000000 0.172037
1.000000 0.000000 0.475421
0.000000 0.518615 0.121811
0.000000 0.518041 0.120254
0.520016 0.508395 0.111154
1.000000 0.355376 0.148776
1.000000 0.000000 0.484885
0.000000 1.000000 0.094767
0.000000 1.000000 0.104522
0.000000 0.987736 0.147693
0.914985 0.895211 0.275864
1.000000 0.660337 0.539046
0.000000 1.000000 0.651038
0.000000 1.000000 0.651384
0.237732 1.000000 0.653502
0.538224 1.000000 0.666002
1.000000 0.992403 0.725718
0.000000 0.000000 0.388426
0.167698 0.000000 0.402814
0.542092 0.000000 0.463900
1.000000 0.000000 0.517942
1.000000 0.000000 0.538186
0.000000 0.170966 0.421266
0.121227 0.164777 0.432033
0.549868 0.000000 0.478633
1.000000 0.000000 0.514877
1.000000 0.000000 0.538923
0.000000 0.521090 0.499558
0.000000 0.520127 0.501434
0.508715 0.508715 0.508715
1.000000 0.354210 0.495278
1.000000 0.041675 0.543671
0.000000 1.000000 0.430023
0.000000 1.000000 0.430282
0.000000 0.984847 0.432060
0.910125 0.893129 0.448361
1.000000 0.660436 0.577165
0.000000 1.000000 0.665103
0.000000 1.000000 0.665413
0.238973 1.000000 0.667309
0.538180 1.000000 0.678550
1.000000 0.992117 0.733324
0.000000 0.000000 1.000000
0.000000 0.000000 1.000000
0.527277 0.000000 1.000000
1.000000 0.000000 1.000000
1.000000 0.000000 0.797752
0.000000 0.165262 1.000000
0.000000 0.151090 1.000000
0.519314 0.000000 1.000000
1.000000 0.000000 1.000000
1.000000 0.000000 0.796283
0.000000 0.527133 1.000000
0.000000 0.524555 1.000000
0.421018 0.505862 1.000000
1.000000 0.347980 1.000000
1.000000 0.149420 0.787908
0.000000 0.986517 0.949731
0.000000 0.983816 0.947929
0.000000 0.967571 0.937131
0.880732 0.880732 0.880732
1.000000 0.661101 0.755824
0.000000 1.000000 0.742918
0.065450 1.000000 0.743048
0.246531 1.000000 0.743847
0.537963 1.000000 0.748785
1.000000 0.990369 0.777558
0.000000 0.000000 1.000000
0.000000 0.000000 1.000000
0.000000 0.000000 1.000000
1.000000 0.000000 1.000000
1.000000 0.000000 1.000000
0.000000 0.000000 1.000000
0.000000 0.000000 1.000000
0.000000 0.000000 1.000000
1.000000 0.000000 1.000000
1.000000 0.000000 1.000000
0.000000 0.475432 1.000000
0.000000 0.472165 1.000000
0.000000 0.452405 1.000000
0.982781 0.346003 1.000000
1.000000 0.324163 1.000000
0.000000 0.895786 1.000000
0.000000 0.893857 1.000000
0.000000 0.882272 1.000000
0.722963 0.820567 1.000000
1.000000 0.666825 1.000000
0.175772 1.000000 1.000000
0.197609 1.000000 1.000000
0.289028 1.000000 1.000000
0.538479 1.000000 1.000000
0.980400 0.980400 0.980400
