post_production/PixelLog_to_AgX_Punchy_65.cube
# PixelLog to AgX (Punchy) Rec.709 Display Transform 3D LUT
# Architecture: AgX Display Rendering Transform (Troy Sobotka / Blender 4.0+)
# Target Device: Google Pixel 11 Pro Primary Sensor (Tensor G6)
# Transform: Pixel-Log BT.2020 -> Scene-Linear -> BT.2020 to Rec.709 -> AgX Inset -> Log2 EV -> Sigmoid -> Outset
LUT_3D_SIZE 9
DOMAIN_MIN 0.0 0.0 0.0
DOMAIN_MAX 1.0 1.0 1.0
0.000000 0.000000 0.000000
0.118638 0.000000 0.000000
0.390629 0.000000 0.000000
0.665911 0.000000 0.000000
0.933219 0.000000 0.000000
1.000000 0.000000 0.004486
1.000000 0.000000 0.191698
1.000000 0.000000 0.419857
1.000000 0.000000 0.669061
0.000000 0.035797 0.000000
0.035766 0.025114 0.000000
0.352233 0.000000 0.000000
0.650668 0.000000 0.000000
0.926636 0.000000 0.000000
1.000000 0.000000 0.000867
1.000000 0.000000 0.189502
1.000000 0.000000 0.418688
1.000000 0.000000 0.668499
0.000000 0.232600 0.000000
0.000000 0.229188 0.000000
0.211533 0.194883 0.000000
0.551180 0.145487 0.000000
0.856861 0.082083 0.000000
1.000000 0.000000 0.000000
1.000000 0.000000 0.185524
1.000000 0.000000 0.416578
1.000000 0.000000 0.667487
0.000000 0.445136 0.000000
0.000000 0.443464 0.000000
0.000000 0.435788 0.000000
0.399921 0.380459 0.000000
0.743625 0.329837 0.000000
1.000000 0.265178 0.000000
1.000000 0.140083 0.083178
1.000000 0.000000 0.412022
1.000000 0.000000 0.665310
0.000000 0.662532 0.000000
0.000000 0.661761 0.000000
0.000000 0.660370 0.000000
0.091404 0.630949 0.000000
0.591745 0.571602 0.000000
0.909335 0.522300 0.000000
1.000000 0.455962 0.000000
1.000000 0.327581 0.236135
1.000000 0.000000 0.642647
0.000000 0.867369 0.000000
0.000000 0.867048 0.000000
0.000000 0.866470 0.000000
0.000000 0.865227 0.000000
0.283352 0.810575 0.000000
0.771528 0.753172 0.000000
1.000000 0.707753 0.000000
1.000000 0.638107 0.110865
1.000000 0.516653 0.411575
0.000000 1.000000 0.000000
0.000000 1.000000 0.000000
0.000000 1.000000 0.000000
0.000000 1.000000 0.000000
0.000000 1.000000 0.000000
0.490357 0.956274 0.000000
0.918109 0.903795 0.000000
1.000000 0.857480 0.000000
1.000000 0.793529 0.296583
0.000000 1.000000 0.000000
0.000000 1.000000 0.000000
0.000000 1.000000 0.000000
0.000000 1.000000 0.000000
0.000000 1.000000 0.000000
0.000000 1.000000 0.000000
0.695551 1.000000 0.000000
1.000000 1.000000 0.000000
1.000000 0.955852 0.188264
0.000000 1.000000 0.000000
0.000000 1.000000 0.000000
0.000000 1.000000 0.000000
0.000000 1.000000 0.000000
0.000000 1.000000 0.000000
0.000000 1.000000 0.000000
0.000000 1.000000 0.000000
0.872865 1.000000 0.000000
1.000000 1.000000 0.000000
0.000000 0.000000 0.047278
0.117575 0.000000 0.042551
0.387184 0.000000 0.028572
0.659590 0.000000 0.029589
0.921541 0.000000 0.059112
1.000000 0.000000 0.133800
1.000000 0.000000 0.272010
1.000000 0.000000 0.464298
1.000000 0.000000 0.690961
0.000000 0.044090 0.026519
0.032342 0.032338 0.032338
0.346296 0.000000 0.019617
0.642684 0.000000 0.024948
0.915320 0.000000 0.056219
1.000000 0.000000 0.131341
1.000000 0.000000 0.270255
1.000000 0.000000 0.463267
1.000000 0.000000 0.690436
0.000000 0.238337 0.000000
0.000000 0.234823 0.000000
0.210732 0.200189 0.000000
0.548028 0.150659 0.000000
0.847824 0.083150 0.000000
1.000000 0.000000 0.098808
1.000000 0.000000 0.267080
1.000000 0.000000 0.461407
1.000000 0.000000 0.689492
0.000000 0.447957 0.000000
0.000000 0.446139 0.000000
0.000000 0.437889 0.000000
0.398638 0.382228 0.000000
0.740199 0.330619 0.000000
1.000000 0.260498 0.000000
1.000000 0.136505 0.164872
1.000000 0.000000 0.457392
1.000000 0.000000 0.687461
0.000000 0.664011 0.000000
0.000000 0.663244 0.000000
0.000000 0.661730 0.000000
0.092654 0.631514 0.000000
0.589784 0.571069 0.000000
0.905974 0.520947 0.000000
1.000000 0.448595 0.047525
1.000000 0.325202 0.281921
1.000000 0.000000 0.662295
0.000000 0.867986 0.000000
0.000000 0.867666 0.000000
0.000000 0.867090 0.000000
0.000000 0.865851 0.000000
0.283875 0.810619 0.000000
0.768396 0.750644 0.000000
1.000000 0.702486 0.000000
1.000000 0.633638 0.160046
1.000000 0.515348 0.434402
0.000000 1.000000 0.000000
0.000000 1.000000 0.000000
0.000000 1.000000 0.000000
0.000000 1.000000 0.000000
0.000000 1.000000 0.000000
0.490795 0.956413 0.000000
0.915486 0.901394 0.000000
1.000000 0.851740 0.044879
1.000000 0.791178 0.321366
0.000000 1.000000 0.000000
0.000000 1.000000 0.000000
0.000000 1.000000 0.000000
0.000000 1.000000 0.000000
0.000000 1.000000 0.000000
0.000000 1.000000 0.000000
0.695753 1.000000 0.000000
1.000000 1.000000 0.000000
1.000000 0.952803 0.217510
0.000000 1.000000 0.000000
0.000000 1.000000 0.000000
0.000000 1.000000 0.000000
0.000000 1.000000 0.000000
0.000000 1.000000 0.000000
0.000000 1.000000 0.000000
0.000000 1.000000 0.000000
0.872938 1.000000 0.000000
1.000000 1.000000 0.043262
0.000000 0.000000 0.291073
0.099279 0.000000 0.281971
0.365673 0.000000 0.261632
0.637619 0.000000 0.249125
0.901293 0.000000 0.253793
1.000000 0.000000 0.290650
1.000000 0.000000 0.383131
1.000000 0.000000 0.532421
1.000000 0.000000 0.726853
0.000000 0.038879 0.265769
0.008681 0.027378 0.267293
0.318358 0.000000 0.248141
0.615783 0.000000 0.241550
0.894929 0.000000 0.252384
1.000000 0.000000 0.289139
1.000000 0.000000 0.381847
1.000000 0.000000 0.531573
1.000000 0.000000 0.726386
0.000000 0.225453 0.199018
0.000000 0.221677 0.204713
0.188031 0.188032 0.188032
0.522590 0.139654 0.175873
0.823089 0.075906 0.189824
1.000000 0.000000 0.252852
1.000000 0.000000 0.379530
1.000000 0.000000 0.530045
1.000000 0.000000 0.725545
0.000000 0.434648 0.119542
0.000000 0.432485 0.124818
0.000000 0.423594 0.129156
0.380832 0.369802 0.103106
0.719872 0.317728 0.108327
0.991819 0.250263 0.156645
1.000000 0.133635 0.276272
1.000000 0.000000 0.526751
1.000000 0.000000 0.723738
0.000000 0.654362 0.024781
0.000000 0.653050 0.030054
0.000000 0.650707 0.039358
0.083020 0.620669 0.033510
0.576792 0.560622 0.022278
0.888699 0.507254 0.062882
1.000000 0.439410 0.165331
1.000000 0.322234 0.351450
1.000000 0.000000 0.694213
0.000000 0.864875 0.000000
0.000000 0.864435 0.000000
0.000000 0.863648 0.000000
0.000000 0.860759 0.000000
0.278878 0.804767 0.000000
0.758894 0.742223 0.000000
1.000000 0.690090 0.062748
1.000000 0.627110 0.234289
1.000000 0.513396 0.471611
0.000000 1.000000 0.000000
0.000000 1.000000 0.000000
0.000000 1.000000 0.000000
0.000000 1.000000 0.000000
0.000000 1.000000 0.000000
0.486388 0.951470 0.000000
0.906436 0.892744 0.000000
1.000000 0.843327 0.128686
1.000000 0.787410 0.361604
0.000000 1.000000 0.000000
0.000000 1.000000 0.000000
0.000000 1.000000 0.000000
0.000000 1.000000 0.000000
0.000000 1.000000 0.000000
0.000000 1.000000 0.000000
0.691500 1.000000 0.000000
1.000000 0.994713 0.000000
1.000000 0.947931 0.264390
0.000000 1.000000 0.000000
0.000000 1.000000 0.000000
0.000000 1.000000 0.000000
0.000000 1.000000 0.000000
0.000000 1.000000 0.000000
0.000000 1.000000 0.000000
0.000000 1.000000 0.000000
0.870137 1.000000 0.000000
1.000000 1.000000 0.113162
0.000000 0.000000 0.553318
0.087004 0.000000 0.540509
0.345764 0.000000 0.517013
0.614530 0.000000 0.496767
0.877857 0.000000 0.485850
1.000000 0.000000 0.495015
1.000000 0.000000 0.545579
1.000000 0.000000 0.644444
1.000000 0.000000 0.791883
0.000000 0.052147 0.515890
0.000000 0.040455 0.513732
0.285524 0.000490 0.491150
0.580129 0.000000 0.477700
0.865760 0.000000 0.479762
1.000000 0.000000 0.494268
1.000000 0.000000 0.544784
1.000000 0.000000 0.643839
1.000000 0.000000 0.791508
0.000000 0.220284 0.457543
0.000000 0.217002 0.460800
0.162921 0.183758 0.439352
0.492046 0.137901 0.419057
0.791009 0.078656 0.416205
1.000000 0.000000 0.448410
1.000000 0.000000 0.543350
1.000000 0.000000 0.642749
1.000000 0.000000 0.790833
0.000000 0.417650 0.386955
0.000000 0.415814 0.389756
0.000000 0.406506 0.388768
0.354764 0.354786 0.354787
0.692209 0.305413 0.343311
0.965585 0.242677 0.361878
1.000000 0.135031 0.435908
1.000000 0.000000 0.637514
1.000000 0.000000 0.789383
0.000000 0.629785 0.305984
0.000000 0.628777 0.308572
0.000000 0.626963 0.313186
0.062263 0.597395 0.297222
0.550952 0.540113 0.268443
0.864493 0.490567 0.277592
1.000000 0.428501 0.333513
1.000000 0.319507 0.464161
1.000000 0.000000 0.749358
0.000000 0.835906 0.214571
0.000000 0.835319 0.217165
0.000000 0.834267 0.221785
0.000000 0.832029 0.231498
0.254133 0.778225 0.202436
0.734403 0.720026 0.193935
0.987767 0.673694 0.242247
1.000000 0.617305 0.353905
1.000000 0.510536 0.538389
0.000000 1.000000 0.101495
0.000000 1.000000 0.104425
0.000000 1.000000 0.109631
0.000000 1.000000 0.120540
0.000000 1.000000 0.142882
0.463627 0.927580 0.113100
0.884701 0.871863 0.149831
1.000000 0.830347 0.260498
1.000000 0.780869 0.433425
0.000000 1.000000 0.000000
0.000000 1.000000 0.000000
0.000000 1.000000 0.000000
0.000000 1.000000 0.000000
0.000000 1.000000 0.000000
0.000000 1.000000 0.025166
0.672658 1.000000 0.032894
0.986264 0.977559 0.156482
1.000000 0.939455 0.346459
0.000000 1.000000 0.000000
0.000000 1.000000 0.000000
0.000000 1.000000 0.000000
0.000000 1.000000 0.000000
0.000000 1.000000 0.000000
0.000000 1.000000 0.000000
0.000000 1.000000 0.000000
0.855530 1.000000 0.000000
1.000000 1.000000 0.227581
0.000000 0.000000 0.799980
0.072670 0.000000 0.786549
0.320831 0.000000 0.767448
0.587995 0.000000 0.749867
0.854189 0.000000 0.736571
1.000000 0.000000 0.728521
1.000000 0.000000 0.748410
1.000000 0.000000 0.801681
1.000000 0.000000 0.895204
0.000000 0.097113 0.759978
0.000000 0.084043 0.753583
0.250070 0.048493 0.730200
0.534121 0.003018 0.711643
0.816651 0.000000 0.705597
1.000000 0.000000 0.725093
1.000000 0.000000 0.748005
1.000000 0.000000 0.801323
1.000000 0.000000 0.894948
0.000000 0.236024 0.712554
0.000000 0.233285 0.714461
0.140754 0.199734 0.689309
0.457703 0.157306 0.665172
0.751187 0.103761 0.652333
1.000000 0.018651 0.663196
1.000000 0.000000 0.736338
1.000000 0.000000 0.800678
1.000000 0.000000 0.894488
0.000000 0.412715 0.651374
0.000000 0.411135 0.652900
0.000000 0.400296 0.647656
0.329280 0.351034 0.610409
0.660723 0.304453 0.589920
0.932560 0.246686 0.589875
1.000000 0.150372 0.629238
1.000000 0.000000 0.772833
1.000000 0.000000 0.893499
0.000000 0.611810 0.580261
0.000000 0.610971 0.581554
0.000000 0.609461 0.583870
0.048996 0.579009 0.561585
0.524408 0.524461 0.524464
0.836344 0.477884 0.515116
1.000000 0.421017 0.538164
1.000000 0.321937 0.618852
1.000000 0.000000 0.832005
0.000000 0.809818 0.504108
0.000000 0.809389 0.505296
0.000000 0.808617 0.507423
0.000000 0.806963 0.511939
0.233383 0.753701 0.471697
0.708141 0.698541 0.443754
0.963549 0.656385 0.457281
1.000000 0.606043 0.517656
1.000000 0.508281 0.642802
0.000000 0.981216 0.424400
0.000000 0.980976 0.425602
0.000000 0.980546 0.427751
0.000000 0.979630 0.432306
0.000000 0.977685 0.441863
0.438327 0.899880 0.387737
0.859974 0.848930 0.383909
1.000000 0.813747 0.436696
1.000000 0.771335 0.545069
0.000000 1.000000 0.327876
0.000000 1.000000 0.329261
0.000000 1.000000 0.331735
0.000000 1.000000 0.336971
0.000000 1.000000 0.347916
0.000000 1.000000 0.370231
0.644246 1.000000 0.316723
0.964612 0.956467 0.361136
1.000000 0.926792 0.470800
0.000000 1.000000 0.146582
0.000000 1.000000 0.148754
0.000000 1.000000 0.152624
0.000000 1.000000 0.160770
0.000000 1.000000 0.177610
0.000000 1.000000 0.211199
0.000000 1.000000 0.273912
0.823934 1.000000 0.257464
1.000000 1.000000 0.387336
0.000000 0.108068 0.997758
0.054575 0.085456 0.980471
0.273584 0.056939 0.961670
0.524692 0.017173 0.943388
0.788833 0.000000 0.932517
1.000000 0.000000 0.943587
1.000000 0.000000 0.963217
1.000000 0.000000 0.984652
1.000000 0.000000 1.000000
0.000000 0.185295 0.973667
0.000000 0.168166 0.960794
0.220066 0.138730 0.939087
0.484322 0.100976 0.918283
0.753513 0.048337 0.903927
1.000000 0.000000 0.908281
1.000000 0.000000 0.963061
1.000000 0.000000 0.984482
1.000000 0.000000 1.000000
0.000000 0.287010 0.939251
0.000000 0.281057 0.936487
0.129459 0.249637 0.910826
0.422869 0.212209 0.885932
0.704631 0.166006 0.867533
0.959751 0.098067 0.864226
1.000000 0.000000 0.901632
1.000000 0.000000 0.984178
1.000000 0.000000 1.000000
0.000000 0.431523 0.890061
0.000000 0.430220 0.890909
0.000000 0.414376 0.878942
0.309222 0.370327 0.843243
0.627202 0.327524 0.818685
0.893270 0.275999 0.807956
1.000000 0.194437 0.823596
1.000000 0.000000 0.910439
1.000000 0.000000 1.000000
0.000000 0.607876 0.829223
0.000000 0.607167 0.829876
0.000000 0.605888 0.831049
0.052514 0.572649 0.803061
0.500661 0.521927 0.763649
0.806256 0.478347 0.744701
1.000000 0.426816 0.747998
1.000000 0.340105 0.792268
1.000000 0.049126 0.934252
0.000000 0.792090 0.763577
0.000000 0.791745 0.764115
0.000000 0.791124 0.765081
0.000000 0.789791 0.767140
0.222992 0.735581 0.720151
0.683263 0.683354 0.683360
0.937310 0.644288 0.677260
1.000000 0.599018 0.702843
1.000000 0.511932 0.777096
0.000000 0.955481 0.700042
0.000000 0.955320 0.700535
0.000000 0.955031 0.701417
0.000000 0.954413 0.703297
0.000000 0.953090 0.707282
0.419382 0.875897 0.641246
0.835460 0.828129 0.616711
1.000000 0.797261 0.632883
1.000000 0.761003 0.688564
0.000000 1.000000 0.639390
0.000000 1.000000 0.639894
0.000000 1.000000 0.640799
0.000000 1.000000 0.642724
0.000000 1.000000 0.646799
0.000000 1.000000 0.655320
0.620277 0.973633 0.575736
0.941783 0.934802 0.577061
1.000000 0.911502 0.626569
0.000000 1.000000 0.569106
0.000000 1.000000 0.569703
0.000000 1.000000 0.570773
0.000000 1.000000 0.573050
0.000000 1.000000 0.577859
0.000000 1.000000 0.587879
0.000000 1.000000 0.608164
0.796760 1.000000 0.526116
1.000000 0.998013 0.572333
0.000000 0.265145 1.000000
0.073935 0.247249 1.000000
0.249463 0.225629 1.000000
0.469557 0.195980 1.000000
0.711300 0.154788 1.000000
0.946361 0.091337 1.000000
1.000000 0.000000 1.000000
1.000000 0.000000 1.000000
1.000000 0.000000 1.000000
0.000000 0.313334 1.000000
0.020370 0.294465 1.000000
0.211412 0.272317 1.000000
0.442250 0.242618 1.000000
0.690030 0.203186 1.000000
0.926707 0.145574 1.000000
1.000000 0.038561 1.000000
1.000000 0.000000 1.000000
1.000000 0.000000 1.000000
0.000000 0.384636 1.000000
0.000000 0.368441 1.000000
0.142969 0.343363 1.000000
0.396329 0.312708 1.000000
0.656328 0.275005 1.000000
0.897324 0.224220 1.000000
1.000000 0.138425 1.000000
1.000000 0.000000 1.000000
1.000000 0.000000 1.000000
0.000000 0.488142 1.000000
0.000000 0.487173 1.000000
0.000000 0.461974 1.000000
0.303456 0.426086 1.000000
0.595455 0.388781 0.996538
0.849206 0.345261 0.980222
1.000000 0.281967 0.980868
1.000000 0.151094 1.000000
1.000000 0.000000 1.000000
0.000000 0.629299 1.000000
0.000000 0.628726 1.000000
0.000000 0.627693 1.000000
0.086109 0.588674 0.991666
0.485126 0.544023 0.954636
0.776496 0.504438 0.931775
0.987546 0.459494 0.924540
1.000000 0.388761 0.945416
1.000000 0.184524 1.000000
0.000000 0.789707 0.971136
0.000000 0.789422 0.971381
0.000000 0.788908 0.971822
0.000000 0.787806 0.972764
0.233147 0.730611 0.919936
0.663741 0.682442 0.881224
0.911703 0.646331 0.865800
1.000000 0.605903 0.871880
1.000000 0.531911 0.911950
0.000000 0.939823 0.917814
0.000000 0.939700 0.918008
0.000000 0.939480 0.918355
0.000000 0.939008 0.919099
0.000000 0.937994 0.920683
0.413614 0.859826 0.848024
0.814835 0.814967 0.814976
0.989649 0.786994 0.812220
1.000000 0.755510 0.835053
0.000000 1.000000 0.872770
0.000000 1.000000 0.872947
0.000000 1.000000 0.873263
0.000000 1.000000 0.873940
0.000000 1.000000 0.875379
0.000000 1.000000 0.878424
0.605081 0.952824 0.787236
0.921597 0.917010 0.768454
1.000000 0.897715 0.783114
0.000000 1.000000 0.837538
0.000000 1.000000 0.837722
0.000000 1.000000 0.838052
0.000000 1.000000 0.838756
0.000000 1.000000 0.840254
0.000000 1.000000 0.843418
0.000000 1.000000 0.850006
0.776497 1.000000 0.742706
0.984074 0.980178 0.747274
0.060313 0.446554 1.000000
0.152754 0.435850 1.000000
0.276504 0.421094 1.000000
0.450455 0.399102 1.000000
0.658110 0.369304 1.000000
0.868447 0.329514 1.000000
1.000000 0.268347 1.000000
1.000000 0.139974 1.000000
1.000000 0.000000 1.000000
0.020179 0.471639 1.000000
0.120032 0.460220 1.000000
0.251135 0.444811 1.000000
0.432084 0.422352 1.000000
0.644794 0.392627 1.000000
0.857740 0.353975 1.000000
1.000000 0.296452 1.000000
1.000000 0.180988 1.000000
1.000000 0.000000 1.000000
0.000000 0.513725 1.000000
0.057782 0.500623 1.000000
0.204540 0.483744 1.000000
0.399569 0.460202 1.000000
0.622066 0.430341 1.000000
0.840070 0.393231 1.000000
1.000000 0.340899 1.000000
1.000000 0.242797 1.000000
1.000000 0.000000 1.000000
0.000000 0.591931 1.000000
0.000000 0.577460 1.000000
0.096251 0.555510 1.000000
0.330075 0.528485 1.000000
0.576947 0.497421 1.000000
0.807220 0.462150 1.000000
0.994941 0.417224 1.000000
1.000000 0.342269 1.000000
1.000000 0.106462 1.000000
0.000000 0.692884 1.000000
0.000000 0.692485 1.000000
0.000000 0.681138 1.000000
0.165579 0.639680 1.000000
0.487190 0.602368 1.000000
0.750243 0.567427 1.000000
0.949519 0.530780 1.000000
1.000000 0.478729 1.000000
1.000000 0.357868 1.000000
0.000000 0.814394 1.000000
0.000000 0.814178 1.000000
0.000000 0.813790 1.000000
0.000000 0.812957 1.000000
0.276650 0.746645 1.000000
0.654160 0.704899 1.000000
0.888484 0.672635 0.994280
1.000000 0.638191 0.990894
1.000000 0.580699 1.000000
0.000000 0.939166 1.000000
0.000000 0.939073 1.000000
0.000000 0.938907 1.000000
0.000000 0.938551 1.000000
0.000000 0.937786 1.000000
0.430259 0.856373 0.987652
0.801293 0.815479 0.953498
0.971084 0.790046 0.942914
1.000000 0.762819 0.949579
0.000000 1.000000 1.000000
0.000000 1.000000 1.000000
0.000000 1.000000 1.000000
0.000000 1.000000 1.000000
0.000000 1.000000 1.000000
0.000000 1.000000 1.000000
0.604229 0.940570 0.933113
0.907122 0.907290 0.907301
1.000000 0.890297 0.906253
0.000000 1.000000 1.000000
0.000000 1.000000 1.000000
0.000000 1.000000 1.000000
0.000000 1.000000 1.000000
0.000000 1.000000 1.000000
0.000000 1.000000 1.000000
0.000000 1.000000 1.000000
0.766180 0.990390 0.892355
0.970065 0.967533 0.880050
0.230546 0.625425 1.000000
0.280601 0.619722 1.000000
0.355626 0.611053 1.000000
0.475031 0.596850 1.000000
0.635316 0.576499 1.000000
0.812103 0.550368 1.000000
0.971262 0.516766 1.000000
1.000000 0.465382 1.000000
1.000000 0.338239 1.000000
0.210796 0.636855 1.000000
0.263056 0.630936 1.000000
0.340904 0.621999 1.000000
0.463833 0.607489 1.000000
0.627434 0.586934 1.000000
0.806496 0.560887 1.000000
0.966667 0.527939 1.000000
1.000000 0.478427 1.000000
1.000000 0.358995 1.000000
0.173630 0.656601 1.000000
0.230349 0.650238 1.000000
0.313794 0.640759 1.000000
0.443557 0.625634 1.000000
0.613447 0.604650 1.000000
0.796755 0.578680 1.000000
0.958837 0.546760 1.000000
1.000000 0.500211 1.000000
1.000000 0.392655 1.000000
0.084489 0.696276 1.000000
0.153663 0.688644 1.000000
0.252024 0.677675 1.000000
0.399034 0.660917 1.000000
0.583979 0.638759 1.000000
0.777091 0.612683 1.000000
0.943626 0.582449 1.000000
1.000000 0.540911 1.000000
1.000000 0.452637 1.000000
0.000000 0.777115 1.000000
0.000000 0.764188 1.000000
0.090907 0.747167 1.000000
0.294008 0.724761 1.000000
0.520892 0.698793 1.000000
0.738696 0.671496 1.000000
0.916243 0.643284 1.000000
1.000000 0.608637 1.000000
1.000000 0.545771 1.000000
0.000000 0.871888 1.000000
0.000000 0.871739 1.000000
0.000000 0.871471 1.000000
0.000000 0.838810 1.000000
0.368057 0.792959 1.000000
0.663408 0.759070 1.000000
0.871108 0.731315 1.000000
1.000000 0.704351 1.000000
1.000000 0.665709 1.000000
0.000000 0.964222 1.000000
0.000000 0.964150 1.000000
0.000000 0.964020 1.000000
0.000000 0.963742 1.000000
0.000000 0.963145 1.000000
0.480886 0.870864 1.000000
0.797225 0.834629 1.000000
0.955401 0.812003 1.000000
1.000000 0.789664 1.000000
0.000000 1.000000 1.000000
0.000000 1.000000 1.000000
0.000000 1.000000 1.000000
0.000000 1.000000 1.000000
0.000000 1.000000 1.000000
0.000000 1.000000 1.000000
0.623635 0.938041 1.000000
0.899227 0.908151 0.988803
0.999302 0.892903 0.982614
0.000000 1.000000 1.000000
0.000000 1.000000 1.000000
0.000000 1.000000 1.000000
0.000000 1.000000 1.000000
0.000000 1.000000 1.000000
0.000000 1.000000 1.000000
0.000000 1.000000 1.000000
0.768142 0.982805 0.978518
0.961547 0.961739 0.961751
